; G-Code generated by Simplify3D(R) Version 4.0.0
; Sep 2, 2017 at 10:36:50 PM
; Settings Summary
;   processName,Process1
;   applyToModels,CANECO-CANECO-amarelo_001
;   profileName,bq Prusa i3 Hephestos (modified)
;   profileVersion,2017-09-02 01:37:20
;   baseProfile,
;   printMaterial,PLA
;   printQuality,High
;   printExtruders,
;   extruderName,Primary Extruder
;   extruderToolheadNumber,0
;   extruderDiameter,0.4
;   extruderAutoWidth,0
;   extruderWidth,0.4
;   extrusionMultiplier,1
;   extruderUseRetract,1
;   extruderRetractionDistance,2
;   extruderExtraRestartDistance,0
;   extruderRetractionZLift,0
;   extruderRetractionSpeed,1200
;   extruderUseCoasting,0
;   extruderCoastingDistance,0.2
;   extruderUseWipe,0
;   extruderWipeDistance,5
;   primaryExtruder,0
;   layerHeight,0.1
;   topSolidLayers,3
;   bottomSolidLayers,3
;   perimeterOutlines,2
;   printPerimetersInsideOut,1
;   startPointOption,2
;   startPointOriginX,0
;   startPointOriginY,0
;   sequentialIslands,0
;   spiralVaseMode,0
;   firstLayerHeightPercentage,100
;   firstLayerWidthPercentage,100
;   firstLayerUnderspeed,1
;   useRaft,0
;   raftExtruder,0
;   raftTopLayers,4
;   raftBaseLayers,2
;   raftOffset,10
;   raftSeparationDistance,0.14
;   raftTopInfill,100
;   aboveRaftSpeedMultiplier,0.3
;   useSkirt,0
;   skirtExtruder,0
;   skirtLayers,1
;   skirtOutlines,2
;   skirtOffset,3.6
;   usePrimePillar,0
;   primePillarExtruder,999
;   primePillarWidth,12
;   primePillarLocation,7
;   primePillarSpeedMultiplier,1
;   useOozeShield,0
;   oozeShieldExtruder,999
;   oozeShieldOffset,2
;   oozeShieldOutlines,1
;   oozeShieldSidewallShape,1
;   oozeShieldSidewallAngle,30
;   oozeShieldSpeedMultiplier,1
;   infillExtruder,0
;   internalInfillPattern,Fast Honeycomb
;   externalInfillPattern,Rectilinear
;   infillPercentage,20
;   outlineOverlapPercentage,50
;   infillExtrusionWidthPercentage,100
;   minInfillLength,1
;   infillLayerInterval,1
;   internalInfillAngles,0
;   overlapInternalInfillAngles,0
;   externalInfillAngles,40,-45
;   generateSupport,0
;   supportExtruder,0
;   supportInfillPercentage,15
;   supportExtraInflation,0
;   supportBaseLayers,3
;   denseSupportExtruder,0
;   denseSupportLayers,3
;   denseSupportInfillPercentage,30
;   supportLayerInterval,1
;   supportHorizontalPartOffset,0.4
;   supportUpperSeparationLayers,1
;   supportLowerSeparationLayers,1
;   supportType,0
;   supportGridSpacing,2
;   maxOverhangAngle,65
;   supportAngles,45
;   temperatureName,Primary Extruder,BED
;   temperatureNumber,0,0
;   temperatureSetpointCount,1,1
;   temperatureSetpointLayers,1,1
;   temperatureSetpointTemperatures,205,60
;   temperatureStabilizeAtStartup,1,0
;   temperatureHeatedBed,0,1
;   temperatureRelayBetweenLayers,0,0
;   temperatureRelayBetweenLoops,0,0
;   fanLayers,1,2
;   fanSpeeds,0,100
;   blipFanToFullPower,0
;   adjustSpeedForCooling,0
;   minSpeedLayerTime,15
;   minCoolingSpeedSlowdown,5
;   increaseFanForCooling,0
;   minFanLayerTime,45
;   maxCoolingFanSpeed,100
;   increaseFanForBridging,0
;   bridgingFanSpeed,100
;   use5D,1
;   relativeEdistances,0
;   allowEaxisZeroing,1
;   independentExtruderAxes,0
;   includeM10123,0
;   stickySupport,1
;   applyToolheadOffsets,0
;   gcodeXoffset,0
;   gcodeYoffset,0
;   gcodeZoffset,0
;   overrideMachineDefinition,1
;   machineTypeOverride,0
;   strokeXoverride,190
;   strokeYoverride,190
;   strokeZoverride,185
;   originOffsetXoverride,0
;   originOffsetYoverride,0
;   originOffsetZoverride,0
;   homeXdirOverride,-1
;   homeYdirOverride,-1
;   homeZdirOverride,-1
;   flipXoverride,1
;   flipYoverride,-1
;   flipZoverride,1
;   toolheadOffsets,0,0|0,0|0,0|0,0|0,0|0,0
;   overrideFirmwareConfiguration,1
;   firmwareTypeOverride,RepRap (Marlin/Repetier/Sprinter)
;   GPXconfigOverride,r2
;   baudRateOverride,115200
;   overridePrinterModels,1
;   printerModelsOverride
;   startingGcode,G28 ; home all axes,G1 X0 Y20 Z0.2 F3000 ; get ready to prime,G92 E0 ; reset extrusion distance,G1 Y100 E20 F600 ; prime nozzle
;   layerChangeGcode,
;   retractionGcode,
;   toolChangeGcode,
;   endingGcode,G28 X0 ; home X axis,M106 S0 ; turn off fan,M104 S0 ; turn off extruder,M140 S0 ; turn off bed,M84 ; disable motors
;   exportFileFormat,gcode
;   celebration,0
;   celebrationSong,Random Song
;   postProcessing,
;   defaultSpeed,3600
;   outlineUnderspeed,0.7
;   solidInfillUnderspeed,0.7
;   supportUnderspeed,0.7
;   rapidXYspeed,4800
;   rapidZspeed,1002
;   minBridgingArea,50
;   bridgingExtraInflation,0
;   bridgingExtrusionMultiplier,1
;   bridgingSpeedMultiplier,1
;   useFixedBridgingAngle,0
;   fixedBridgingAngle,0
;   applyBridgingToPerimeters,0
;   filamentDiameters,1.75|1.75|1.75|1.75|1.75|1.75
;   filamentPricesPerKg,46|46|46|46|46|46
;   filamentDensities,1.25|1.25|1.25|1.25|1.25|1.25
;   useMinPrintHeight,0
;   minPrintHeight,181.17
;   useMaxPrintHeight,0
;   maxPrintHeight,31.6
;   useDiaphragm,0
;   diaphragmLayerInterval,20
;   robustSlicing,1
;   mergeAllIntoSolid,0
;   onlyRetractWhenCrossingOutline,1
;   retractBetweenLayers,1
;   useRetractionMinTravel,0
;   retractionMinTravel,3
;   retractWhileWiping,0
;   onlyWipeOutlines,1
;   avoidCrossingOutline,0
;   maxMovementDetourFactor,3
;   toolChangeRetractionDistance,12
;   toolChangeExtraRestartDistance,-0.5
;   toolChangeRetractionSpeed,600
;   externalThinWallType,1
;   internalThinWallType,2
;   thinWallAllowedOverlapPercentage,50
;   singleExtrusionMinLength,1
;   singleExtrusionMinPrintingWidthPercentage,50
;   singleExtrusionMaxPrintingWidthPercentage,200
;   singleExtrusionEndpointExtension,0.2
;   horizontalSizeCompensation,0
G90
M82
M106 S0
M140 S60
M104 S205 T0
M109 S205 T0
G28 ; home all axes
G1 X0 Y20 Z0.2 F3000 ; get ready to prime
G92 E0 ; reset extrusion distance
G1 Y100 E20 F600 ; prime nozzle
G92 E0
G1 E-2.0000 F1200
G1 Z0.100 F1002
; process Process1
; layer 1, Z = 0.100
T0
; tool H0.100 W0.400
; inner perimeter
G1 X58.099 Y100.099 F4800
G1 E0.0000 F360
G92 E0
G1 X58.899 Y100.099 E0.0133 F3060
G1 X58.899 Y100.899 E0.0266
G1 X58.099 Y100.899 E0.0399
G1 X58.099 Y100.099 E0.0532
; outer perimeter
G1 X57.699 Y99.699 F4800
G92 E0
G1 X59.299 Y99.699 E0.0266 F2520
G1 X59.299 Y101.299 E0.0532
G1 X57.699 Y101.299 E0.0798
G1 X57.699 Y99.699 E0.1064
; solid layer
G1 X58.299 Y100.334 F4800
G92 E0
G1 X58.699 Y100.669 E0.0087 F2520
G92 E0
G1 E-2.0000 F1200
; inner perimeter
G1 X56.899 Y102.099 F4800
G1 E0.0000 F1200
G92 E0
G1 X56.899 Y102.899 E0.0133 F3060
G1 X56.099 Y102.899 E0.0266
G1 X56.099 Y102.099 E0.0399
G1 X56.899 Y102.099 E0.0532
; outer perimeter
G1 X57.299 Y101.699 F4800
G92 E0
G1 X57.299 Y103.299 E0.0266 F2520
G1 X55.699 Y103.299 E0.0532
G1 X55.699 Y101.699 E0.0798
G1 X57.299 Y101.699 E0.1064
; solid layer
G1 X56.699 Y102.646 F4800
G92 E0
G1 X56.299 Y102.311 E0.0087 F2520
G92 E0
G1 E-2.0000 F1200
; inner perimeter
G1 X54.899 Y104.099 F4800
G1 E0.0000 F1200
G92 E0
G1 X54.899 Y104.899 E0.0133 F3060
G1 X54.101 Y104.899 E0.0266
G1 X54.101 Y104.099 E0.0399
G1 X54.899 Y104.099 E0.0531
; outer perimeter
G1 X55.299 Y103.699 F4800
G92 E0
G1 X55.299 Y105.299 E0.0266 F2520
G1 X53.701 Y105.299 E0.0532
G1 X53.701 Y103.699 E0.0798
G1 X55.299 Y103.699 E0.1064
; solid layer
G1 X54.699 Y104.623 F4800
G92 E0
G1 X54.313 Y104.299 E0.0084 F2520
G92 E0
G1 E-2.0000 F1200
; inner perimeter
G1 X56.099 Y106.099 F4800
G1 E0.0000 F1200
G92 E0
G1 X56.899 Y106.099 E0.0133 F3060
G1 X56.899 Y106.899 E0.0266
G1 X56.099 Y106.899 E0.0399
G1 X56.099 Y106.099 E0.0532
; outer perimeter
G1 X55.699 Y105.699 F4800
G92 E0
G1 X57.299 Y105.699 E0.0266 F2520
G1 X57.299 Y107.299 E0.0532
G1 X55.699 Y107.299 E0.0798
G1 X55.699 Y105.699 E0.1064
; solid layer
G1 X56.299 Y106.488 F4800
G92 E0
G1 X56.551 Y106.699 E0.0055 F2520
G1 X56.699 Y106.699 E0.0079
G1 X56.699 Y106.301 E0.0145
G1 X56.696 Y106.299 E0.0146
G92 E0
G1 E-2.0000 F1200
; inner perimeter
G1 X58.099 Y108.099 F4800
G1 E0.0000 F1200
G92 E0
G1 X58.899 Y108.099 E0.0133 F3060
G1 X58.899 Y108.899 E0.0266
G1 X58.099 Y108.899 E0.0399
G1 X58.099 Y108.099 E0.0532
; outer perimeter
G1 X57.699 Y107.699 F4800
G92 E0
G1 X59.299 Y107.699 E0.0266 F2520
G1 X59.299 Y109.299 E0.0532
G1 X57.699 Y109.299 E0.0798
G1 X57.699 Y107.699 E0.1064
; solid layer
G1 X58.457 Y108.299 F4800
G92 E0
G1 X58.699 Y108.502 E0.0052 F2520
G1 X58.699 Y108.699 E0.0085
G1 X58.312 Y108.699 E0.0150
G1 X58.299 Y108.688 E0.0152
G92 E0
G1 E-2.0000 F1200
; inner perimeter
G1 X64.099 Y109.099 F4800
G1 E0.0000 F1200
G92 E0
G1 X67.099 Y109.099 E0.0499 F3060
G1 X67.099 Y98.101 E0.2328
G1 X68.901 Y98.101 E0.2628
G1 X68.901 Y109.099 E0.4457
G1 X71.901 Y109.099 E0.4955
G1 X71.901 Y110.899 E0.5255
G1 X64.099 Y110.899 E0.6552
G1 X64.099 Y109.099 E0.6852
; outer perimeter
G1 X63.699 Y108.699 F4800
G92 E0
G1 X66.699 Y108.699 E0.0499 F2520
G1 X66.699 Y97.701 E0.2328
G1 X69.301 Y97.701 E0.2761
G1 X69.301 Y108.699 E0.4590
G1 X72.301 Y108.699 E0.5088
G1 X72.301 Y111.299 E0.5521
G1 X63.699 Y111.299 E0.6951
G1 X63.699 Y108.699 E0.7384
; solid layer
G1 X64.429 Y110.699 F4800
G92 E0
G1 X64.299 Y110.590 E0.0028 F2520
G1 X64.299 Y110.068 E0.0115
G1 X65.051 Y110.699 E0.0278
G1 X65.674 Y110.699 E0.0382
G1 X64.299 Y109.546 E0.0680
G1 X64.299 Y109.299 E0.0721
G1 X64.627 Y109.299 E0.0776
G1 X66.296 Y110.699 E0.1138
G1 X66.918 Y110.699 E0.1242
G1 X65.250 Y109.299 E0.1604
G1 X65.872 Y109.299 E0.1707
G1 X67.540 Y110.699 E0.2070
G1 X68.163 Y110.699 E0.2173
G1 X66.494 Y109.299 E0.2535
G1 X67.117 Y109.299 E0.2639
G1 X68.785 Y110.699 E0.3001
G1 X69.407 Y110.699 E0.3104
G1 X67.299 Y108.930 E0.3562
G1 X67.299 Y108.408 E0.3649
G1 X70.030 Y110.699 E0.4242
G1 X70.652 Y110.699 E0.4345
G1 X68.983 Y109.299 E0.4707
G1 X68.701 Y109.299 E0.4754
G1 X68.701 Y109.062 E0.4794
G1 X67.299 Y107.886 E0.5098
G1 X67.299 Y107.363 E0.5185
G1 X68.701 Y108.540 E0.5489
G1 X68.701 Y108.018 E0.5576
G1 X67.299 Y106.841 E0.5881
G1 X67.299 Y106.319 E0.5967
G1 X68.701 Y107.495 E0.6272
G1 X68.701 Y106.973 E0.6359
G1 X67.299 Y105.797 E0.6663
G1 X67.299 Y105.275 E0.6750
G1 X68.701 Y106.451 E0.7054
G1 X68.701 Y105.929 E0.7141
G1 X67.299 Y104.753 E0.7445
G1 X67.299 Y104.230 E0.7532
G1 X68.701 Y105.407 E0.7837
G1 X68.701 Y104.885 E0.7923
G1 X67.299 Y103.708 E0.8228
G1 X67.299 Y103.186 E0.8315
G1 X68.701 Y104.362 E0.8619
G1 X68.701 Y103.840 E0.8706
G1 X67.299 Y102.664 E0.9010
G1 X67.299 Y102.142 E0.9097
G1 X68.701 Y103.318 E0.9401
G1 X68.701 Y102.796 E0.9488
G1 X67.299 Y101.620 E0.9793
G1 X67.299 Y101.097 E0.9879
G1 X68.701 Y102.274 E1.0184
G1 X68.701 Y101.752 E1.0271
G1 X67.299 Y100.575 E1.0575
G1 X67.299 Y100.053 E1.0662
G1 X68.701 Y101.230 E1.0966
G1 X68.701 Y100.707 E1.1053
G1 X67.299 Y99.531 E1.1357
G1 X67.299 Y99.009 E1.1444
G1 X68.701 Y100.185 E1.1749
G1 X68.701 Y99.663 E1.1835
G1 X67.299 Y98.487 E1.2140
G1 X67.299 Y98.301 E1.2171
G1 X67.700 Y98.301 E1.2237
G1 X68.701 Y99.141 E1.2455
G1 X68.701 Y98.619 E1.2541
G1 X68.322 Y98.301 E1.2624
G92 E0
G1 E-2.0000 F1200
G1 X69.606 Y109.299 F4800
G1 E0.0000 F1200
G92 E0
G1 X71.274 Y110.699 E0.0362 F2520
G1 X71.701 Y110.699 E0.0433
G1 X71.701 Y110.535 E0.0460
G1 X70.228 Y109.299 E0.0780
G1 X70.850 Y109.299 E0.0884
G1 X71.701 Y110.013 E0.1068
G1 X71.701 Y109.491 E0.1155
G1 X71.473 Y109.299 E0.1205
G92 E0
G1 E-2.0000 F1200
; inner perimeter
G1 X75.101 Y109.099 F4800
G1 E0.0000 F1200
G92 E0
G1 X80.101 Y109.099 E0.0832 F3060
G1 X80.101 Y105.899 E0.1364
G1 X77.101 Y105.899 E0.1863
G1 X77.101 Y104.099 E0.2162
G1 X80.101 Y104.099 E0.2661
G1 X80.101 Y99.899 E0.3359
G1 X75.101 Y99.899 E0.4191
G1 X75.101 Y98.101 E0.4490
G1 X81.901 Y98.101 E0.5621
G1 X81.901 Y110.899 E0.7749
G1 X75.101 Y110.899 E0.8880
G1 X75.101 Y109.099 E0.9179
; outer perimeter
G1 X74.701 Y108.699 F4800
G92 E0
G1 X79.701 Y108.699 E0.0832 F2520
G1 X79.701 Y106.299 E0.1231
G1 X76.701 Y106.299 E0.1730
G1 X76.701 Y103.699 E0.2162
G1 X79.701 Y103.699 E0.2661
G1 X79.701 Y100.299 E0.3226
G1 X74.701 Y100.299 E0.4058
G1 X74.701 Y97.701 E0.4490
G1 X82.301 Y97.701 E0.5754
G1 X82.301 Y111.299 E0.8015
G1 X74.701 Y111.299 E0.9279
G1 X74.701 Y108.699 E0.9711
; solid layer
G1 X75.301 Y110.423 F4800
G92 E0
G1 X75.630 Y110.699 E0.0071 F2520
G1 X76.253 Y110.699 E0.0175
G1 X75.301 Y109.901 E0.0382
G1 X75.301 Y109.378 E0.0468
G1 X76.875 Y110.699 E0.0810
G1 X77.497 Y110.699 E0.0914
G1 X75.829 Y109.299 E0.1276
G1 X76.451 Y109.299 E0.1379
G1 X78.119 Y110.699 E0.1741
G1 X78.742 Y110.699 E0.1845
G1 X77.073 Y109.299 E0.2207
G1 X77.696 Y109.299 E0.2311
G1 X79.364 Y110.699 E0.2673
G1 X79.986 Y110.699 E0.2776
G1 X78.318 Y109.299 E0.3139
G1 X78.940 Y109.299 E0.3242
G1 X80.609 Y110.699 E0.3604
G1 X81.231 Y110.699 E0.3708
G1 X79.562 Y109.299 E0.4070
G1 X80.185 Y109.299 E0.4173
G1 X81.701 Y110.571 E0.4503
G1 X81.701 Y110.049 E0.4589
G1 X80.301 Y108.874 E0.4893
G1 X80.301 Y108.352 E0.4980
G1 X81.701 Y109.527 E0.5284
G1 X81.701 Y109.005 E0.5371
G1 X80.301 Y107.830 E0.5675
G1 X80.301 Y107.308 E0.5762
G1 X81.701 Y108.483 E0.6066
G1 X81.701 Y107.961 E0.6152
G1 X80.301 Y106.786 E0.6456
G1 X80.301 Y106.264 E0.6543
G1 X81.701 Y107.438 E0.6847
G1 X81.701 Y106.916 E0.6934
G1 X80.301 Y105.741 E0.7238
G1 X77.761 Y105.699 F4800
G92 E0
G1 X77.301 Y105.313 E0.0100 F2520
G1 X77.301 Y104.791 E0.0187
G1 X78.384 Y105.699 E0.0422
G1 X79.006 Y105.699 E0.0525
G1 X77.337 Y104.299 E0.0887
G1 X77.960 Y104.299 E0.0991
G1 X79.628 Y105.699 E0.1353
G1 X80.250 Y105.699 E0.1457
G1 X78.582 Y104.299 E0.1819
G1 X79.204 Y104.299 E0.1922
G1 X81.701 Y106.394 E0.2464
G1 X81.701 Y105.872 E0.2551
G1 X79.827 Y104.299 E0.2958
G1 X80.301 Y104.299 E0.3037
G1 X80.301 Y104.175 E0.3058
G1 X81.701 Y105.350 E0.3362
G1 X81.701 Y104.828 E0.3448
G1 X80.301 Y103.653 E0.3752
G1 X80.301 Y103.131 E0.3839
G1 X81.701 Y104.305 E0.4143
G1 X81.701 Y103.783 E0.4230
G1 X80.301 Y102.608 E0.4534
G1 X80.301 Y102.086 E0.4621
G1 X81.701 Y103.261 E0.4925
G1 X81.701 Y102.739 E0.5011
G1 X80.301 Y101.564 E0.5315
G1 X80.301 Y101.042 E0.5402
G1 X81.701 Y102.217 E0.5706
G1 X81.701 Y101.695 E0.5793
G1 X80.301 Y100.520 E0.6097
G1 X81.390 Y98.301 F4800
G92 E0
G1 X81.701 Y98.562 E0.0067 F2520
G1 X81.701 Y99.084 E0.0154
G1 X80.768 Y98.301 E0.0357
G1 X80.146 Y98.301 E0.0460
G1 X81.701 Y99.606 E0.0798
G1 X81.701 Y100.128 E0.0885
G1 X79.524 Y98.301 E0.1357
G1 X78.901 Y98.301 E0.1461
G1 X81.701 Y100.650 E0.2069
G1 X81.701 Y101.172 E0.2156
G1 X80.301 Y99.998 E0.2459
G1 X80.301 Y99.699 E0.2509
G1 X79.945 Y99.699 E0.2568
G1 X78.279 Y98.301 E0.2930
G1 X77.657 Y98.301 E0.3033
G1 X79.323 Y99.699 E0.3395
G1 X78.700 Y99.699 E0.3499
G1 X77.034 Y98.301 E0.3860
G1 X76.412 Y98.301 E0.3964
G1 X78.078 Y99.699 E0.4326
G1 X77.456 Y99.699 E0.4429
G1 X75.790 Y98.301 E0.4791
G1 X75.301 Y98.301 E0.4872
G1 X75.301 Y98.413 E0.4891
G1 X76.834 Y99.699 E0.5223
G1 X76.211 Y99.699 E0.5327
G1 X75.301 Y98.935 E0.5524
G1 X75.301 Y99.457 E0.5611
G1 X75.589 Y99.699 E0.5674
G92 E0
G1 E-2.0000 F1200
; inner perimeter
G1 X85.099 Y99.099 F4800
G1 E0.0000 F1200
G92 E0
G1 X86.099 Y99.099 E0.0166 F3060
G1 X86.099 Y98.101 E0.0332
G1 X91.899 Y98.101 E0.1297
G1 X91.899 Y99.099 E0.1463
G1 X92.899 Y99.099 E0.1629
G1 X92.899 Y101.899 E0.2095
G1 X91.099 Y101.899 E0.2394
G1 X91.099 Y99.899 E0.2727
G1 X86.899 Y99.899 E0.3425
G1 X86.899 Y104.099 E0.4124
G1 X91.899 Y104.099 E0.4955
G1 X91.899 Y105.099 E0.5121
G1 X92.899 Y105.099 E0.5288
G1 X92.899 Y109.899 E0.6086
G1 X91.899 Y109.899 E0.6252
G1 X91.899 Y110.899 E0.6419
G1 X86.099 Y110.899 E0.7383
G1 X86.099 Y109.899 E0.7549
G1 X85.099 Y109.899 E0.7716
G1 X85.099 Y108.099 E0.8015
G1 X86.899 Y108.099 E0.8314
G1 X86.899 Y109.099 E0.8481
G1 X91.099 Y109.099 E0.9179
G1 X91.099 Y105.899 E0.9711
G1 X85.099 Y105.899 E1.0709
G1 X85.099 Y99.099 E1.1840
; outer perimeter
G1 X84.699 Y98.699 F4800
G92 E0
G1 X85.699 Y98.699 E0.0166 F2520
G1 X85.699 Y97.701 E0.0332
G1 X92.299 Y97.701 E0.1430
G1 X92.299 Y98.699 E0.1596
G1 X93.299 Y98.699 E0.1762
G1 X93.299 Y102.299 E0.2361
G1 X90.699 Y102.299 E0.2793
G1 X90.699 Y100.299 E0.3126
G1 X87.299 Y100.299 E0.3691
G1 X87.299 Y103.699 E0.4257
G1 X92.299 Y103.699 E0.5088
G1 X92.299 Y104.699 E0.5254
G1 X93.299 Y104.699 E0.5421
G1 X93.299 Y110.299 E0.6352
