; G-Code generated by Simplify3D(R) Version 4.0.0
; Sep 2, 2017 at 10:37:47 PM
; Settings Summary
;   processName,Process1
;   applyToModels,CANECO-CANECO-azul_escuro_001_001
;   profileName,bq Prusa i3 Hephestos (modified)
;   profileVersion,2017-09-02 01:37:20
;   baseProfile,
;   printMaterial,PLA
;   printQuality,High
;   printExtruders,
;   extruderName,Primary Extruder
;   extruderToolheadNumber,0
;   extruderDiameter,0.4
;   extruderAutoWidth,0
;   extruderWidth,0.4
;   extrusionMultiplier,1
;   extruderUseRetract,1
;   extruderRetractionDistance,2
;   extruderExtraRestartDistance,0
;   extruderRetractionZLift,0
;   extruderRetractionSpeed,1200
;   extruderUseCoasting,0
;   extruderCoastingDistance,0.2
;   extruderUseWipe,0
;   extruderWipeDistance,5
;   primaryExtruder,0
;   layerHeight,0.1
;   topSolidLayers,3
;   bottomSolidLayers,3
;   perimeterOutlines,2
;   printPerimetersInsideOut,1
;   startPointOption,2
;   startPointOriginX,0
;   startPointOriginY,0
;   sequentialIslands,0
;   spiralVaseMode,0
;   firstLayerHeightPercentage,100
;   firstLayerWidthPercentage,100
;   firstLayerUnderspeed,1
;   useRaft,0
;   raftExtruder,0
;   raftTopLayers,4
;   raftBaseLayers,2
;   raftOffset,10
;   raftSeparationDistance,0.14
;   raftTopInfill,100
;   aboveRaftSpeedMultiplier,0.3
;   useSkirt,0
;   skirtExtruder,0
;   skirtLayers,1
;   skirtOutlines,2
;   skirtOffset,3.6
;   usePrimePillar,0
;   primePillarExtruder,999
;   primePillarWidth,12
;   primePillarLocation,7
;   primePillarSpeedMultiplier,1
;   useOozeShield,0
;   oozeShieldExtruder,999
;   oozeShieldOffset,2
;   oozeShieldOutlines,1
;   oozeShieldSidewallShape,1
;   oozeShieldSidewallAngle,30
;   oozeShieldSpeedMultiplier,1
;   infillExtruder,0
;   internalInfillPattern,Fast Honeycomb
;   externalInfillPattern,Rectilinear
;   infillPercentage,20
;   outlineOverlapPercentage,50
;   infillExtrusionWidthPercentage,100
;   minInfillLength,1
;   infillLayerInterval,1
;   internalInfillAngles,0
;   overlapInternalInfillAngles,0
;   externalInfillAngles,40,-45
;   generateSupport,0
;   supportExtruder,0
;   supportInfillPercentage,15
;   supportExtraInflation,0
;   supportBaseLayers,3
;   denseSupportExtruder,0
;   denseSupportLayers,3
;   denseSupportInfillPercentage,30
;   supportLayerInterval,1
;   supportHorizontalPartOffset,0.4
;   supportUpperSeparationLayers,1
;   supportLowerSeparationLayers,1
;   supportType,0
;   supportGridSpacing,2
;   maxOverhangAngle,65
;   supportAngles,45
;   temperatureName,Primary Extruder,BED
;   temperatureNumber,0,0
;   temperatureSetpointCount,1,1
;   temperatureSetpointLayers,1,1
;   temperatureSetpointTemperatures,205,60
;   temperatureStabilizeAtStartup,1,0
;   temperatureHeatedBed,0,1
;   temperatureRelayBetweenLayers,0,0
;   temperatureRelayBetweenLoops,0,0
;   fanLayers,1,2
;   fanSpeeds,0,100
;   blipFanToFullPower,0
;   adjustSpeedForCooling,0
;   minSpeedLayerTime,15
;   minCoolingSpeedSlowdown,5
;   increaseFanForCooling,0
;   minFanLayerTime,45
;   maxCoolingFanSpeed,100
;   increaseFanForBridging,0
;   bridgingFanSpeed,100
;   use5D,1
;   relativeEdistances,0
;   allowEaxisZeroing,1
;   independentExtruderAxes,0
;   includeM10123,0
;   stickySupport,1
;   applyToolheadOffsets,0
;   gcodeXoffset,0
;   gcodeYoffset,0
;   gcodeZoffset,0
;   overrideMachineDefinition,1
;   machineTypeOverride,0
;   strokeXoverride,190
;   strokeYoverride,190
;   strokeZoverride,185
;   originOffsetXoverride,0
;   originOffsetYoverride,0
;   originOffsetZoverride,0
;   homeXdirOverride,-1
;   homeYdirOverride,-1
;   homeZdirOverride,-1
;   flipXoverride,1
;   flipYoverride,-1
;   flipZoverride,1
;   toolheadOffsets,0,0|0,0|0,0|0,0|0,0|0,0
;   overrideFirmwareConfiguration,1
;   firmwareTypeOverride,RepRap (Marlin/Repetier/Sprinter)
;   GPXconfigOverride,r2
;   baudRateOverride,115200
;   overridePrinterModels,1
;   printerModelsOverride
;   startingGcode,G28 ; home all axes,G1 X0 Y20 Z0.2 F3000 ; get ready to prime,G92 E0 ; reset extrusion distance,G1 Y100 E20 F600 ; prime nozzle
;   layerChangeGcode,
;   retractionGcode,
;   toolChangeGcode,
;   endingGcode,G28 X0 ; home X axis,M106 S0 ; turn off fan,M104 S0 ; turn off extruder,M140 S0 ; turn off bed,M84 ; disable motors
;   exportFileFormat,gcode
;   celebration,0
;   celebrationSong,Random Song
;   postProcessing,
;   defaultSpeed,3600
;   outlineUnderspeed,0.7
;   solidInfillUnderspeed,0.7
;   supportUnderspeed,0.7
;   rapidXYspeed,4800
;   rapidZspeed,1002
;   minBridgingArea,50
;   bridgingExtraInflation,0
;   bridgingExtrusionMultiplier,1
;   bridgingSpeedMultiplier,1
;   useFixedBridgingAngle,0
;   fixedBridgingAngle,0
;   applyBridgingToPerimeters,0
;   filamentDiameters,1.75|1.75|1.75|1.75|1.75|1.75
;   filamentPricesPerKg,46|46|46|46|46|46
;   filamentDensities,1.25|1.25|1.25|1.25|1.25|1.25
;   useMinPrintHeight,0
;   minPrintHeight,181.17
;   useMaxPrintHeight,0
;   maxPrintHeight,31.6
;   useDiaphragm,0
;   diaphragmLayerInterval,20
;   robustSlicing,1
;   mergeAllIntoSolid,0
;   onlyRetractWhenCrossingOutline,1
;   retractBetweenLayers,1
;   useRetractionMinTravel,0
;   retractionMinTravel,3
;   retractWhileWiping,0
;   onlyWipeOutlines,1
;   avoidCrossingOutline,0
;   maxMovementDetourFactor,3
;   toolChangeRetractionDistance,12
;   toolChangeExtraRestartDistance,-0.5
;   toolChangeRetractionSpeed,600
;   externalThinWallType,1
;   internalThinWallType,2
;   thinWallAllowedOverlapPercentage,50
;   singleExtrusionMinLength,1
;   singleExtrusionMinPrintingWidthPercentage,50
;   singleExtrusionMaxPrintingWidthPercentage,200
;   singleExtrusionEndpointExtension,0.2
;   horizontalSizeCompensation,0
G90
M82
M106 S0
M140 S60
M104 S205 T0
M109 S205 T0
G28 ; home all axes
G1 X0 Y20 Z0.2 F3000 ; get ready to prime
G92 E0 ; reset extrusion distance
G1 Y100 E20 F600 ; prime nozzle
G92 E0
G1 E-2.0000 F1200
G1 Z0.100 F1002
; process Process1
; layer 1, Z = 0.100
T0
; tool H0.100 W0.400
; inner perimeter
G1 X42.101 Y84.099 F4800
G1 E0.0000 F360
G92 E0
G1 X46.901 Y84.099 E0.0798 F3060
G1 X46.901 Y85.097 E0.0964
G1 X47.901 Y85.097 E0.1131
G1 X47.901 Y86.097 E0.1297
G1 X50.099 Y86.097 E0.1662
G1 X50.099 Y84.099 E0.1995
G1 X51.899 Y84.099 E0.2294
G1 X51.899 Y92.897 E0.3757
G1 X50.099 Y92.897 E0.4056
G1 X50.099 Y89.899 E0.4555
G1 X49.101 Y89.899 E0.4721
G1 X49.101 Y88.899 E0.4887
G1 X48.101 Y88.899 E0.5054
G1 X48.101 Y87.899 E0.5220
G1 X47.101 Y87.899 E0.5386
G1 X47.101 Y86.899 E0.5552
G1 X46.101 Y86.899 E0.5719
G1 X46.101 Y85.897 E0.5885
G1 X43.899 Y85.897 E0.6252
G1 X43.899 Y92.897 E0.7416
G1 X42.101 Y92.897 E0.7715
G1 X42.101 Y84.099 E0.9178
; outer perimeter
G1 X41.701 Y83.699 F4800
G92 E0
G1 X47.301 Y83.699 E0.0931 F2520
G1 X47.301 Y84.697 E0.1097
G1 X48.301 Y84.697 E0.1264
G1 X48.301 Y85.697 E0.1430
G1 X49.699 Y85.697 E0.1662
G1 X49.699 Y83.699 E0.1995
G1 X52.299 Y83.699 E0.2427
G1 X52.299 Y93.297 E0.4023
G1 X49.699 Y93.297 E0.4456
G1 X49.699 Y90.299 E0.4954
G1 X48.701 Y90.299 E0.5120
G1 X48.701 Y89.299 E0.5286
G1 X47.701 Y89.299 E0.5453
G1 X47.701 Y88.299 E0.5619
G1 X46.701 Y88.299 E0.5785
G1 X46.701 Y87.299 E0.5952
G1 X45.701 Y87.299 E0.6118
G1 X45.701 Y86.297 E0.6285
G1 X44.299 Y86.297 E0.6518
G1 X44.299 Y93.297 E0.7682
G1 X41.701 Y93.297 E0.8114
G1 X41.701 Y83.699 E0.9710
; solid layer
G1 X46.288 Y84.299 F4800
G92 E0
G1 X46.701 Y84.646 E0.0090 F2520
G1 X46.701 Y85.168 E0.0177
G1 X45.665 Y84.299 E0.0401
G1 X45.043 Y84.299 E0.0505
G1 X51.699 Y89.884 E0.1950
G1 X51.699 Y90.406 E0.2037
G1 X47.301 Y86.716 E0.2992
G1 X47.301 Y86.699 E0.2994
G1 X47.281 Y86.699 E0.2998
G1 X46.301 Y85.877 E0.3210
G1 X46.301 Y85.697 E0.3240
G1 X46.087 Y85.697 E0.3276
G1 X44.421 Y84.299 E0.3638
G1 X43.798 Y84.299 E0.3741
G1 X45.464 Y85.697 E0.4103
G1 X44.842 Y85.697 E0.4206
G1 X43.176 Y84.299 E0.4568
G1 X42.554 Y84.299 E0.4671
G1 X44.220 Y85.697 E0.5033
G1 X43.699 Y85.697 E0.5120
G1 X43.699 Y85.782 E0.5134
G1 X42.301 Y84.609 E0.5437
G1 X42.301 Y85.131 E0.5524
G1 X43.699 Y86.304 E0.5828
G1 X43.699 Y86.826 E0.5915
G1 X42.301 Y85.653 E0.6218
G1 X42.301 Y86.176 E0.6305
G1 X43.699 Y87.349 E0.6608
G1 X43.699 Y87.871 E0.6695
G1 X42.301 Y86.698 E0.6999
G1 X42.301 Y87.220 E0.7086
G1 X43.699 Y88.393 E0.7389
G1 X43.699 Y88.915 E0.7476
G1 X42.301 Y87.742 E0.7779
G1 X42.301 Y88.264 E0.7866
G1 X43.699 Y89.437 E0.8170
G1 X43.699 Y89.959 E0.8257
G1 X42.301 Y88.786 E0.8560
G1 X42.301 Y89.309 E0.8647
G1 X43.699 Y90.482 E0.8950
G1 X43.699 Y91.004 E0.9037
G1 X42.301 Y89.831 E0.9341
G1 X42.301 Y90.353 E0.9428
G1 X43.699 Y91.526 E0.9731
G1 X43.699 Y92.048 E0.9818
G1 X42.301 Y90.875 E1.0121
G1 X42.301 Y91.397 E1.0208
G1 X43.699 Y92.570 E1.0512
G1 X43.699 Y92.697 E1.0533
G1 X43.228 Y92.697 E1.0611
G1 X42.301 Y91.919 E1.0812
G1 X42.301 Y92.441 E1.0899
G1 X42.605 Y92.697 E1.0965
G92 E0
G1 E-2.0000 F1200
G1 X48.301 Y88.599 F4800
G1 E0.0000 F1200
G92 E0
G1 X48.420 Y88.699 E0.0026 F2520
G1 X49.042 Y88.699 E0.0129
G1 X48.301 Y88.077 E0.0290
G1 X48.301 Y87.699 E0.0353
G1 X47.850 Y87.699 E0.0428
G1 X47.301 Y87.238 E0.0547
G1 X46.659 Y86.699 F4800
G92 E0
G1 X46.301 Y86.399 E0.0078 F2520
G1 X47.701 Y85.485 F4800
G92 E0
G1 X47.477 Y85.297 E0.0049 F2520
G1 X46.855 Y85.297 E0.0152
G1 X47.701 Y86.007 E0.0336
G1 X47.701 Y86.297 E0.0384
G1 X48.046 Y86.297 E0.0442
G1 X51.699 Y89.362 E0.1234
G1 X51.699 Y88.840 E0.1321
G1 X48.669 Y86.297 E0.1979
G1 X49.291 Y86.297 E0.2083
G1 X51.699 Y88.318 E0.2605
G1 X51.699 Y87.795 E0.2692
G1 X49.913 Y86.297 E0.3080
G1 X50.299 Y86.297 E0.3144
G1 X50.299 Y86.099 E0.3177
G1 X51.699 Y87.273 E0.3481
G1 X51.699 Y86.751 E0.3568
G1 X50.299 Y85.576 E0.3872
G1 X50.299 Y85.054 E0.3959
G1 X51.699 Y86.229 E0.4263
G1 X51.699 Y85.707 E0.4349
G1 X50.299 Y84.532 E0.4653
G1 X50.299 Y84.299 E0.4692
G1 X50.644 Y84.299 E0.4749
G1 X51.699 Y85.185 E0.4978
G1 X51.699 Y84.662 E0.5065
G1 X51.266 Y84.299 E0.5159
G1 X49.301 Y88.916 F4800
G92 E0
G1 X50.234 Y89.699 E0.0203 F2520
G1 X49.612 Y89.699 E0.0306
G1 X49.301 Y89.438 E0.0373
G1 X50.299 Y89.754 F4800
G92 E0
G1 X51.699 Y90.928 E0.0304 F2520
G1 X51.699 Y91.451 E0.0391
G1 X50.299 Y90.276 E0.0695
G1 X50.299 Y90.798 E0.0782
G1 X51.699 Y91.973 E0.1085
G1 X51.699 Y92.495 E0.1172
G1 X50.299 Y91.320 E0.1476
G1 X50.299 Y91.842 E0.1563
G1 X51.318 Y92.697 E0.1784
G1 X50.695 Y92.697 E0.1888
G1 X50.299 Y92.365 E0.1974
G92 E0
G1 E-2.0000 F1200
; inner perimeter
G1 X54.101 Y90.897 F4800
G1 E0.0000 F1200
G92 E0
G1 X54.101 Y84.099 E0.1131 F3060
G1 X55.899 Y84.099 E0.1430
G1 X55.899 Y91.099 E0.2594
G1 X62.101 Y91.099 E0.3625
G1 X62.101 Y84.099 E0.4789
G1 X63.899 Y84.099 E0.5088
G1 X63.899 Y90.897 E0.6219
G1 X62.901 Y90.897 E0.6385
G1 X62.901 Y91.897 E0.6551
G1 X61.901 Y91.897 E0.6717
G1 X61.901 Y92.897 E0.6884
G1 X56.101 Y92.897 E0.7848
G1 X56.101 Y91.897 E0.8014
G1 X55.101 Y91.897 E0.8181
G1 X55.101 Y90.897 E0.8347
G1 X54.101 Y90.897 E0.8513
; outer perimeter
G1 X53.701 Y91.297 F4800
G92 E0
G1 X53.701 Y83.699 E0.1264 F2520
G1 X56.299 Y83.699 E0.1696
G1 X56.299 Y90.699 E0.2860
G1 X61.701 Y90.699 E0.3758
G1 X61.701 Y83.699 E0.4922
G1 X64.299 Y83.699 E0.5354
G1 X64.299 Y91.297 E0.6618
G1 X63.301 Y91.297 E0.6784
G1 X63.301 Y92.297 E0.6950
G1 X62.301 Y92.297 E0.7116
G1 X62.301 Y93.297 E0.7283
G1 X55.701 Y93.297 E0.8380
G1 X55.701 Y92.297 E0.8547
G1 X54.701 Y92.297 E0.8713
G1 X54.701 Y91.297 E0.8879
G1 X53.701 Y91.297 E0.9045
; solid layer
G1 X54.301 Y90.501 F4800
G92 E0
G1 X54.535 Y90.697 E0.0051 F2520
G1 X55.301 Y91.340 F4800
G92 E0
G1 X55.726 Y91.697 E0.0092 F2520
G1 X56.301 Y91.697 E0.0188
G1 X56.301 Y92.179 E0.0268
G1 X56.918 Y92.697 E0.0402
G92 E0
G1 E-2.0000 F1200
G1 X55.699 Y84.364 F4800
G1 E0.0000 F1200
G92 E0
G1 X55.622 Y84.299 E0.0017 F2520
G1 X55.000 Y84.299 E0.0120
G1 X55.699 Y84.886 E0.0272
G1 X55.699 Y85.408 E0.0359
G1 X54.377 Y84.299 E0.0646
G1 X54.301 Y84.299 E0.0659
G1 X54.301 Y84.757 E0.0735
G1 X55.699 Y85.930 E0.1038
G1 X55.699 Y86.452 E0.1125
G1 X54.301 Y85.279 E0.1429
G1 X54.301 Y85.801 E0.1515
G1 X55.699 Y86.975 E0.1819
G1 X55.699 Y87.497 E0.1906
G1 X54.301 Y86.324 E0.2209
G1 X54.301 Y86.846 E0.2296
G1 X55.699 Y88.019 E0.2600
G1 X55.699 Y88.541 E0.2686
G1 X54.301 Y87.368 E0.2990
G1 X54.301 Y87.890 E0.3077
G1 X55.699 Y89.063 E0.3380
G1 X55.699 Y89.585 E0.3467
G1 X54.301 Y88.412 E0.3771
G1 X54.301 Y88.934 E0.3857
G1 X55.699 Y90.108 E0.4161
G1 X55.699 Y90.630 E0.4248
G1 X54.301 Y89.457 E0.4551
G1 X54.301 Y89.979 E0.4638
G1 X55.157 Y90.697 E0.4824
G1 X55.301 Y90.697 E0.4848
G1 X55.301 Y90.818 E0.4868
G1 X55.699 Y91.152 E0.4954
G1 X55.699 Y91.299 E0.4979
G1 X55.874 Y91.299 E0.5008
G1 X57.540 Y92.697 E0.5370
G1 X58.163 Y92.697 E0.5473
G1 X56.497 Y91.299 E0.5835
G1 X57.119 Y91.299 E0.5938
G1 X58.785 Y92.697 E0.6300
G1 X59.407 Y92.697 E0.6403
G1 X57.741 Y91.299 E0.6765
G1 X58.364 Y91.299 E0.6869
G1 X60.030 Y92.697 E0.7230
G1 X60.652 Y92.697 E0.7334
G1 X58.986 Y91.299 E0.7695
G1 X59.608 Y91.299 E0.7799
G1 X61.274 Y92.697 E0.8161
G1 X61.701 Y92.697 E0.8232
G1 X61.701 Y92.533 E0.8259
G1 X60.230 Y91.299 E0.8578
G1 X60.853 Y91.299 E0.8682
G1 X61.701 Y92.011 E0.8866
G1 X61.701 Y91.697 E0.8918
G1 X61.949 Y91.697 E0.8959
G1 X61.475 Y91.299 E0.9062
G1 X62.097 Y91.299 E0.9166
G1 X62.572 Y91.697 E0.9269
G1 X62.701 Y91.697 E0.9290
G1 X62.701 Y91.283 E0.9359
G1 X62.301 Y90.948 E0.9446
G1 X62.301 Y90.426 E0.9533
G1 X62.701 Y90.761 E0.9620
G1 X62.701 Y90.697 E0.9630
G1 X63.247 Y90.697 E0.9721
G1 X62.301 Y89.903 E0.9926
G1 X62.301 Y89.381 E1.0013
G1 X63.699 Y90.554 E1.0317
G1 X63.699 Y90.032 E1.0403
G1 X62.301 Y88.859 E1.0707
G1 X62.301 Y88.337 E1.0794
G1 X63.699 Y89.510 E1.1097
G1 X63.699 Y88.988 E1.1184
G1 X62.301 Y87.815 E1.1488
G1 X62.301 Y87.293 E1.1574
G1 X63.699 Y88.466 E1.1878
G1 X63.699 Y87.944 E1.1965
G1 X62.301 Y86.770 E1.2268
G1 X62.301 Y86.248 E1.2355
G1 X63.699 Y87.421 E1.2659
G1 X63.699 Y86.899 E1.2745
G1 X62.301 Y85.726 E1.3049
G1 X62.301 Y85.204 E1.3136
G1 X63.699 Y86.377 E1.3439
G1 X63.699 Y85.855 E1.3526
G1 X62.301 Y84.682 E1.3830
G1 X62.301 Y84.299 E1.3893
G1 X62.467 Y84.299 E1.3921
G1 X63.699 Y85.333 E1.4188
G1 X63.699 Y84.811 E1.4275
G1 X63.089 Y84.299 E1.4407
G92 E0
G1 E-2.0000 F1200
; inner perimeter
G1 X66.099 Y84.099 F4800
G1 E0.0000 F1200
G92 E0
G1 X67.901 Y84.099 E0.0300 F3060
G1 X67.901 Y85.097 E0.0466
G1 X74.099 Y85.097 E0.1496
G1 X74.099 Y84.099 E0.1662
G1 X75.901 Y84.099 E0.1962
G1 X75.901 Y92.897 E0.3425
G1 X74.099 Y92.897 E0.3725
G1 X74.099 Y86.899 E0.4722
G1 X67.901 Y86.899 E0.5753
G1 X67.901 Y92.897 E0.6750
G1 X66.099 Y92.897 E0.7050
G1 X66.099 Y84.099 E0.8513
; outer perimeter
G1 X65.699 Y83.699 F4800
G92 E0
G1 X68.301 Y83.699 E0.0433 F2520
G1 X68.301 Y84.697 E0.0599
G1 X73.699 Y84.697 E0.1496
G1 X73.699 Y83.699 E0.1662
G1 X76.301 Y83.699 E0.2095
G1 X76.301 Y93.297 E0.3691
G1 X73.699 Y93.297 E0.4124
G1 X73.699 Y87.299 E0.5121
G1 X68.301 Y87.299 E0.6019
G1 X68.301 Y93.297 E0.7017
G1 X65.699 Y93.297 E0.7449
G1 X65.699 Y83.699 E0.9045
; solid layer
G1 X66.299 Y84.904 F4800
G92 E0
G1 X68.439 Y86.699 E0.0465 F2520
G1 X67.816 Y86.699 E0.0568
G1 X66.299 Y85.426 E0.0897
G1 X66.299 Y85.948 E0.0984
G1 X67.701 Y87.124 E0.1289
G1 X67.701 Y87.646 E0.1375
G1 X66.299 Y86.470 E0.1680
G1 X66.299 Y86.992 E0.1767
G1 X67.701 Y88.169 E0.2071
G1 X67.701 Y88.691 E0.2158
G1 X66.299 Y87.514 E0.2462
G1 X66.299 Y88.037 E0.2549
G1 X67.701 Y89.213 E0.2853
G1 X67.701 Y89.735 E0.2940
G1 X66.299 Y88.559 E0.3245
G1 X66.299 Y89.081 E0.3331
G1 X67.701 Y90.257 E0.3636
G1 X67.701 Y90.779 E0.3723
G1 X66.299 Y89.603 E0.4027
G1 X66.299 Y90.125 E0.4114
G1 X67.701 Y91.302 E0.4418
G1 X67.701 Y91.824 E0.4505
G1 X66.299 Y90.647 E0.4809
G1 X66.299 Y91.170 E0.4896
G1 X67.701 Y92.346 E0.5201
G1 X67.701 Y92.697 E0.5259
G1 X67.497 Y92.697 E0.5293
G1 X66.299 Y91.692 E0.5553
G1 X66.299 Y92.214 E0.5640
G1 X66.875 Y92.697 E0.5765
G92 E0
G1 E-2.0000 F1200
G1 X74.342 Y92.697 F4800
G1 E0.0000 F1200
G92 E0
G1 X74.299 Y92.661 E0.0009 F2520
G1 X74.299 Y92.139 E0.0096
G1 X74.965 Y92.697 E0.0241
G1 X75.587 Y92.697 E0.0344
G1 X74.299 Y91.616 E0.0624
G1 X74.299 Y91.094 E0.0711
G1 X75.701 Y92.271 E0.1015
G1 X75.701 Y91.748 E0.1102
G1 X74.299 Y90.572 E0.1406
G1 X74.299 Y90.050 E0.1493
G1 X75.701 Y91.226 E0.1797
