; G-Code generated by Simplify3D(R) Version 4.0.0
; Sep 2, 2017 at 10:38:07 PM
; Settings Summary
;   processName,Process1
;   applyToModels,CANECO-azul_claro_001
;   profileName,bq Prusa i3 Hephestos (modified)
;   profileVersion,2017-09-02 01:37:20
;   baseProfile,
;   printMaterial,PLA
;   printQuality,High
;   printExtruders,
;   extruderName,Primary Extruder
;   extruderToolheadNumber,0
;   extruderDiameter,0.4
;   extruderAutoWidth,0
;   extruderWidth,0.4
;   extrusionMultiplier,1
;   extruderUseRetract,1
;   extruderRetractionDistance,2
;   extruderExtraRestartDistance,0
;   extruderRetractionZLift,0
;   extruderRetractionSpeed,1200
;   extruderUseCoasting,0
;   extruderCoastingDistance,0.2
;   extruderUseWipe,0
;   extruderWipeDistance,5
;   primaryExtruder,0
;   layerHeight,0.1
;   topSolidLayers,3
;   bottomSolidLayers,3
;   perimeterOutlines,2
;   printPerimetersInsideOut,1
;   startPointOption,2
;   startPointOriginX,0
;   startPointOriginY,0
;   sequentialIslands,0
;   spiralVaseMode,0
;   firstLayerHeightPercentage,100
;   firstLayerWidthPercentage,100
;   firstLayerUnderspeed,1
;   useRaft,0
;   raftExtruder,0
;   raftTopLayers,4
;   raftBaseLayers,2
;   raftOffset,10
;   raftSeparationDistance,0.14
;   raftTopInfill,100
;   aboveRaftSpeedMultiplier,0.3
;   useSkirt,0
;   skirtExtruder,0
;   skirtLayers,1
;   skirtOutlines,2
;   skirtOffset,3.6
;   usePrimePillar,0
;   primePillarExtruder,999
;   primePillarWidth,12
;   primePillarLocation,7
;   primePillarSpeedMultiplier,1
;   useOozeShield,0
;   oozeShieldExtruder,999
;   oozeShieldOffset,2
;   oozeShieldOutlines,1
;   oozeShieldSidewallShape,1
;   oozeShieldSidewallAngle,30
;   oozeShieldSpeedMultiplier,1
;   infillExtruder,0
;   internalInfillPattern,Fast Honeycomb
;   externalInfillPattern,Rectilinear
;   infillPercentage,20
;   outlineOverlapPercentage,50
;   infillExtrusionWidthPercentage,100
;   minInfillLength,1
;   infillLayerInterval,1
;   internalInfillAngles,0
;   overlapInternalInfillAngles,0
;   externalInfillAngles,40,-45
;   generateSupport,0
;   supportExtruder,0
;   supportInfillPercentage,15
;   supportExtraInflation,0
;   supportBaseLayers,3
;   denseSupportExtruder,0
;   denseSupportLayers,3
;   denseSupportInfillPercentage,30
;   supportLayerInterval,1
;   supportHorizontalPartOffset,0.4
;   supportUpperSeparationLayers,1
;   supportLowerSeparationLayers,1
;   supportType,0
;   supportGridSpacing,2
;   maxOverhangAngle,65
;   supportAngles,45
;   temperatureName,Primary Extruder,BED
;   temperatureNumber,0,0
;   temperatureSetpointCount,1,1
;   temperatureSetpointLayers,1,1
;   temperatureSetpointTemperatures,205,60
;   temperatureStabilizeAtStartup,1,0
;   temperatureHeatedBed,0,1
;   temperatureRelayBetweenLayers,0,0
;   temperatureRelayBetweenLoops,0,0
;   fanLayers,1,2
;   fanSpeeds,0,100
;   blipFanToFullPower,0
;   adjustSpeedForCooling,0
;   minSpeedLayerTime,15
;   minCoolingSpeedSlowdown,5
;   increaseFanForCooling,0
;   minFanLayerTime,45
;   maxCoolingFanSpeed,100
;   increaseFanForBridging,0
;   bridgingFanSpeed,100
;   use5D,1
;   relativeEdistances,0
;   allowEaxisZeroing,1
;   independentExtruderAxes,0
;   includeM10123,0
;   stickySupport,1
;   applyToolheadOffsets,0
;   gcodeXoffset,0
;   gcodeYoffset,0
;   gcodeZoffset,0
;   overrideMachineDefinition,1
;   machineTypeOverride,0
;   strokeXoverride,190
;   strokeYoverride,190
;   strokeZoverride,185
;   originOffsetXoverride,0
;   originOffsetYoverride,0
;   originOffsetZoverride,0
;   homeXdirOverride,-1
;   homeYdirOverride,-1
;   homeZdirOverride,-1
;   flipXoverride,1
;   flipYoverride,-1
;   flipZoverride,1
;   toolheadOffsets,0,0|0,0|0,0|0,0|0,0|0,0
;   overrideFirmwareConfiguration,1
;   firmwareTypeOverride,RepRap (Marlin/Repetier/Sprinter)
;   GPXconfigOverride,r2
;   baudRateOverride,115200
;   overridePrinterModels,1
;   printerModelsOverride
;   startingGcode,G28 ; home all axes,G1 X0 Y20 Z0.2 F3000 ; get ready to prime,G92 E0 ; reset extrusion distance,G1 Y100 E20 F600 ; prime nozzle
;   layerChangeGcode,
;   retractionGcode,
;   toolChangeGcode,
;   endingGcode,G28 X0 ; home X axis,M106 S0 ; turn off fan,M104 S0 ; turn off extruder,M140 S0 ; turn off bed,M84 ; disable motors
;   exportFileFormat,gcode
;   celebration,0
;   celebrationSong,Random Song
;   postProcessing,
;   defaultSpeed,3600
;   outlineUnderspeed,0.7
;   solidInfillUnderspeed,0.7
;   supportUnderspeed,0.7
;   rapidXYspeed,4800
;   rapidZspeed,1002
;   minBridgingArea,50
;   bridgingExtraInflation,0
;   bridgingExtrusionMultiplier,1
;   bridgingSpeedMultiplier,1
;   useFixedBridgingAngle,0
;   fixedBridgingAngle,0
;   applyBridgingToPerimeters,0
;   filamentDiameters,1.75|1.75|1.75|1.75|1.75|1.75
;   filamentPricesPerKg,46|46|46|46|46|46
;   filamentDensities,1.25|1.25|1.25|1.25|1.25|1.25
;   useMinPrintHeight,0
;   minPrintHeight,181.17
;   useMaxPrintHeight,0
;   maxPrintHeight,31.6
;   useDiaphragm,0
;   diaphragmLayerInterval,20
;   robustSlicing,1
;   mergeAllIntoSolid,0
;   onlyRetractWhenCrossingOutline,1
;   retractBetweenLayers,1
;   useRetractionMinTravel,0
;   retractionMinTravel,3
;   retractWhileWiping,0
;   onlyWipeOutlines,1
;   avoidCrossingOutline,0
;   maxMovementDetourFactor,3
;   toolChangeRetractionDistance,12
;   toolChangeExtraRestartDistance,-0.5
;   toolChangeRetractionSpeed,600
;   externalThinWallType,1
;   internalThinWallType,2
;   thinWallAllowedOverlapPercentage,50
;   singleExtrusionMinLength,1
;   singleExtrusionMinPrintingWidthPercentage,50
;   singleExtrusionMaxPrintingWidthPercentage,200
;   singleExtrusionEndpointExtension,0.2
;   horizontalSizeCompensation,0
G90
M82
M106 S0
M140 S60
M104 S205 T0
M109 S205 T0
G28 ; home all axes
G1 X0 Y20 Z0.2 F3000 ; get ready to prime
G92 E0 ; reset extrusion distance
G1 Y100 E20 F600 ; prime nozzle
G92 E0
G1 E-2.0000 F1200
G1 Z0.100 F1002
; process Process1
; layer 1, Z = 0.100
T0
; tool H0.100 W0.400
; inner perimeter
G1 X42.101 Y79.099 F4800
G1 E0.0000 F360
G92 E0
G1 X43.901 Y79.099 E0.0299 F3060
G1 X43.901 Y82.099 E0.0798
G1 X44.901 Y82.099 E0.0965
G1 X44.901 Y82.899 E0.1098
G1 X42.101 Y82.899 E0.1563
G1 X42.101 Y79.099 E0.2195
; outer perimeter
G1 X41.701 Y78.699 F4800
G92 E0
G1 X44.301 Y78.699 E0.0432 F2520
G1 X44.301 Y81.699 E0.0931
G1 X45.301 Y81.699 E0.1098
G1 X45.301 Y82.699 E0.1264
G1 X46.301 Y82.699 E0.1430
G1 X46.301 Y83.299 E0.1530
G1 X41.701 Y83.299 E0.2295
G1 X41.701 Y78.699 E0.3060
; gap fill
G1 X45.115 Y82.903 F4800
G92 E0
G1 X45.344 Y83.095 E0.0050 F2520
G1 X45.966 Y83.095 E0.0153
G1 X45.737 Y82.903 E0.0203
; solid layer
G1 X44.395 Y82.299 F4800
G92 E0
G1 X44.701 Y82.556 E0.0066 F2520
G1 X44.701 Y82.699 E0.0090
G1 X44.250 Y82.699 E0.0165
G1 X43.773 Y82.299 E0.0269
G1 X42.383 Y82.699 F4800
G92 E0
G1 X42.301 Y82.630 E0.0018 F2520
G1 X42.301 Y82.108 E0.0105
G1 X43.005 Y82.699 E0.0257
G1 X43.627 Y82.699 E0.0361
G1 X42.301 Y81.586 E0.0649
G1 X42.301 Y81.064 E0.0736
G1 X43.701 Y82.239 E0.1040
G1 X43.701 Y81.716 E0.1126
G1 X42.301 Y80.542 E0.1430
G1 X42.301 Y80.020 E0.1517
G1 X43.701 Y81.194 E0.1821
G1 X43.701 Y80.672 E0.1908
G1 X42.301 Y79.497 E0.2212
G1 X42.301 Y79.299 E0.2245
G1 X42.687 Y79.299 E0.2309
G1 X43.701 Y80.150 E0.2529
G1 X43.701 Y79.628 E0.2616
G1 X43.309 Y79.299 E0.2701
G92 E0
G1 E-2.0000 F1200
; inner perimeter
G1 X50.101 Y79.099 F4800
G1 E0.0000 F1200
G92 E0
G1 X51.901 Y79.099 E0.0299 F3060
G1 X51.901 Y82.899 E0.0931
G1 X50.101 Y82.899 E0.1231
G1 X50.101 Y79.099 E0.1863
; outer perimeter
G1 X49.701 Y78.699 F4800
G92 E0
G1 X52.301 Y78.699 E0.0432 F2520
G1 X52.301 Y83.299 E0.1197
G1 X49.701 Y83.299 E0.1630
G1 X49.701 Y78.699 E0.2395
; solid layer
G1 X51.399 Y79.299 F4800
G92 E0
G1 X51.701 Y79.552 E0.0066 F2520
G1 X51.701 Y80.075 E0.0152
G1 X50.777 Y79.299 E0.0353
G1 X50.301 Y79.299 E0.0432
G1 X50.301 Y79.422 E0.0453
G1 X51.701 Y80.597 E0.0757
G1 X51.701 Y81.119 E0.0843
G1 X50.301 Y79.944 E0.1147
G1 X50.301 Y80.466 E0.1234
G1 X51.701 Y81.641 E0.1538
G1 X51.701 Y82.163 E0.1625
G1 X50.301 Y80.989 E0.1929
G1 X50.301 Y81.511 E0.2016
G1 X51.701 Y82.685 E0.2320
G1 X51.701 Y82.699 E0.2322
G1 X51.095 Y82.699 E0.2423
G1 X50.301 Y82.033 E0.2595
G1 X50.301 Y82.555 E0.2682
G1 X50.473 Y82.699 E0.2719
G92 E0
G1 E-2.0000 F1200
; inner perimeter
G1 X54.101 Y82.899 F4800
G1 E0.0000 F1200
G92 E0
G1 X54.101 Y81.099 E0.0299 F3060
G1 X55.101 Y81.099 E0.0466
G1 X55.101 Y80.099 E0.0632
G1 X56.101 Y80.099 E0.0798
G1 X56.101 Y79.099 E0.0965
G1 X61.901 Y79.099 E0.1929
G1 X61.901 Y80.099 E0.2095
G1 X62.901 Y80.099 E0.2262
G1 X62.901 Y81.099 E0.2428
G1 X63.901 Y81.099 E0.2594
G1 X63.901 Y82.899 E0.2894
G1 X62.101 Y82.899 E0.3193
G1 X62.101 Y80.899 E0.3526
G1 X55.901 Y80.899 E0.4557
G1 X55.901 Y82.899 E0.4889
G1 X54.101 Y82.899 E0.5189
; outer perimeter
G1 X53.701 Y83.299 F4800
G92 E0
G1 X53.701 Y80.699 E0.0432 F2520
G1 X54.701 Y80.699 E0.0599
G1 X54.701 Y79.699 E0.0765
G1 X55.701 Y79.699 E0.0931
G1 X55.701 Y78.699 E0.1098
G1 X62.301 Y78.699 E0.2195
G1 X62.301 Y79.699 E0.2361
G1 X63.301 Y79.699 E0.2528
G1 X63.301 Y80.699 E0.2694
G1 X64.301 Y80.699 E0.2860
G1 X64.301 Y83.299 E0.3293
G1 X61.701 Y83.299 E0.3725
G1 X61.701 Y81.299 E0.4058
G1 X56.301 Y81.299 E0.4956
G1 X56.301 Y83.299 E0.5288
G1 X53.701 Y83.299 E0.5721
; solid layer
G1 X54.301 Y82.256 F4800
G92 E0
G1 X54.829 Y82.699 E0.0115 F2520
G1 X55.451 Y82.699 E0.0218
G1 X54.301 Y81.734 E0.0468
G1 X54.301 Y81.299 E0.0540
G1 X54.405 Y81.299 E0.0557
G1 X55.701 Y82.387 E0.0839
G1 X55.701 Y81.865 E0.0926
G1 X55.027 Y81.299 E0.1072
G1 X55.301 Y81.299 E0.1117
G1 X55.301 Y81.007 E0.1166
G1 X55.701 Y81.342 E0.1253
G1 X55.701 Y80.820 E0.1340
G1 X55.301 Y80.485 E0.1427
G1 X55.301 Y80.299 E0.1457
G1 X55.702 Y80.299 E0.1524
G1 X56.179 Y80.699 E0.1628
G1 X56.801 Y80.699 E0.1731
G1 X56.301 Y80.279 E0.1840
G1 X56.301 Y79.757 E0.1926
G1 X57.423 Y80.699 E0.2170
G1 X58.046 Y80.699 E0.2274
G1 X56.377 Y79.299 E0.2636
G1 X56.999 Y79.299 E0.2739
G1 X58.668 Y80.699 E0.3101
G1 X59.290 Y80.699 E0.3205
G1 X57.622 Y79.299 E0.3567
G1 X58.244 Y79.299 E0.3671
G1 X59.913 Y80.699 E0.4033
G1 X60.535 Y80.699 E0.4136
G1 X58.866 Y79.299 E0.4499
G1 X59.489 Y79.299 E0.4602
G1 X61.157 Y80.699 E0.4964
G1 X61.779 Y80.699 E0.5068
G1 X60.111 Y79.299 E0.5430
G1 X60.733 Y79.299 E0.5533
G1 X61.701 Y80.111 E0.5744
G1 X61.701 Y79.589 E0.5830
G1 X61.356 Y79.299 E0.5905
G1 X61.925 Y80.299 F4800
G92 E0
G1 X62.701 Y80.950 E0.0168 F2520
G1 X62.701 Y80.428 E0.0255
G1 X62.547 Y80.299 E0.0289
G1 X63.117 Y81.299 F4800
G92 E0
G1 X63.701 Y81.789 E0.0127 F2520
G1 X63.701 Y82.311 E0.0214
G1 X62.301 Y81.137 E0.0518
G1 X62.301 Y81.659 E0.0604
G1 X63.541 Y82.699 E0.0874
G1 X62.918 Y82.699 E0.0977
G1 X62.301 Y82.181 E0.1111
G92 E0
G1 E-2.0000 F1200
; inner perimeter
G1 X66.101 Y82.899 F4800
G1 E0.0000 F1200
G92 E0
G1 X66.101 Y79.099 E0.0632 F3060
G1 X67.901 Y79.099 E0.0931
G1 X67.901 Y82.899 E0.1563
G1 X66.101 Y82.899 E0.1863
; outer perimeter
G1 X65.701 Y83.299 F4800
G92 E0
G1 X65.701 Y78.699 E0.0765 F2520
G1 X68.301 Y78.699 E0.1197
G1 X68.301 Y83.299 E0.1962
G1 X65.701 Y83.299 E0.2395
; solid layer
G1 X66.652 Y82.699 F4800
G92 E0
G1 X66.301 Y82.404 E0.0076 F2520
G1 X66.301 Y81.882 E0.0163
G1 X67.274 Y82.699 E0.0374
G1 X67.701 Y82.699 E0.0445
G1 X67.701 Y82.535 E0.0473
G1 X66.301 Y81.360 E0.0777
G1 X66.301 Y80.838 E0.0863
G1 X67.701 Y82.013 E0.1167
G1 X67.701 Y81.491 E0.1254
G1 X66.301 Y80.316 E0.1558
G1 X66.301 Y79.794 E0.1645
G1 X67.701 Y80.968 E0.1949
G1 X67.701 Y80.446 E0.2036
G1 X66.334 Y79.299 E0.2332
G1 X66.956 Y79.299 E0.2436
G1 X67.701 Y79.924 E0.2598
G1 X67.701 Y79.402 E0.2684
G1 X67.578 Y79.299 E0.2711
G92 E0
G1 E-2.0000 F1200
; inner perimeter
G1 X74.101 Y79.099 F4800
G1 E0.0000 F1200
G92 E0
G1 X75.901 Y79.099 E0.0299 F3060
G1 X75.901 Y82.899 E0.0931
G1 X74.101 Y82.899 E0.1231
G1 X74.101 Y79.099 E0.1863
; outer perimeter
G1 X73.701 Y78.699 F4800
G92 E0
G1 X76.301 Y78.699 E0.0432 F2520
G1 X76.301 Y83.299 E0.1197
G1 X73.701 Y83.299 E0.1630
G1 X73.701 Y78.699 E0.2395
; solid layer
G1 X75.668 Y79.299 F4800
G92 E0
G1 X75.701 Y79.327 E0.0007 F2520
G1 X75.701 Y79.849 E0.0094
G1 X75.046 Y79.299 E0.0236
G1 X74.424 Y79.299 E0.0340
G1 X75.701 Y80.371 E0.0617
G1 X75.701 Y80.893 E0.0704
G1 X74.301 Y79.718 E0.1008
G1 X74.301 Y80.240 E0.1095
G1 X75.701 Y81.415 E0.1399
G1 X75.701 Y81.937 E0.1485
G1 X74.301 Y80.763 E0.1789
G1 X74.301 Y81.285 E0.1876
G1 X75.701 Y82.460 E0.2180
G1 X75.701 Y82.699 E0.2220
G1 X75.364 Y82.699 E0.2276
G1 X74.301 Y81.807 E0.2507
G1 X74.301 Y82.329 E0.2594
G1 X74.742 Y82.699 E0.2689
G92 E0
G1 E-2.0000 F1200
; inner perimeter
G1 X82.101 Y82.899 F4800
G1 E0.0000 F1200
G92 E0
G1 X82.101 Y79.099 E0.0632 F3060
G1 X83.901 Y79.099 E0.0931
G1 X83.901 Y82.899 E0.1563
G1 X82.101 Y82.899 E0.1863
; outer perimeter
G1 X81.701 Y83.299 F4800
G92 E0
G1 X81.701 Y78.699 E0.0765 F2520
G1 X84.301 Y78.699 E0.1197
G1 X84.301 Y83.299 E0.1962
G1 X81.701 Y83.299 E0.2395
; solid layer
G1 X82.301 Y82.254 F4800
G92 E0
G1 X82.832 Y82.699 E0.0115 F2520
G1 X83.454 Y82.699 E0.0219
G1 X82.301 Y81.732 E0.0469
G1 X82.301 Y81.209 E0.0556
G1 X83.701 Y82.384 E0.0860
G1 X83.701 Y81.862 E0.0947
G1 X82.301 Y80.687 E0.1250
G1 X82.301 Y80.165 E0.1337
G1 X83.701 Y81.340 E0.1641
G1 X83.701 Y80.818 E0.1728
G1 X82.301 Y79.643 E0.2032
G1 X82.301 Y79.299 E0.2089
G1 X82.513 Y79.299 E0.2125
G1 X83.701 Y80.296 E0.2382
G1 X83.701 Y79.773 E0.2469
G1 X83.136 Y79.299 E0.2592
G92 E0
G1 E-2.0000 F1200
; inner perimeter
G1 X90.101 Y79.099 F4800
G1 E0.0000 F1200
G92 E0
G1 X91.901 Y79.099 E0.0299 F3060
G1 X91.901 Y82.899 E0.0931
G1 X90.101 Y82.899 E0.1231
G1 X90.101 Y79.099 E0.1863
; outer perimeter
G1 X89.701 Y78.699 F4800
G92 E0
G1 X92.301 Y78.699 E0.0432 F2520
G1 X92.301 Y83.299 E0.1197
G1 X89.701 Y83.299 E0.1630
G1 X89.701 Y78.699 E0.2395
; solid layer
G1 X91.225 Y79.299 F4800
G92 E0
G1 X91.701 Y79.698 E0.0103 F2520
G1 X91.701 Y80.220 E0.0190
G1 X90.603 Y79.299 E0.0428
G1 X90.301 Y79.299 E0.0479
G1 X90.301 Y79.568 E0.0523
G1 X91.701 Y80.742 E0.0827
G1 X91.701 Y81.265 E0.0914
G1 X90.301 Y80.090 E0.1218
G1 X90.301 Y80.612 E0.1305
G1 X91.701 Y81.787 E0.1609
G1 X91.701 Y82.309 E0.1696
G1 X90.301 Y81.134 E0.2000
G1 X90.301 Y81.656 E0.2086
G1 X91.544 Y82.699 E0.2356
G1 X90.921 Y82.699 E0.2460
G1 X90.301 Y82.178 E0.2594
G92 E0
G1 E-2.0000 F1200
; inner perimeter
G1 X98.101 Y82.899 F4800
G1 E0.0000 F1200
G92 E0
G1 X98.101 Y79.099 E0.0632 F3060
G1 X99.901 Y79.099 E0.0931
G1 X99.901 Y82.899 E0.1563
G1 X98.101 Y82.899 E0.1863
; outer perimeter
G1 X97.701 Y83.299 F4800
G92 E0
G1 X97.701 Y78.699 E0.0765 F2520
G1 X100.301 Y78.699 E0.1197
G1 X100.301 Y83.299 E0.1962
G1 X97.701 Y83.299 E0.2395
; solid layer
G1 X98.389 Y82.699 F4800
G92 E0
G1 X98.301 Y82.625 E0.0019 F2520
G1 X98.301 Y82.103 E0.0106
G1 X99.011 Y82.699 E0.0260
G1 X99.633 Y82.699 E0.0364
G1 X98.301 Y81.581 E0.0653
G1 X98.301 Y81.059 E0.0740
G1 X99.701 Y82.234 E0.1044
G1 X99.701 Y81.711 E0.1130
G1 X98.301 Y80.537 E0.1434
G1 X98.301 Y80.014 E0.1521
G1 X99.701 Y81.189 E0.1825
G1 X99.701 Y80.667 E0.1912
G1 X98.301 Y79.492 E0.2216
G1 X98.301 Y79.299 E0.2248
G1 X98.693 Y79.299 E0.2313
G1 X99.701 Y80.145 E0.2532
G1 X99.701 Y79.623 E0.2619
G1 X99.315 Y79.299 E0.2703
G92 E0
G1 E-2.0000 F1200
; inner perimeter
G1 X102.101 Y79.099 F4800
G1 E0.0000 F1200
G92 E0
G1 X103.901 Y79.099 E0.0299 F3060
G1 X103.901 Y80.099 E0.0466
G1 X104.901 Y80.099 E0.0632
G1 X104.901 Y81.099 E0.0798
G1 X105.901 Y81.099 E0.0965
G1 X105.901 Y82.099 E0.1131
G1 X106.901 Y82.099 E0.1297
G1 X106.901 Y82.899 E0.1430
G1 X105.101 Y82.899 E0.1730
G1 X105.101 Y81.899 E0.1896
G1 X104.101 Y81.899 E0.2062
G1 X104.101 Y80.899 E0.2228
G1 X103.101 Y80.899 E0.2395
G1 X103.101 Y79.899 E0.2561
G1 X102.101 Y79.899 E0.2727
G1 X102.101 Y79.099 E0.2860
; outer perimeter
G1 X101.701 Y78.699 F4800
G92 E0
G1 X104.301 Y78.699 E0.0432 F2520
G1 X104.301 Y79.699 E0.0599
G1 X105.301 Y79.699 E0.0765
G1 X105.301 Y80.699 E0.0931
G1 X106.301 Y80.699 E0.1098
G1 X106.301 Y81.699 E0.1264
G1 X107.301 Y81.699 E0.1430
G1 X107.301 Y82.699 E0.1596
G1 X108.301 Y82.699 E0.1763
G1 X108.301 Y83.299 E0.1863
G1 X104.701 Y83.299 E0.2461
G1 X104.701 Y82.299 E0.2628
