; G-Code generated by Simplify3D(R) Version 4.0.0
; Sep 5, 2017 at 1:09:56 PM
; Settings Summary
;   processName,Process1
;   applyToModels,Caixa_suporte_bateria
;   profileName,BEEVERYCREATIVE BEETHEFIRST (modified)
;   profileVersion,2017-09-02 19:20:53
;   baseProfile,
;   printMaterial,
;   printQuality,
;   printExtruders,
;   extruderName,Primary Extruder
;   extruderToolheadNumber,0
;   extruderDiameter,0.4
;   extruderAutoWidth,0
;   extruderWidth,0.4
;   extrusionMultiplier,1.12
;   extruderUseRetract,1
;   extruderRetractionDistance,1.5
;   extruderExtraRestartDistance,0.05
;   extruderRetractionZLift,0
;   extruderRetractionSpeed,1200
;   extruderUseCoasting,0
;   extruderCoastingDistance,0.1
;   extruderUseWipe,0
;   extruderWipeDistance,1
;   primaryExtruder,0
;   layerHeight,0.3
;   topSolidLayers,4
;   bottomSolidLayers,2
;   perimeterOutlines,2
;   printPerimetersInsideOut,1
;   startPointOption,1
;   startPointOriginX,0
;   startPointOriginY,0
;   sequentialIslands,0
;   spiralVaseMode,0
;   firstLayerHeightPercentage,100
;   firstLayerWidthPercentage,100
;   firstLayerUnderspeed,0.8
;   useRaft,0
;   raftExtruder,0
;   raftTopLayers,4
;   raftBaseLayers,2
;   raftOffset,10
;   raftSeparationDistance,0.2
;   raftTopInfill,100
;   aboveRaftSpeedMultiplier,0.3
;   useSkirt,1
;   skirtExtruder,0
;   skirtLayers,1
;   skirtOutlines,10
;   skirtOffset,0
;   usePrimePillar,0
;   primePillarExtruder,999
;   primePillarWidth,12
;   primePillarLocation,7
;   primePillarSpeedMultiplier,1
;   useOozeShield,0
;   oozeShieldExtruder,999
;   oozeShieldOffset,2
;   oozeShieldOutlines,1
;   oozeShieldSidewallShape,1
;   oozeShieldSidewallAngle,30
;   oozeShieldSpeedMultiplier,1
;   infillExtruder,0
;   internalInfillPattern,Fast Honeycomb
;   externalInfillPattern,Rectilinear
;   infillPercentage,10
;   outlineOverlapPercentage,15
;   infillExtrusionWidthPercentage,100
;   minInfillLength,5
;   infillLayerInterval,1
;   internalInfillAngles,0
;   overlapInternalInfillAngles,0
;   externalInfillAngles,45,-45
;   generateSupport,0
;   supportExtruder,0
;   supportInfillPercentage,10
;   supportExtraInflation,0
;   supportBaseLayers,0
;   denseSupportExtruder,0
;   denseSupportLayers,2
;   denseSupportInfillPercentage,80
;   supportLayerInterval,1
;   supportHorizontalPartOffset,0.25
;   supportUpperSeparationLayers,2
;   supportLowerSeparationLayers,2
;   supportType,0
;   supportGridSpacing,1
;   maxOverhangAngle,60
;   supportAngles,45
;   temperatureName,Primary Extruder Temperature
;   temperatureNumber,0
;   temperatureSetpointCount,2
;   temperatureSetpointLayers,1,1
;   temperatureSetpointTemperatures,230,220
;   temperatureStabilizeAtStartup,1
;   temperatureHeatedBed,0
;   temperatureRelayBetweenLayers,0
;   temperatureRelayBetweenLoops,0
;   fanLayers,1,2
;   fanSpeeds,0,80
;   blipFanToFullPower,0
;   adjustSpeedForCooling,0
;   minSpeedLayerTime,15
;   minCoolingSpeedSlowdown,50
;   increaseFanForCooling,0
;   minFanLayerTime,45
;   maxCoolingFanSpeed,90
;   increaseFanForBridging,0
;   bridgingFanSpeed,100
;   use5D,1
;   relativeEdistances,0
;   allowEaxisZeroing,0
;   independentExtruderAxes,0
;   includeM10123,0
;   stickySupport,1
;   applyToolheadOffsets,0
;   gcodeXoffset,0
;   gcodeYoffset,0
;   gcodeZoffset,0
;   overrideMachineDefinition,1
;   machineTypeOverride,0
;   strokeXoverride,190
;   strokeYoverride,135
;   strokeZoverride,125
;   originOffsetXoverride,95
;   originOffsetYoverride,67.5
;   originOffsetZoverride,0
;   homeXdirOverride,-1
;   homeYdirOverride,-1
;   homeZdirOverride,-1
;   flipXoverride,1
;   flipYoverride,-1
;   flipZoverride,1
;   toolheadOffsets,0,0|0,0|0,0|0,0|0,0|0,0
;   overrideFirmwareConfiguration,0
;   firmwareTypeOverride,RepRap (Marlin/Repetier/Sprinter)
;   GPXconfigOverride,r2
;   baudRateOverride,115200
;   overridePrinterModels,0
;   printerModelsOverride
;   startingGcode,M300,G28,M206 X500,M107,M104 S[extruder0_temperature],G92 E,M642 W1,M130 T6 U1.3 V80,G1 X-98.0 Y-20.0 Z5.0 F3000,G1 Y-68.0 Z0.3,G1 X-98.0 Y0.0 F500 E20,G92 E
;   layerChangeGcode,
;   retractionGcode,
;   toolChangeGcode,
;   endingGcode,M300,M104 S0,G28 X,G28 Z,G1 Y65,M107,M641 A1
;   exportFileFormat,gcode
;   celebration,0
;   celebrationSong,Random Song
;   postProcessing,
;   defaultSpeed,3000
;   outlineUnderspeed,0.6
;   solidInfillUnderspeed,0.6
;   supportUnderspeed,0.6
;   rapidXYspeed,9000
;   rapidZspeed,2400
;   minBridgingArea,5
;   bridgingExtraInflation,0
;   bridgingExtrusionMultiplier,1.1
;   bridgingSpeedMultiplier,0.6
;   useFixedBridgingAngle,0
;   fixedBridgingAngle,0
;   applyBridgingToPerimeters,0
;   filamentDiameters,1.75|1.75|1.75|1.75|1.75|1.75
;   filamentPricesPerKg,46|46|46|46|46|46
;   filamentDensities,1.25|1.25|1.25|1.25|1.25|1.25
;   useMinPrintHeight,0
;   minPrintHeight,0
;   useMaxPrintHeight,0
;   maxPrintHeight,2
;   useDiaphragm,0
;   diaphragmLayerInterval,20
;   robustSlicing,0
;   mergeAllIntoSolid,0
;   onlyRetractWhenCrossingOutline,1
;   retractBetweenLayers,1
;   useRetractionMinTravel,0
;   retractionMinTravel,1
;   retractWhileWiping,1
;   onlyWipeOutlines,0
;   avoidCrossingOutline,1
;   maxMovementDetourFactor,3
;   toolChangeRetractionDistance,12
;   toolChangeExtraRestartDistance,-0.5
;   toolChangeRetractionSpeed,600
;   externalThinWallType,1
;   internalThinWallType,2
;   thinWallAllowedOverlapPercentage,50
;   singleExtrusionMinLength,1
;   singleExtrusionMinPrintingWidthPercentage,50
;   singleExtrusionMaxPrintingWidthPercentage,200
;   singleExtrusionEndpointExtension,0.2
;   horizontalSizeCompensation,0
G90
M82
M106 S0
M300
G28
M206 X500
M107
M104 S230
G92 E
M642 W1
M130 T6 U1.3 V80
G1 X-98.0 Y-20.0 Z5.0 F3000
G1 Y-68.0 Z0.3
G1 X-98.0 Y0.0 F500 E20
G92 E
G1 E-1.5000 F1200
G1 Z0.300 F2400
; process Process1
; layer 1, Z = 0.300
T0
; tool H0.300 W0.400
; skirt
G1 X81.574 Y21.300 F9000
G1 E0.0500 F360
G1 X-81.574 Y21.300 E9.1662 F2400
G1 X-83.800 Y19.074 E9.3421
G1 X-83.800 Y-19.074 E11.4737
G1 X-81.574 Y-21.300 E11.6496
G1 X81.574 Y-21.300 E20.7659
G1 X83.800 Y-19.074 E20.9418
G1 X83.800 Y19.074 E23.0734
G1 X81.574 Y21.300 E23.2493
G1 X81.408 Y20.900 F9000
G1 X-81.408 Y20.900 E32.3470 F2400
G1 X-83.400 Y18.908 E32.5044
G1 X-83.400 Y-18.908 E34.6174
G1 X-81.408 Y-20.900 E34.7748
G1 X81.408 Y-20.900 E43.8725
G1 X83.400 Y-18.908 E44.0299
G1 X83.400 Y18.908 E46.1430
G1 X81.408 Y20.900 E46.3004
G1 X81.243 Y20.500 F9000
G1 X-81.243 Y20.500 E55.3796 F2400
G1 X-83.000 Y18.743 E55.5185
G1 X-83.000 Y-18.743 E57.6130
G1 X-81.243 Y-20.500 E57.7519
G1 X81.243 Y-20.500 E66.8311
G1 X83.000 Y-18.743 E66.9700
G1 X83.000 Y18.743 E69.0645
G1 X81.243 Y20.500 E69.2034
G1 X81.077 Y20.100 F9000
G1 X-81.077 Y20.100 E78.2641 F2400
G1 X-82.600 Y18.577 E78.3844
G1 X-82.600 Y-18.577 E80.4605
G1 X-81.077 Y-20.100 E80.5808
G1 X81.077 Y-20.100 E89.6415
G1 X82.600 Y-18.577 E89.7619
G1 X82.600 Y18.577 E91.8379
G1 X81.077 Y20.100 E91.9583
G1 X80.911 Y19.700 F9000
G1 X-80.911 Y19.700 E101.0004 F2400
G1 X-82.200 Y18.411 E101.1023
G1 X-82.200 Y-18.411 E103.1598
G1 X-80.911 Y-19.700 E103.2616
G1 X80.911 Y-19.700 E112.3038
G1 X82.200 Y-18.411 E112.4056
G1 X82.200 Y18.411 E114.4632
G1 X80.911 Y19.700 E114.5650
G1 X80.746 Y19.300 F9000
G1 X-80.746 Y19.300 E123.5887 F2400
G1 X-81.800 Y18.246 E123.6720
G1 X-81.800 Y-18.246 E125.7110
G1 X-80.746 Y-19.300 E125.7943
G1 X80.746 Y-19.300 E134.8180
G1 X81.800 Y-18.246 E134.9013
G1 X81.800 Y18.246 E136.9403
G1 X80.746 Y19.300 E137.0236
G1 X80.580 Y18.900 F9000
G1 X-80.580 Y18.900 E146.0288 F2400
G1 X-81.400 Y18.080 E146.0936
G1 X-81.400 Y-18.080 E148.1141
G1 X-80.580 Y-18.900 E148.1789
G1 X80.580 Y-18.900 E157.1840
G1 X81.400 Y-18.080 E157.2488
G1 X81.400 Y18.080 E159.2693
G1 X80.580 Y18.900 E159.3341
G1 X80.414 Y18.500 F9000
G1 X-80.414 Y18.500 E168.3207 F2400
G1 X-81.000 Y17.914 E168.3670
G1 X-81.000 Y-17.914 E170.3690
G1 X-80.414 Y-18.500 E170.4153
G1 X80.414 Y-18.500 E179.4019
G1 X81.000 Y-17.914 E179.4482
G1 X81.000 Y17.914 E181.4502
G1 X80.414 Y18.500 E181.4965
G1 X80.249 Y18.100 F9000
G1 X-80.249 Y18.100 E190.4646 F2400
G1 X-80.600 Y17.749 E190.4923
G1 X-80.600 Y-17.749 E192.4758
G1 X-80.249 Y-18.100 E192.5036
G1 X80.249 Y-18.100 E201.4717
G1 X80.600 Y-17.749 E201.4995
G1 X80.600 Y17.749 E203.4829
G1 X80.249 Y18.100 E203.5107
G1 X80.083 Y17.700 F9000
G1 X-80.083 Y17.700 E212.4603 F2400
G1 X-80.200 Y17.583 E212.4695
G1 X-80.200 Y-17.583 E214.4345
G1 X-80.083 Y-17.700 E214.4438
G1 X80.083 Y-17.700 E223.3933
G1 X80.200 Y-17.583 E223.4026
G1 X80.200 Y17.583 E225.3676
G1 X80.083 Y17.700 E225.3768
G1 E223.8768 F1200
; inner perimeter
G1 X79.804 Y17.304 F9000
G1 X79.804 Y3.571 F9000
G1 X79.400 Y-16.900 F9000
G1 E225.4268 F1200
G1 X79.400 Y16.900 E227.3155 F1920
G1 X-79.400 Y16.900 E236.1887
G1 X-79.400 Y-16.900 E238.0774
G1 X79.400 Y-16.900 E246.9506
; outer perimeter
G1 X79.800 Y17.300 F9000
G1 X-79.800 Y17.300 E255.8686 F1440
G1 X-79.800 Y-17.300 E257.8020
G1 X79.800 Y-17.300 E266.7199
G1 X79.800 Y17.300 E268.6533
; inner perimeter
G1 X76.947 Y15.696 F9000
G1 X78.196 Y15.696 F9000
G1 X78.196 Y-15.696 F9000
G1 X59.054 Y-15.696 F9000
G1 X59.054 Y-13.846 F9000
G1 X39.946 Y-13.846 F9000
G1 X39.946 Y-15.696 F9000
G1 X21.118 Y-15.696 F9000
G1 X20.400 Y-16.100 F9000
G1 X20.400 Y16.100 E270.4525 F1920
G1 X40.350 Y16.100 E271.5673
G1 X40.350 Y14.250 E271.6706
G1 X58.650 Y14.250 E272.6932
G1 X58.650 Y16.100 E272.7966
G1 X78.600 Y16.100 E273.9113
G1 X78.600 Y-16.100 E275.7105
G1 X58.650 Y-16.100 E276.8253
G1 X58.650 Y-14.250 E276.9287
G1 X40.350 Y-14.250 E277.9512
G1 X40.350 Y-16.100 E278.0546
G1 X20.400 Y-16.100 E279.1693
; outer perimeter
G1 X20.804 Y-15.443 F9000
G1 X20.804 Y15.696 F9000
G1 X39.946 Y15.696 F9000
G1 X39.946 Y15.693 F9000
G1 X39.950 Y15.700 F9000
G1 X39.950 Y13.850 E279.2727 F1440
G1 X59.050 Y13.850 E280.3400
G1 X59.050 Y15.700 E280.4433
G1 X78.200 Y15.700 E281.5134
G1 X78.200 Y-15.700 E283.2679
G1 X59.050 Y-15.700 E284.3380
G1 X59.050 Y-13.850 E284.4413
G1 X39.950 Y-13.850 E285.5086
G1 X39.950 Y-15.700 E285.6120
G1 X20.800 Y-15.700 E286.6820
G1 X20.800 Y15.700 E288.4365
G1 X39.950 Y15.700 E289.5066
; solid layer
G1 X55.885 Y14.590 F9000
G1 X57.855 Y16.560 E289.6623 F1440
G1 X57.289 Y16.560 E289.6939
G1 X55.319 Y14.590 E289.8495
G1 X54.754 Y14.590 E289.8812
G1 X56.724 Y16.560 E290.0368
G1 X56.158 Y16.560 E290.0684
G1 X54.188 Y14.590 E290.2241
G1 X53.622 Y14.590 E290.2557
G1 X55.592 Y16.560 E290.4114
G1 X55.027 Y16.560 E290.4430
G1 X53.057 Y14.590 E290.5987
G1 X52.491 Y14.590 E290.6303
G1 X54.461 Y16.560 E290.7860
G1 X53.895 Y16.560 E290.8176
G1 X51.925 Y14.590 E290.9732
G1 X51.360 Y14.590 E291.0048
G1 X53.330 Y16.560 E291.1605
G1 X52.764 Y16.560 E291.1921
G1 X50.794 Y14.590 E291.3478
G1 X50.228 Y14.590 E291.3794
G1 X52.198 Y16.560 E291.5351
G1 X51.633 Y16.560 E291.5667
G1 X49.663 Y14.590 E291.7224
G1 X49.097 Y14.590 E291.7540
G1 X51.067 Y16.560 E291.9096
G1 X50.501 Y16.560 E291.9413
G1 X48.531 Y14.590 E292.0969
G1 X47.965 Y14.590 E292.1285
G1 X49.935 Y16.560 E292.2842
G1 X49.370 Y16.560 E292.3158
G1 X47.400 Y14.590 E292.4715
G1 X46.834 Y14.590 E292.5031
G1 X48.804 Y16.560 E292.6588
G1 X48.238 Y16.560 E292.6904
G1 X46.268 Y14.590 E292.8461
G1 X45.703 Y14.590 E292.8777
G1 X47.673 Y16.560 E293.0333
G1 X47.107 Y16.560 E293.0649
G1 X45.137 Y14.590 E293.2206
G1 X44.571 Y14.590 E293.2522
G1 X46.541 Y16.560 E293.4079
G1 X45.976 Y16.560 E293.4395
G1 X44.006 Y14.590 E293.5952
G1 X43.440 Y14.590 E293.6268
G1 X45.410 Y16.560 E293.7825
G1 X44.844 Y16.560 E293.8141
G1 X42.874 Y14.590 E293.9698
G1 X42.309 Y14.590 E294.0014
G1 X44.279 Y16.560 E294.1570
G1 X43.713 Y16.560 E294.1886
G1 X41.743 Y14.590 E294.3443
G1 X41.177 Y14.590 E294.3759
G1 X43.147 Y16.560 E294.5316
G1 X42.582 Y16.560 E294.5632
G1 X40.690 Y14.668 E294.7127
G1 X40.690 Y15.234 E294.7443
G1 X42.016 Y16.560 E294.8491
G1 X41.450 Y16.560 E294.8807
G1 X40.690 Y15.800 E294.9407
G1 X40.690 Y16.366 E294.9723
G1 X40.884 Y16.560 E294.9877
G1 X40.319 Y16.560 E295.0193
G1 X40.199 Y16.440 E295.0288
G1 X39.633 Y16.440 E295.0604
G1 X39.753 Y16.560 E295.0699
G1 X39.187 Y16.560 E295.1015
G1 X39.067 Y16.440 E295.1110
G1 X38.502 Y16.440 E295.1426
G1 X38.622 Y16.560 E295.1521
G1 X38.056 Y16.560 E295.1837
G1 X37.936 Y16.440 E295.1932
G1 X37.370 Y16.440 E295.2248
G1 X37.490 Y16.560 E295.2343
G1 X36.925 Y16.560 E295.2659
G1 X36.805 Y16.440 E295.2754
G1 X36.239 Y16.440 E295.3070
G1 X36.359 Y16.560 E295.3164
G1 X35.793 Y16.560 E295.3481
G1 X35.673 Y16.440 E295.3575
G1 X35.108 Y16.440 E295.3891
G1 X35.228 Y16.560 E295.3986
G1 X34.662 Y16.560 E295.4302
G1 X34.542 Y16.440 E295.4397
G1 X33.976 Y16.440 E295.4713
G1 X34.096 Y16.560 E295.4808
G1 X33.531 Y16.560 E295.5124
G1 X33.411 Y16.440 E295.5219
G1 X32.845 Y16.440 E295.5535
G1 X32.965 Y16.560 E295.5630
G1 X32.399 Y16.560 E295.5946
G1 X32.279 Y16.440 E295.6041
G1 X31.714 Y16.440 E295.6357
G1 X31.834 Y16.560 E295.6452
G1 X31.268 Y16.560 E295.6768
G1 X31.148 Y16.440 E295.6863
G1 X30.582 Y16.440 E295.7179
G1 X30.702 Y16.560 E295.7274
G1 X30.136 Y16.560 E295.7590
G1 X30.016 Y16.440 E295.7685
G1 X29.451 Y16.440 E295.8001
G1 X29.571 Y16.560 E295.8095
G1 X29.005 Y16.560 E295.8412
G1 X28.885 Y16.440 E295.8506
G1 X28.319 Y16.440 E295.8822
G1 X28.439 Y16.560 E295.8917
G1 X27.874 Y16.560 E295.9233
G1 X27.754 Y16.440 E295.9328
G1 X27.188 Y16.440 E295.9644
G1 X27.308 Y16.560 E295.9739
G1 X26.742 Y16.560 E296.0055
G1 X26.622 Y16.440 E296.0150
G1 X26.057 Y16.440 E296.0466
G1 X26.177 Y16.560 E296.0561
G1 X25.611 Y16.560 E296.0877
G1 X25.491 Y16.440 E296.0972
G1 X24.925 Y16.440 E296.1288
G1 X25.045 Y16.560 E296.1383
G1 X24.480 Y16.560 E296.1699
G1 X24.360 Y16.440 E296.1794
G1 X23.794 Y16.440 E296.2110
G1 X23.914 Y16.560 E296.2205
G1 X23.348 Y16.560 E296.2521
G1 X23.228 Y16.440 E296.2616
G1 X22.663 Y16.440 E296.2932
G1 X22.783 Y16.560 E296.3026
G1 X22.217 Y16.560 E296.3343
G1 X22.097 Y16.440 E296.3437
G1 X21.531 Y16.440 E296.3753
G1 X21.651 Y16.560 E296.3848
G1 X21.085 Y16.560 E296.4164
G1 X20.965 Y16.440 E296.4259
G1 X21.436 Y15.696 F9000
G1 X20.804 Y15.696 F9000
G1 X20.804 Y-15.696 F9000
G1 X39.946 Y-15.696 F9000
G1 X39.946 Y-13.846 F9000
G1 X40.120 Y-13.846 F9000
G1 X40.690 Y-14.747 F9000
G1 X40.847 Y-14.590 E296.4383 F1440
G1 X41.413 Y-14.590 E296.4699
G1 X40.690 Y-15.313 E296.5271
G1 X41.550 Y-13.846 F9000
G1 X39.946 Y-13.846 F9000
G1 X39.946 Y-15.696 F9000
G1 X20.804 Y-15.696 F9000
G1 X20.804 Y15.696 F9000
G1 X39.946 Y15.696 F9000
G1 X39.946 Y13.846 F9000
G1 X57.779 Y13.846 F9000
G1 X58.310 Y14.752 F9000
G1 X58.148 Y14.590 E296.5399 F1440
G1 X57.582 Y14.590 E296.5715
G1 X58.310 Y15.318 E296.6290
G1 X58.310 Y15.884 E296.6606
G1 X57.016 Y14.590 E296.7628
G1 X56.451 Y14.590 E296.7945
G1 X58.421 Y16.560 E296.9501
G1 X58.986 Y16.560 E296.9817
G1 X58.866 Y16.440 E296.9912
G1 X59.432 Y16.440 E297.0228
G1 X59.552 Y16.560 E297.0323
G1 X60.118 Y16.560 E297.0639
G1 X59.998 Y16.440 E297.0734
G1 X60.563 Y16.440 E297.1050
G1 X60.683 Y16.560 E297.1145
G1 X61.249 Y16.560 E297.1461
G1 X61.129 Y16.440 E297.1556
G1 X61.695 Y16.440 E297.1872
G1 X61.815 Y16.560 E297.1967
G1 X62.381 Y16.560 E297.2283
G1 X62.261 Y16.440 E297.2378
G1 X62.826 Y16.440 E297.2694
G1 X62.946 Y16.560 E297.2789
G1 X63.512 Y16.560 E297.3105
G1 X63.392 Y16.440 E297.3200
G1 X63.958 Y16.440 E297.3516
G1 X64.078 Y16.560 E297.3610
G1 X64.643 Y16.560 E297.3927
G1 X64.523 Y16.440 E297.4021
G1 X65.089 Y16.440 E297.4337
G1 X65.209 Y16.560 E297.4432
G1 X65.775 Y16.560 E297.4748
G1 X65.655 Y16.440 E297.4843
G1 X66.220 Y16.440 E297.5159
G1 X66.340 Y16.560 E297.5254
G1 X66.906 Y16.560 E297.5570
G1 X66.786 Y16.440 E297.5665
G1 X67.352 Y16.440 E297.5981
G1 X67.472 Y16.560 E297.6076
G1 X68.037 Y16.560 E297.6392
G1 X67.917 Y16.440 E297.6487
G1 X68.483 Y16.440 E297.6803
G1 X68.603 Y16.560 E297.6898
G1 X69.169 Y16.560 E297.7214
G1 X69.049 Y16.440 E297.7309
G1 X69.614 Y16.440 E297.7625
G1 X69.734 Y16.560 E297.7720
G1 X70.300 Y16.560 E297.8036
G1 X70.180 Y16.440 E297.8131
G1 X70.746 Y16.440 E297.8447
G1 X70.866 Y16.560 E297.8541
G1 X71.431 Y16.560 E297.8858
G1 X71.311 Y16.440 E297.8952
