; G-Code generated by Simplify3D(R) Version 4.0.0
; Sep 5, 2017 at 12:03:41 AM
; Settings Summary
;   processName,Process1
;   applyToModels,CANECO-Logo_amarelo_torrado
;   profileName,BEEVERYCREATIVE BEETHEFIRST (modified)
;   profileVersion,2017-09-02 19:20:53
;   baseProfile,
;   printMaterial,
;   printQuality,
;   printExtruders,
;   extruderName,Primary Extruder
;   extruderToolheadNumber,0
;   extruderDiameter,0.4
;   extruderAutoWidth,0
;   extruderWidth,0.4
;   extrusionMultiplier,1.12
;   extruderUseRetract,1
;   extruderRetractionDistance,1.5
;   extruderExtraRestartDistance,0.05
;   extruderRetractionZLift,1
;   extruderRetractionSpeed,1200
;   extruderUseCoasting,0
;   extruderCoastingDistance,0.1
;   extruderUseWipe,0
;   extruderWipeDistance,1
;   primaryExtruder,0
;   layerHeight,0.1
;   topSolidLayers,3
;   bottomSolidLayers,2
;   perimeterOutlines,2
;   printPerimetersInsideOut,1
;   startPointOption,1
;   startPointOriginX,0
;   startPointOriginY,0
;   sequentialIslands,0
;   spiralVaseMode,0
;   firstLayerHeightPercentage,100
;   firstLayerWidthPercentage,100
;   firstLayerUnderspeed,0.3
;   useRaft,0
;   raftExtruder,0
;   raftTopLayers,4
;   raftBaseLayers,2
;   raftOffset,10
;   raftSeparationDistance,0.2
;   raftTopInfill,100
;   aboveRaftSpeedMultiplier,0.3
;   useSkirt,0
;   skirtExtruder,0
;   skirtLayers,1
;   skirtOutlines,3
;   skirtOffset,0
;   usePrimePillar,0
;   primePillarExtruder,999
;   primePillarWidth,12
;   primePillarLocation,7
;   primePillarSpeedMultiplier,1
;   useOozeShield,0
;   oozeShieldExtruder,999
;   oozeShieldOffset,2
;   oozeShieldOutlines,1
;   oozeShieldSidewallShape,1
;   oozeShieldSidewallAngle,30
;   oozeShieldSpeedMultiplier,1
;   infillExtruder,0
;   internalInfillPattern,Fast Honeycomb
;   externalInfillPattern,Rectilinear
;   infillPercentage,6
;   outlineOverlapPercentage,15
;   infillExtrusionWidthPercentage,100
;   minInfillLength,5
;   infillLayerInterval,1
;   internalInfillAngles,0
;   overlapInternalInfillAngles,0
;   externalInfillAngles,45,-45
;   generateSupport,0
;   supportExtruder,0
;   supportInfillPercentage,10
;   supportExtraInflation,0
;   supportBaseLayers,0
;   denseSupportExtruder,0
;   denseSupportLayers,2
;   denseSupportInfillPercentage,80
;   supportLayerInterval,1
;   supportHorizontalPartOffset,0.25
;   supportUpperSeparationLayers,2
;   supportLowerSeparationLayers,2
;   supportType,0
;   supportGridSpacing,1
;   maxOverhangAngle,60
;   supportAngles,45
;   temperatureName,Primary Extruder Temperature
;   temperatureNumber,0
;   temperatureSetpointCount,1
;   temperatureSetpointLayers,1
;   temperatureSetpointTemperatures,210
;   temperatureStabilizeAtStartup,1
;   temperatureHeatedBed,0
;   temperatureRelayBetweenLayers,0
;   temperatureRelayBetweenLoops,0
;   fanLayers,1,2
;   fanSpeeds,0,80
;   blipFanToFullPower,0
;   adjustSpeedForCooling,0
;   minSpeedLayerTime,15
;   minCoolingSpeedSlowdown,50
;   increaseFanForCooling,0
;   minFanLayerTime,45
;   maxCoolingFanSpeed,90
;   increaseFanForBridging,0
;   bridgingFanSpeed,100
;   use5D,1
;   relativeEdistances,0
;   allowEaxisZeroing,0
;   independentExtruderAxes,0
;   includeM10123,0
;   stickySupport,1
;   applyToolheadOffsets,0
;   gcodeXoffset,0
;   gcodeYoffset,0
;   gcodeZoffset,0
;   overrideMachineDefinition,1
;   machineTypeOverride,0
;   strokeXoverride,190
;   strokeYoverride,135
;   strokeZoverride,125
;   originOffsetXoverride,95
;   originOffsetYoverride,67.5
;   originOffsetZoverride,0
;   homeXdirOverride,-1
;   homeYdirOverride,-1
;   homeZdirOverride,-1
;   flipXoverride,1
;   flipYoverride,-1
;   flipZoverride,1
;   toolheadOffsets,0,0|0,0|0,0|0,0|0,0|0,0
;   overrideFirmwareConfiguration,0
;   firmwareTypeOverride,RepRap (Marlin/Repetier/Sprinter)
;   GPXconfigOverride,r2
;   baudRateOverride,115200
;   overridePrinterModels,0
;   printerModelsOverride
;   startingGcode,M300,G28,M206 X500,M107,M104 S[extruder0_temperature],G92 E,M642 W1,M130 T6 U1.3 V80,G1 X-98.0 Y-20.0 Z5.0 F3000,G1 Y-68.0 Z0.3,G1 X-98.0 Y0.0 F500 E20,G92 E
;   layerChangeGcode,
;   retractionGcode,
;   toolChangeGcode,
;   endingGcode,M300,M104 S0,G28 X,G28 Z,G1 Y65,M107,M641 A1
;   exportFileFormat,gcode
;   celebration,0
;   celebrationSong,Random Song
;   postProcessing,
;   defaultSpeed,4200
;   outlineUnderspeed,0.6
;   solidInfillUnderspeed,0.6
;   supportUnderspeed,0.6
;   rapidXYspeed,9000
;   rapidZspeed,2400
;   minBridgingArea,5
;   bridgingExtraInflation,0
;   bridgingExtrusionMultiplier,1.1
;   bridgingSpeedMultiplier,0.6
;   useFixedBridgingAngle,0
;   fixedBridgingAngle,0
;   applyBridgingToPerimeters,0
;   filamentDiameters,1.75|1.75|1.75|1.75|1.75|1.75
;   filamentPricesPerKg,46|46|46|46|46|46
;   filamentDensities,1.25|1.25|1.25|1.25|1.25|1.25
;   useMinPrintHeight,1
;   minPrintHeight,0
;   useMaxPrintHeight,0
;   maxPrintHeight,2
;   useDiaphragm,0
;   diaphragmLayerInterval,20
;   robustSlicing,0
;   mergeAllIntoSolid,0
;   onlyRetractWhenCrossingOutline,1
;   retractBetweenLayers,1
;   useRetractionMinTravel,0
;   retractionMinTravel,3
;   retractWhileWiping,1
;   onlyWipeOutlines,0
;   avoidCrossingOutline,1
;   maxMovementDetourFactor,3
;   toolChangeRetractionDistance,12
;   toolChangeExtraRestartDistance,-0.5
;   toolChangeRetractionSpeed,600
;   externalThinWallType,1
;   internalThinWallType,2
;   thinWallAllowedOverlapPercentage,50
;   singleExtrusionMinLength,1
;   singleExtrusionMinPrintingWidthPercentage,50
;   singleExtrusionMaxPrintingWidthPercentage,200
;   singleExtrusionEndpointExtension,0.2
;   horizontalSizeCompensation,0
G90
M82
M106 S0
M300
G28
M206 X500
M107
M104 S210
G92 E
M642 W1
M130 T6 U1.3 V80
G1 X-98.0 Y-20.0 Z5.0 F3000
G1 Y-68.0 Z0.3
G1 X-98.0 Y0.0 F500 E20
G92 E
G1 E-1.5000 F1200
G1 Z1.100 F2400
; process Process1
; layer 1, Z = 0.100
T0
; tool H0.100 W0.400
; inner perimeter
G1 X8.901 Y3.101 F9000
G1 Z0.100 F2400
G1 E0.0500 F360
G1 X8.901 Y15.899 E0.2884 F1008
G1 X7.101 Y15.899 E0.3219
G1 X7.101 Y14.899 E0.3405
G1 X6.101 Y14.899 E0.3591
G1 X6.101 Y12.899 E0.3964
G1 X5.101 Y12.899 E0.4150
G1 X5.101 Y10.899 E0.4523
G1 X2.901 Y10.899 E0.4933
G1 X2.901 Y15.899 E0.5864
G1 X1.099 Y15.899 E0.6199
G1 X1.099 Y3.101 E0.8583
G1 X2.901 Y3.101 E0.8919
G1 X2.901 Y5.099 E0.9291
G1 X3.901 Y5.099 E0.9477
G1 X3.901 Y7.099 E0.9850
G1 X4.901 Y7.099 E1.0036
G1 X4.901 Y9.099 E1.0408
G1 X7.101 Y9.099 E1.0818
G1 X7.101 Y3.101 E1.1935
G1 X8.901 Y3.101 E1.2271
G1 E-0.2729 F1200
G1 Z1.100 F2400
; outer perimeter
G1 X3.301 Y4.699 F9000
G1 Z0.100 F2400
G1 E1.2771 F1200
G1 X4.301 Y4.699 E1.2957 F756
G1 X4.301 Y6.699 E1.3329
G1 X5.301 Y6.699 E1.3516
G1 X5.301 Y8.699 E1.3888
G1 X6.701 Y8.699 E1.4149
G1 X6.701 Y2.701 E1.5266
G1 X9.301 Y2.701 E1.5750
G1 X9.301 Y16.299 E1.8283
G1 X6.701 Y16.299 E1.8767
G1 X6.701 Y15.299 E1.8954
G1 X5.701 Y15.299 E1.9140
G1 X5.701 Y13.299 E1.9512
G1 X4.701 Y13.299 E1.9699
G1 X4.701 Y11.299 E2.0071
G1 X3.301 Y11.299 E2.0332
G1 X3.301 Y16.299 E2.1263
G1 X0.699 Y16.299 E2.1748
G1 X0.699 Y2.701 E2.4281
G1 X3.301 Y2.701 E2.4765
G1 X3.301 Y4.699 E2.5137
; solid layer
G1 X3.294 Y5.439 F9000
G1 X3.561 Y5.706 E2.5208 F756
G1 X3.561 Y6.272 E2.5313
G1 X2.728 Y5.439 E2.5532
G1 X1.439 Y5.281 F9000
G1 X3.561 Y7.403 E2.6091 F756
G1 X3.561 Y6.837 E2.6197
G1 X1.439 Y4.715 E2.6756
G1 X1.439 Y4.150 E2.6861
G1 X2.561 Y5.272 E2.7157
G1 X2.561 Y4.706 E2.7262
G1 X1.439 Y3.584 E2.7558
G1 X1.439 Y3.441 E2.7584
G1 X1.862 Y3.441 E2.7663
G1 X2.561 Y4.140 E2.7847
G1 X2.561 Y3.575 E2.7952
G1 X2.427 Y3.441 E2.7988
G1 X1.439 Y6.978 F9000
G1 X5.020 Y10.559 E2.8931 F756
G1 X4.454 Y10.559 E2.9036
G1 X1.439 Y7.544 E2.9830
G1 X1.439 Y8.110 E2.9936
G1 X3.888 Y10.559 E3.0581
G1 X3.323 Y10.559 E3.0686
G1 X1.439 Y8.675 E3.1183
G1 X1.439 Y9.241 E3.1288
G1 X2.757 Y10.559 E3.1635
G1 X2.561 Y10.559 E3.1672
G1 X2.561 Y10.929 E3.1741
G1 X1.439 Y9.807 E3.2036
G1 X1.439 Y10.372 E3.2141
G1 X2.561 Y11.494 E3.2437
G1 X2.561 Y12.060 E3.2542
G1 X1.439 Y10.938 E3.2838
G1 X1.439 Y11.504 E3.2943
G1 X2.561 Y12.626 E3.3239
G1 X2.561 Y13.191 E3.3344
G1 X1.439 Y12.069 E3.3640
G1 X1.439 Y12.635 E3.3745
G1 X2.561 Y13.757 E3.4041
G1 X2.561 Y14.323 E3.4146
G1 X1.439 Y13.201 E3.4441
G1 X1.439 Y13.766 E3.4547
G1 X2.561 Y14.888 E3.4842
G1 X2.561 Y15.454 E3.4948
G1 X1.439 Y14.332 E3.5243
G1 X1.439 Y14.898 E3.5349
G1 X2.100 Y15.559 E3.5523
G1 X1.535 Y15.559 E3.5628
G1 X1.439 Y15.463 E3.5653
G1 E2.0653 F1200
G1 Z1.100 F2400
G1 X6.757 Y14.559 F9000
G1 Z0.100 F2400
G1 E3.6153 F1200
G1 X6.441 Y14.243 E3.6237 F756
G1 X6.441 Y13.677 E3.6342
G1 X7.323 Y14.559 E3.6574
G1 X7.441 Y14.559 E3.6596
G1 X7.441 Y14.677 E3.6618
G1 X8.323 Y15.559 E3.6851
G1 X8.561 Y15.559 E3.6895
G1 X8.561 Y15.232 E3.6956
G1 X6.441 Y13.112 E3.7514
G1 X6.441 Y12.559 E3.7617
G1 X5.888 Y12.559 E3.7720
G1 X5.441 Y12.112 E3.7838
G1 X5.441 Y11.546 E3.7943
G1 X8.561 Y14.666 E3.8765
G1 X8.561 Y14.100 E3.8871
G1 X5.441 Y10.980 E3.9692
G1 X4.561 Y7.837 F9000
G1 X4.163 Y7.439 E3.9797 F756
G1 X3.597 Y7.439 E3.9903
G1 X4.561 Y8.403 E4.0157
G1 X4.561 Y8.969 E4.0262
G1 X1.439 Y5.847 E4.1084
G1 X1.439 Y6.412 E4.1190
G1 X8.561 Y13.534 E4.3066
G1 X8.561 Y12.969 E4.3171
G1 X5.031 Y9.439 E4.4101
G1 X5.597 Y9.439 E4.4206
G1 X8.561 Y12.403 E4.4987
G1 X8.561 Y11.837 E4.5092
G1 X6.163 Y9.439 E4.5724
G1 X6.728 Y9.439 E4.5830
G1 X8.561 Y11.272 E4.6312
G1 X8.561 Y10.706 E4.6418
G1 X7.294 Y9.439 E4.6751
G1 X7.441 Y9.439 E4.6779
G1 X7.441 Y9.020 E4.6857
G1 X8.561 Y10.140 E4.7152
G1 X8.561 Y9.575 E4.7257
G1 X7.441 Y8.455 E4.7552
G1 X7.441 Y7.889 E4.7658
G1 X8.561 Y9.009 E4.7953
G1 X8.561 Y8.443 E4.8058
G1 X7.441 Y7.323 E4.8353
G1 X7.441 Y6.758 E4.8458
G1 X8.561 Y7.878 E4.8753
G1 X8.561 Y7.312 E4.8859
G1 X7.441 Y6.192 E4.9154
G1 X7.441 Y5.626 E4.9259
G1 X8.561 Y6.746 E4.9554
G1 X8.561 Y6.181 E4.9659
G1 X7.441 Y5.061 E4.9954
G1 X7.441 Y4.495 E5.0060
G1 X8.561 Y5.615 E5.0355
G1 X8.561 Y5.049 E5.0460
G1 X7.441 Y3.929 E5.0755
G1 X7.441 Y3.441 E5.0846
G1 X7.518 Y3.441 E5.0861
G1 X8.561 Y4.484 E5.1135
G1 X8.561 Y3.918 E5.1241
G1 X8.084 Y3.441 E5.1366
G1 X7.441 Y15.243 F9000
G1 X7.757 Y15.559 E5.1449 F756
G1 E3.6449 F1200
G1 Z1.100 F2400
; inner perimeter
G1 X9.305 Y13.963 F9000
G1 X9.305 Y2.697 F9000
G1 X18.099 Y4.899 F9000
G1 Z0.100 F2400
G1 E5.1949 F1200
G1 X13.901 Y4.899 E5.2731 F1008
G1 X13.901 Y15.899 E5.4780
G1 X12.101 Y15.899 E5.5115
G1 X12.101 Y4.099 E5.7313
G1 X13.101 Y4.099 E5.7499
G1 X13.101 Y3.101 E5.7685
G1 X18.899 Y3.101 E5.8765
G1 X18.899 Y4.099 E5.8951
G1 X19.899 Y4.099 E5.9137
G1 X19.899 Y15.899 E6.1335
G1 X18.099 Y15.899 E6.1670
G1 X18.099 Y4.899 E6.3719
; outer perimeter
G1 X17.695 Y6.112 F9000
G1 X17.695 Y5.303 F9000
G1 X14.305 Y5.303 F9000
G1 X14.305 Y16.287 F9000
G1 X14.301 Y16.299 F9000
G1 X11.701 Y16.299 E6.4204 F756
G1 X11.701 Y3.699 E6.6550
G1 X12.701 Y3.699 E6.6737
G1 X12.701 Y2.701 E6.6923
G1 X19.299 Y2.701 E6.8151
G1 X19.299 Y3.699 E6.8337
G1 X20.299 Y3.699 E6.8524
G1 X20.299 Y16.299 E7.0870
G1 X17.699 Y16.299 E7.1355
G1 X17.699 Y5.299 E7.3404
G1 X14.301 Y5.299 E7.4036
G1 X14.301 Y16.299 E7.6085
; solid layer
G1 X12.441 Y15.152 F9000
G1 X12.848 Y15.559 E7.6193 F756
G1 X13.414 Y15.559 E7.6298
G1 X12.441 Y14.586 E7.6554
G1 X12.441 Y14.020 E7.6660
G1 X13.561 Y15.140 E7.6955
G1 X13.561 Y14.575 E7.7060
G1 X12.441 Y13.455 E7.7355
G1 X12.441 Y12.889 E7.7460
G1 X13.561 Y14.009 E7.7755
G1 X13.561 Y13.443 E7.7861
G1 X12.441 Y12.323 E7.8156
G1 X12.441 Y11.758 E7.8261
G1 X13.561 Y12.878 E7.8556
G1 X13.561 Y12.312 E7.8661
G1 X12.441 Y11.192 E7.8956
G1 X12.441 Y10.626 E7.9062
G1 X13.561 Y11.746 E7.9357
G1 X13.561 Y11.181 E7.9462
G1 X12.441 Y10.061 E7.9757
G1 X12.441 Y9.495 E7.9863
G1 X13.561 Y10.615 E8.0158
G1 X13.561 Y10.049 E8.0263
G1 X12.441 Y8.929 E8.0558
G1 X12.441 Y8.364 E8.0663
G1 X13.561 Y9.484 E8.0958
G1 X13.561 Y8.918 E8.1064
G1 X12.441 Y7.798 E8.1359
G1 X12.441 Y7.232 E8.1464
G1 X13.561 Y8.352 E8.1759
G1 X13.561 Y7.786 E8.1864
G1 X12.441 Y6.666 E8.2159
G1 X12.441 Y6.101 E8.2265
G1 X13.561 Y7.221 E8.2560
G1 X13.561 Y6.655 E8.2665
G1 X12.441 Y5.535 E8.2960
G1 X12.441 Y4.969 E8.3066
G1 X13.561 Y6.089 E8.3361
G1 X13.561 Y5.524 E8.3466
G1 X12.476 Y4.439 E8.3752
G1 X13.042 Y4.439 E8.3857
G1 X13.561 Y4.958 E8.3994
G1 X13.561 Y4.559 E8.4068
G1 X13.728 Y4.559 E8.4099
G1 X13.441 Y4.272 E8.4175
G1 X13.441 Y3.707 E8.4280
G1 X14.293 Y4.559 E8.4505
G1 X14.859 Y4.559 E8.4610
G1 X13.741 Y3.441 E8.4904
G1 X14.307 Y3.441 E8.5010
G1 X15.425 Y4.559 E8.5304
G1 X15.990 Y4.559 E8.5410
G1 X14.872 Y3.441 E8.5704
G1 X15.438 Y3.441 E8.5809
G1 X16.556 Y4.559 E8.6104
G1 X17.122 Y4.559 E8.6209
G1 X16.004 Y3.441 E8.6504
G1 X16.569 Y3.441 E8.6609
G1 X17.687 Y4.559 E8.6904
G1 X18.253 Y4.559 E8.7009
G1 X17.135 Y3.441 E8.7304
G1 X17.701 Y3.441 E8.7409
G1 X18.559 Y4.299 E8.7635
G1 X18.559 Y3.734 E8.7740
G1 X18.266 Y3.441 E8.7817
G1 X18.699 Y4.439 F9000
G1 X19.559 Y5.299 E8.8044 F756
G1 X19.559 Y4.734 E8.8149
G1 X19.264 Y4.439 E8.8227
G1 X18.439 Y4.745 F9000
G1 X19.559 Y5.865 E8.8522 F756
G1 X19.559 Y6.431 E8.8627
G1 X18.439 Y5.311 E8.8922
G1 X18.439 Y5.876 E8.9028
G1 X19.559 Y6.996 E8.9323
G1 X19.559 Y7.562 E8.9428
G1 X18.439 Y6.442 E8.9723
G1 X18.439 Y7.008 E8.9828
G1 X19.559 Y8.128 E9.0123
G1 X19.559 Y8.693 E9.0229
G1 X18.439 Y7.573 E9.0524
G1 X18.439 Y8.139 E9.0629
G1 X19.559 Y9.259 E9.0924
G1 X19.559 Y9.825 E9.1030
G1 X18.439 Y8.705 E9.1325
G1 X18.439 Y9.270 E9.1430
G1 X19.559 Y10.390 E9.1725
G1 X19.559 Y10.956 E9.1830
G1 X18.439 Y9.836 E9.2125
G1 X18.439 Y10.402 E9.2231
G1 X19.559 Y11.522 E9.2526
G1 X19.559 Y12.087 E9.2631
G1 X18.439 Y10.967 E9.2926
G1 X18.439 Y11.533 E9.3031
G1 X19.559 Y12.653 E9.3326
G1 X19.559 Y13.219 E9.3432
G1 X18.439 Y12.099 E9.3727
G1 X18.439 Y12.664 E9.3832
G1 X19.559 Y13.784 E9.4127
G1 X19.559 Y14.350 E9.4233
G1 X18.439 Y13.230 E9.4528
G1 X18.439 Y13.796 E9.4633
G1 X19.559 Y14.916 E9.4928
G1 X19.559 Y15.482 E9.5033
G1 X18.439 Y14.362 E9.5328
G1 X18.439 Y14.927 E9.5434
G1 X19.071 Y15.559 E9.5600
G1 X18.505 Y15.559 E9.5705
G1 X18.439 Y15.493 E9.5723
G1 E8.0723 F1200
G1 Z1.100 F2400
; inner perimeter
G1 X29.899 Y15.899 F9000
G1 Z0.100 F2400
G1 E9.6223 F1200
G1 X24.099 Y15.899 E9.7303 F1008
G1 X24.099 Y14.899 E9.7489
G1 X23.099 Y14.899 E9.7676
G1 X23.099 Y13.099 E9.8011
G1 X24.899 Y13.099 E9.8346
G1 X24.899 Y14.099 E9.8532
G1 X29.099 Y14.099 E9.9315
G1 X29.099 Y10.899 E9.9911
G1 X24.099 Y10.899 E10.0842
G1 X24.099 Y9.899 E10.1028
G1 X23.099 Y9.899 E10.1215
G1 X23.099 Y4.099 E10.2295
G1 X24.099 Y4.099 E10.2481
G1 X24.099 Y3.101 E10.2667
G1 X28.899 Y3.101 E10.3561
G1 X28.899 Y4.099 E10.3747
G1 X29.899 Y4.099 E10.3933
G1 X29.899 Y5.099 E10.4119
G1 X30.899 Y5.099 E10.4306
G1 X30.899 Y6.899 E10.4641
G1 X29.099 Y6.899 E10.4976
G1 X29.099 Y4.899 E10.5349
G1 X24.899 Y4.899 E10.6131
G1 X24.899 Y9.099 E10.6913
G1 X29.899 Y9.099 E10.7845
G1 X29.899 Y10.099 E10.8031
G1 X30.899 Y10.099 E10.8217
G1 X30.899 Y14.899 E10.9111
G1 X29.899 Y14.899 E10.9297
G1 X29.899 Y15.899 E10.9484
G1 E9.4484 F1200
G1 Z1.100 F2400
; outer perimeter
G1 X28.699 Y7.299 F9000
G1 Z0.100 F2400
G1 E10.9984 F1200
G1 X28.699 Y5.299 E11.0356 F756
G1 X25.299 Y5.299 E11.0989
G1 X25.299 Y8.699 E11.1623
G1 X30.299 Y8.699 E11.2554
G1 X30.299 Y9.699 E11.2740
G1 X31.299 Y9.699 E11.2926
G1 X31.299 Y15.299 E11.3969
G1 X30.299 Y15.299 E11.4156
G1 X30.299 Y16.299 E11.4342
G1 X23.699 Y16.299 E11.5571
G1 X23.699 Y15.299 E11.5758
G1 X22.699 Y15.299 E11.5944
G1 X22.699 Y12.699 E11.6428
G1 X25.299 Y12.699 E11.6912
G1 X25.299 Y13.699 E11.7099
G1 X28.699 Y13.699 E11.7732
G1 X28.699 Y11.299 E11.8179
G1 X23.699 Y11.299 E11.9110
G1 X23.699 Y10.299 E11.9296
G1 X22.699 Y10.299 E11.9483
G1 X22.699 Y3.699 E12.0712
G1 X23.699 Y3.699 E12.0898
G1 X23.699 Y2.701 E12.1084
G1 X29.299 Y2.701 E12.2127
G1 X29.299 Y3.699 E12.2313
G1 X30.299 Y3.699 E12.2499
G1 X30.299 Y4.699 E12.2686
G1 X31.299 Y4.699 E12.2872
G1 X31.299 Y7.299 E12.3356
G1 X28.699 Y7.299 E12.3840
; solid layer
G1 X29.439 Y6.128 F9000
G1 X29.870 Y6.559 E12.3954 F756
G1 X30.435 Y6.559 E12.4059
G1 X29.439 Y5.563 E12.4322
G1 X29.881 Y5.439 F9000
G1 X30.559 Y6.117 E12.4500 F756
G1 X30.559 Y5.551 E12.4606
G1 X30.447 Y5.439 E12.4635
