; G-Code generated by Simplify3D(R) Version 4.0.0
; Sep 5, 2017 at 12:15:19 AM
; Settings Summary
;   processName,Process1
;   applyToModels,CANECO-Logo_azul_claro
;   profileName,BEEVERYCREATIVE BEETHEFIRST (modified)
;   profileVersion,2017-09-02 19:20:53
;   baseProfile,
;   printMaterial,
;   printQuality,
;   printExtruders,
;   extruderName,Primary Extruder
;   extruderToolheadNumber,0
;   extruderDiameter,0.4
;   extruderAutoWidth,0
;   extruderWidth,0.4
;   extrusionMultiplier,1.12
;   extruderUseRetract,1
;   extruderRetractionDistance,1.5
;   extruderExtraRestartDistance,0.05
;   extruderRetractionZLift,1
;   extruderRetractionSpeed,1200
;   extruderUseCoasting,0
;   extruderCoastingDistance,0.1
;   extruderUseWipe,0
;   extruderWipeDistance,1
;   primaryExtruder,0
;   layerHeight,0.1
;   topSolidLayers,3
;   bottomSolidLayers,2
;   perimeterOutlines,2
;   printPerimetersInsideOut,1
;   startPointOption,1
;   startPointOriginX,0
;   startPointOriginY,0
;   sequentialIslands,0
;   spiralVaseMode,0
;   firstLayerHeightPercentage,100
;   firstLayerWidthPercentage,100
;   firstLayerUnderspeed,0.3
;   useRaft,0
;   raftExtruder,0
;   raftTopLayers,4
;   raftBaseLayers,2
;   raftOffset,10
;   raftSeparationDistance,0.2
;   raftTopInfill,100
;   aboveRaftSpeedMultiplier,0.3
;   useSkirt,0
;   skirtExtruder,0
;   skirtLayers,1
;   skirtOutlines,3
;   skirtOffset,0
;   usePrimePillar,0
;   primePillarExtruder,999
;   primePillarWidth,12
;   primePillarLocation,7
;   primePillarSpeedMultiplier,1
;   useOozeShield,0
;   oozeShieldExtruder,999
;   oozeShieldOffset,2
;   oozeShieldOutlines,1
;   oozeShieldSidewallShape,1
;   oozeShieldSidewallAngle,30
;   oozeShieldSpeedMultiplier,1
;   infillExtruder,0
;   internalInfillPattern,Fast Honeycomb
;   externalInfillPattern,Rectilinear
;   infillPercentage,6
;   outlineOverlapPercentage,15
;   infillExtrusionWidthPercentage,100
;   minInfillLength,5
;   infillLayerInterval,1
;   internalInfillAngles,0
;   overlapInternalInfillAngles,0
;   externalInfillAngles,45,-45
;   generateSupport,0
;   supportExtruder,0
;   supportInfillPercentage,10
;   supportExtraInflation,0
;   supportBaseLayers,0
;   denseSupportExtruder,0
;   denseSupportLayers,2
;   denseSupportInfillPercentage,80
;   supportLayerInterval,1
;   supportHorizontalPartOffset,0.25
;   supportUpperSeparationLayers,2
;   supportLowerSeparationLayers,2
;   supportType,0
;   supportGridSpacing,1
;   maxOverhangAngle,60
;   supportAngles,45
;   temperatureName,Primary Extruder Temperature
;   temperatureNumber,0
;   temperatureSetpointCount,1
;   temperatureSetpointLayers,1
;   temperatureSetpointTemperatures,210
;   temperatureStabilizeAtStartup,1
;   temperatureHeatedBed,0
;   temperatureRelayBetweenLayers,0
;   temperatureRelayBetweenLoops,0
;   fanLayers,1,2
;   fanSpeeds,0,80
;   blipFanToFullPower,0
;   adjustSpeedForCooling,0
;   minSpeedLayerTime,15
;   minCoolingSpeedSlowdown,50
;   increaseFanForCooling,0
;   minFanLayerTime,45
;   maxCoolingFanSpeed,90
;   increaseFanForBridging,0
;   bridgingFanSpeed,100
;   use5D,1
;   relativeEdistances,0
;   allowEaxisZeroing,0
;   independentExtruderAxes,0
;   includeM10123,0
;   stickySupport,1
;   applyToolheadOffsets,0
;   gcodeXoffset,0
;   gcodeYoffset,0
;   gcodeZoffset,0
;   overrideMachineDefinition,1
;   machineTypeOverride,0
;   strokeXoverride,190
;   strokeYoverride,135
;   strokeZoverride,125
;   originOffsetXoverride,95
;   originOffsetYoverride,67.5
;   originOffsetZoverride,0
;   homeXdirOverride,-1
;   homeYdirOverride,-1
;   homeZdirOverride,-1
;   flipXoverride,1
;   flipYoverride,-1
;   flipZoverride,1
;   toolheadOffsets,0,0|0,0|0,0|0,0|0,0|0,0
;   overrideFirmwareConfiguration,0
;   firmwareTypeOverride,RepRap (Marlin/Repetier/Sprinter)
;   GPXconfigOverride,r2
;   baudRateOverride,115200
;   overridePrinterModels,0
;   printerModelsOverride
;   startingGcode,M300,G28,M206 X500,M107,M104 S[extruder0_temperature],G92 E,M642 W1,M130 T6 U1.3 V80,G1 X-98.0 Y-20.0 Z5.0 F3000,G1 Y-68.0 Z0.3,G1 X-98.0 Y0.0 F500 E20,G92 E
;   layerChangeGcode,
;   retractionGcode,
;   toolChangeGcode,
;   endingGcode,M300,M104 S0,G28 X,G28 Z,G1 Y65,M107,M641 A1
;   exportFileFormat,gcode
;   celebration,0
;   celebrationSong,Random Song
;   postProcessing,
;   defaultSpeed,4200
;   outlineUnderspeed,0.6
;   solidInfillUnderspeed,0.6
;   supportUnderspeed,0.6
;   rapidXYspeed,9000
;   rapidZspeed,2400
;   minBridgingArea,5
;   bridgingExtraInflation,0
;   bridgingExtrusionMultiplier,1.1
;   bridgingSpeedMultiplier,0.6
;   useFixedBridgingAngle,0
;   fixedBridgingAngle,0
;   applyBridgingToPerimeters,0
;   filamentDiameters,1.75|1.75|1.75|1.75|1.75|1.75
;   filamentPricesPerKg,46|46|46|46|46|46
;   filamentDensities,1.25|1.25|1.25|1.25|1.25|1.25
;   useMinPrintHeight,1
;   minPrintHeight,0
;   useMaxPrintHeight,0
;   maxPrintHeight,2
;   useDiaphragm,0
;   diaphragmLayerInterval,20
;   robustSlicing,0
;   mergeAllIntoSolid,0
;   onlyRetractWhenCrossingOutline,1
;   retractBetweenLayers,1
;   useRetractionMinTravel,0
;   retractionMinTravel,3
;   retractWhileWiping,1
;   onlyWipeOutlines,0
;   avoidCrossingOutline,1
;   maxMovementDetourFactor,3
;   toolChangeRetractionDistance,12
;   toolChangeExtraRestartDistance,-0.5
;   toolChangeRetractionSpeed,600
;   externalThinWallType,1
;   internalThinWallType,2
;   thinWallAllowedOverlapPercentage,50
;   singleExtrusionMinLength,1
;   singleExtrusionMinPrintingWidthPercentage,50
;   singleExtrusionMaxPrintingWidthPercentage,200
;   singleExtrusionEndpointExtension,0.2
;   horizontalSizeCompensation,0
G90
M82
M106 S0
M300
G28
M206 X500
M107
M104 S210
G92 E
M642 W1
M130 T6 U1.3 V80
G1 X-98.0 Y-20.0 Z5.0 F3000
G1 Y-68.0 Z0.3
G1 X-98.0 Y0.0 F500 E20
G92 E
G1 E-1.5000 F1200
G1 Z1.100 F2400
; process Process1
; layer 1, Z = 0.100
T0
; tool H0.100 W0.400
; inner perimeter
G1 X-4.898 Y-15.899 F9000
G1 Z0.100 F2400
G1 E0.0500 F360
G1 X-3.100 Y-15.898 E0.0835 F1008
G1 X-3.100 Y-12.104 E0.1542
G1 X-4.898 Y-12.104 E0.1876
G1 X-4.898 Y-15.899 E0.2583
; outer perimeter
G1 X-2.701 Y-16.298 F9000
G1 X-2.700 Y-11.704 E0.3439 F756
G1 X-5.298 Y-11.704 E0.3923
G1 X-5.298 Y-16.299 E0.4779
G1 X-2.700 Y-16.298 E0.5262
; solid layer
G1 X-3.674 Y-15.558 F9000
G1 X-3.440 Y-15.325 E0.5324 F756
G1 X-3.440 Y-14.759 E0.5429
G1 X-4.240 Y-15.558 E0.5640
G1 X-4.558 Y-15.559 E0.5699
G1 X-4.558 Y-15.311 E0.5745
G1 X-3.441 Y-14.194 E0.6039
G1 X-3.441 Y-13.628 E0.6145
G1 X-4.558 Y-14.745 E0.6439
G1 X-4.558 Y-14.179 E0.6544
G1 X-3.441 Y-13.062 E0.6838
G1 X-3.441 Y-12.497 E0.6944
G1 X-4.558 Y-13.614 E0.7238
G1 X-4.558 Y-13.048 E0.7343
G1 X-3.953 Y-12.444 E0.7502
G1 X-4.519 Y-12.444 E0.7608
G1 X-4.558 Y-12.482 E0.7618
G1 E-0.7382 F1200
G1 Z1.100 F2400
; inner perimeter
G1 X-11.101 Y-12.104 F9000
G1 Z0.100 F2400
G1 E0.8118 F1200
G1 X-12.898 Y-12.104 E0.8453 F1008
G1 X-12.898 Y-15.899 E0.9160
G1 X-11.101 Y-15.899 E0.9494
G1 X-11.101 Y-12.104 E1.0201
; outer perimeter
G1 X-13.297 Y-16.299 F9000
G1 X-10.700 Y-16.299 E1.0685 F756
G1 X-10.700 Y-11.704 E1.1541
G1 X-13.297 Y-11.704 E1.2024
G1 X-13.297 Y-16.299 E1.2880
; solid layer
G1 X-11.594 Y-15.559 F9000
G1 X-11.441 Y-15.405 E1.2921 F756
G1 X-11.441 Y-14.840 E1.3026
G1 X-12.159 Y-15.558 E1.3215
G1 X-12.557 Y-15.559 E1.3289
G1 X-12.557 Y-15.391 E1.3321
G1 X-11.441 Y-14.274 E1.3615
G1 X-11.441 Y-13.708 E1.3720
G1 X-12.558 Y-14.825 E1.4014
G1 X-12.558 Y-14.260 E1.4120
G1 X-11.441 Y-13.143 E1.4414
G1 X-11.441 Y-12.577 E1.4519
G1 X-12.558 Y-13.694 E1.4814
G1 X-12.558 Y-13.128 E1.4919
G1 X-11.873 Y-12.443 E1.5099
G1 X-12.438 Y-12.443 E1.5205
G1 X-12.558 Y-12.563 E1.5236
G1 E0.0236 F1200
G1 Z1.100 F2400
; inner perimeter
G1 X-19.100 Y-12.104 F9000
G1 Z0.100 F2400
G1 E1.5736 F1200
G1 X-20.898 Y-12.104 E1.6071 F1008
G1 X-20.898 Y-15.899 E1.6778
G1 X-19.100 Y-15.899 E1.7112
G1 X-19.100 Y-12.104 E1.7819
; outer perimeter
G1 X-21.298 Y-11.703 F9000
G1 X-21.297 Y-16.299 E1.8675 F756
G1 X-18.700 Y-16.299 E1.9159
G1 X-18.700 Y-11.704 E2.0015
G1 X-21.297 Y-11.704 E2.0498
; solid layer
G1 X-20.558 Y-12.643 F9000
G1 X-20.358 Y-12.444 E2.0551 F756
G1 X-19.792 Y-12.444 E2.0656
G1 X-20.558 Y-13.209 E2.0858
G1 X-20.558 Y-13.774 E2.0963
G1 X-19.440 Y-12.657 E2.1257
G1 X-19.440 Y-13.223 E2.1363
G1 X-20.558 Y-14.340 E2.1657
G1 X-20.558 Y-14.906 E2.1762
G1 X-19.440 Y-13.789 E2.2057
G1 X-19.440 Y-14.354 E2.2162
G1 X-20.558 Y-15.471 E2.2456
G1 X-20.558 Y-15.559 E2.2472
G1 X-20.079 Y-15.559 E2.2562
G1 X-19.440 Y-14.920 E2.2730
G1 X-19.440 Y-15.486 E2.2835
G1 X-19.513 Y-15.559 E2.2854
G1 E0.7854 F1200
G1 Z1.100 F2400
; inner perimeter
G1 X-27.101 Y-15.899 F9000
G1 Z0.100 F2400
G1 E2.3354 F1200
G1 X-27.101 Y-12.104 E2.4061 F1008
G1 X-28.898 Y-12.104 E2.4396
G1 X-28.898 Y-15.899 E2.5103
G1 X-27.101 Y-15.899 E2.5437
; outer perimeter
G1 X-26.701 Y-16.299 F9000
G1 X-26.701 Y-11.704 E2.6293 F756
G1 X-29.297 Y-11.704 E2.6777
G1 X-29.297 Y-16.299 E2.7633
G1 X-26.701 Y-16.299 E2.8116
; solid layer
G1 X-27.998 Y-15.559 F9000
G1 X-27.441 Y-15.001 E2.8263 F756
G1 X-27.441 Y-14.435 E2.8369
G1 X-28.558 Y-15.552 E2.8663
G1 X-28.558 Y-14.986 E2.8768
G1 X-27.441 Y-13.869 E2.9063
G1 X-27.441 Y-13.304 E2.9168
G1 X-28.558 Y-14.421 E2.9462
G1 X-28.558 Y-13.855 E2.9568
G1 X-27.441 Y-12.738 E2.9862
G1 X-27.441 Y-12.444 E2.9917
G1 X-27.712 Y-12.444 E2.9967
G1 X-28.557 Y-13.289 E3.0190
G1 X-28.558 Y-12.723 E3.0295
G1 X-28.278 Y-12.444 E3.0369
G1 E1.5369 F1200
G1 Z1.100 F2400
; inner perimeter
G1 X-32.901 Y-14.102 F9000
G1 Z0.100 F2400
G1 E3.0869 F1200
G1 X-39.096 Y-14.102 E3.2023 F1008
G1 X-39.096 Y-12.104 E3.2395
G1 X-40.893 Y-12.104 E3.2730
G1 X-40.893 Y-13.901 E3.3064
G1 X-39.895 Y-13.901 E3.3250
G1 X-39.895 Y-14.900 E3.3437
G1 X-38.895 Y-14.900 E3.3623
G1 X-38.895 Y-15.899 E3.3809
G1 X-33.102 Y-15.899 E3.4888
G1 X-33.102 Y-14.900 E3.5074
G1 X-32.103 Y-14.900 E3.5260
G1 X-32.103 Y-13.901 E3.5446
G1 X-31.105 Y-13.901 E3.5632
G1 X-31.105 Y-12.104 E3.5967
G1 X-32.901 Y-12.104 E3.6301
G1 X-32.901 Y-14.102 E3.6673
; outer perimeter
G1 X-40.294 Y-15.300 F9000
G1 X-39.295 Y-15.300 E3.6860 F756
G1 X-39.295 Y-16.299 E3.7046
G1 X-32.703 Y-16.299 E3.8274
G1 X-32.703 Y-15.300 E3.8460
G1 X-31.703 Y-15.300 E3.8646
G1 X-31.703 Y-14.301 E3.8832
G1 X-30.704 Y-14.301 E3.9018
G1 X-30.704 Y-11.704 E3.9502
G1 X-33.301 Y-11.704 E3.9985
G1 X-33.301 Y-13.702 E4.0357
G1 X-38.696 Y-13.702 E4.1362
G1 X-38.696 Y-11.704 E4.1734
G1 X-41.293 Y-11.704 E4.2218
G1 X-41.293 Y-14.301 E4.2702
G1 X-40.294 Y-14.301 E4.2888
G1 X-40.294 Y-15.300 E4.3074
; solid layer
G1 X-40.298 Y-15.262 F9000
G1 X-40.298 Y-14.305 F9000
G1 X-40.399 Y-14.305 F9000
G1 X-40.553 Y-12.840 F9000
G1 X-40.157 Y-12.444 E4.3178 F756
G1 X-39.591 Y-12.444 E4.3284
G1 X-40.553 Y-13.406 E4.3537
G1 X-40.553 Y-13.561 E4.3566
G1 X-40.143 Y-13.561 E4.3643
G1 X-39.436 Y-12.854 E4.3829
G1 X-39.436 Y-13.420 E4.3934
G1 X-39.577 Y-13.561 E4.3971
G1 X-39.554 Y-13.561 E4.3975
G1 X-39.554 Y-14.104 E4.4076
G1 X-39.436 Y-13.986 E4.4107
G1 X-39.436 Y-14.442 E4.4192
G1 X-39.327 Y-14.442 E4.4213
G1 X-39.445 Y-14.560 E4.4244
G1 X-38.879 Y-14.560 E4.4349
G1 X-38.761 Y-14.442 E4.4380
G1 X-38.195 Y-14.442 E4.4486
G1 X-38.556 Y-14.802 E4.4581
G1 X-38.556 Y-15.368 E4.4686
G1 X-37.630 Y-14.442 E4.4930
G1 X-37.064 Y-14.442 E4.5035
G1 X-38.181 Y-15.559 E4.5329
G1 X-37.615 Y-15.559 E4.5435
G1 X-36.498 Y-14.442 E4.5729
G1 X-35.933 Y-14.442 E4.5834
G1 X-37.050 Y-15.559 E4.6129
G1 X-36.484 Y-15.559 E4.6234
G1 X-35.367 Y-14.442 E4.6528
G1 X-34.801 Y-14.442 E4.6633
G1 X-35.918 Y-15.559 E4.6928
G1 X-35.352 Y-15.559 E4.7033
G1 X-34.235 Y-14.442 E4.7327
G1 X-33.670 Y-14.442 E4.7433
G1 X-34.787 Y-15.559 E4.7727
G1 X-34.221 Y-15.559 E4.7832
G1 X-33.443 Y-14.780 E4.8037
G1 X-33.443 Y-15.346 E4.8143
G1 X-33.655 Y-15.559 E4.8199
G1 X-33.222 Y-14.560 F9000
G1 X-33.104 Y-14.442 E4.8230 F756
G1 X-32.562 Y-14.442 E4.8331
G1 X-32.562 Y-13.899 E4.8432
G1 X-32.444 Y-13.781 E4.8463
G1 X-32.444 Y-14.347 E4.8568
G1 X-32.656 Y-14.560 E4.8624
G1 X-32.223 Y-13.561 F9000
G1 X-31.445 Y-12.782 E4.8830 F756
G1 X-31.445 Y-13.348 E4.8935
G1 X-31.657 Y-13.561 E4.8991
G1 X-32.562 Y-13.333 F9000
G1 X-31.672 Y-12.444 E4.9225 F756
G1 X-32.237 Y-12.444 E4.9331
G1 X-32.562 Y-12.768 E4.9416
G1 E3.4416 F1200
G1 Z1.100 F2400
; inner perimeter
G1 X-33.305 Y-12.721 F9000
G1 X-33.305 Y-13.698 F9000
G1 X-38.692 Y-13.698 F9000
G1 X-38.692 Y-12.381 F9000
G1 X-43.100 Y-12.104 F9000
G1 Z0.100 F2400
G1 E4.9916 F1200
G1 X-44.898 Y-12.104 E5.0251 F1008
G1 X-44.898 Y-15.899 E5.0958
G1 X-43.100 Y-15.899 E5.1292
G1 X-43.100 Y-12.104 E5.1999
; outer perimeter
G1 X-45.298 Y-11.703 F9000
G1 X-45.297 Y-16.299 E5.2855 F756
G1 X-42.700 Y-16.299 E5.3339
G1 X-42.700 Y-11.704 E5.4195
G1 X-45.297 Y-11.704 E5.4678
; solid layer
G1 X-44.117 Y-12.443 F9000
G1 X-44.557 Y-12.884 E5.4794 F756
G1 X-44.557 Y-13.450 E5.4900
G1 X-43.551 Y-12.444 E5.5165
G1 X-43.441 Y-12.444 E5.5185
G1 X-43.441 Y-12.899 E5.5270
G1 X-44.557 Y-14.016 E5.5564
G1 X-44.557 Y-14.581 E5.5670
G1 X-43.441 Y-13.464 E5.5964
G1 X-43.441 Y-14.030 E5.6069
G1 X-44.557 Y-15.147 E5.6364
G1 X-44.557 Y-15.559 E5.6440
G1 X-44.403 Y-15.558 E5.6469
G1 X-43.441 Y-14.596 E5.6723
G1 X-43.441 Y-15.161 E5.6828
G1 X-43.838 Y-15.558 E5.6933
G1 E4.1933 F1200
G1 Z1.100 F2400
; inner perimeter
G1 X-52.896 Y-15.898 F9000
G1 Z0.100 F2400
G1 E5.7433 F1200
G1 X-51.099 Y-15.898 E5.7767 F1008
G1 X-51.099 Y-12.901 E5.8325
G1 X-50.100 Y-12.901 E5.8512
G1 X-50.100 Y-12.103 E5.8660
G1 X-52.896 Y-12.103 E5.9181
G1 X-52.896 Y-15.898 E5.9888
; outer perimeter
G1 X-50.695 Y-13.697 F9000
G1 X-50.695 Y-13.305 F9000
G1 X-50.303 Y-13.305 F9000
G1 X-49.696 Y-12.698 F9000
G1 X-49.696 Y-12.306 F9000
G1 X-49.304 Y-12.306 F9000
G1 X-48.701 Y-11.703 F9000
G1 X-53.296 Y-11.703 E6.0744 F756
G1 X-53.296 Y-16.298 E6.1600
G1 X-50.699 Y-16.298 E6.2083
G1 X-50.699 Y-13.301 E6.2641
G1 X-49.700 Y-13.301 E6.2827
G1 X-49.700 Y-12.302 E6.3014
G1 X-48.701 Y-12.302 E6.3200
G1 X-48.701 Y-11.703 E6.3311
; solid layer
G1 X-50.440 Y-12.544 F9000
G1 X-50.457 Y-12.561 E6.3316 F756
G1 X-52.036 Y-12.443 F9000
G1 X-52.556 Y-12.963 E6.3453 F756
G1 X-52.556 Y-13.529 E6.3558
G1 X-51.470 Y-12.443 E6.3844
G1 X-50.904 Y-12.443 E6.3949
G1 X-51.022 Y-12.561 E6.3980
G1 X-51.439 Y-12.561 E6.4058
G1 X-51.439 Y-12.978 E6.4136
G1 X-52.556 Y-14.095 E6.4430
G1 X-52.556 Y-14.660 E6.4535
G1 X-51.439 Y-13.543 E6.4829
G1 X-51.439 Y-14.109 E6.4935
G1 X-52.556 Y-15.226 E6.5229
G1 X-52.556 Y-15.558 E6.5291
G1 X-52.322 Y-15.558 E6.5334
G1 X-51.439 Y-14.675 E6.5567
G1 X-51.439 Y-15.240 E6.5672
G1 X-51.757 Y-15.558 E6.5756
G1 E5.0756 F1200
G1 Z1.100 F2400
; inner perimeter
G1 X-50.695 Y-14.292 F9000
G1 X-50.695 Y-13.305 F9000
G1 X-49.867 Y-13.305 F9000
G1 X-49.696 Y-13.101 F9000
G1 X-49.696 Y-12.306 F9000
G1 X-49.029 Y-12.306 F9000
G1 X-36.103 Y3.106 F9000
G1 Z0.100 F2400
G1 E6.6256 F1200
G1 X-36.103 Y3.904 E6.6405 F1008
G1 X-36.901 Y3.904 E6.6553
G1 X-36.901 Y3.106 E6.6702
G1 X-36.103 Y3.106 E6.6851
; outer perimeter
G1 X-37.301 Y2.706 F9000
G1 X-35.703 Y2.706 E6.7148 F756
G1 X-35.703 Y4.304 E6.7446
G1 X-37.301 Y4.304 E6.7744
G1 X-37.301 Y2.706 E6.8041
G1 E5.3041 F1200
G1 Z1.100 F2400
; inner perimeter
G1 X-37.305 Y2.712 F9000
G1 X-37.305 Y4.308 F9000
G1 X-38.869 Y5.134 F9000
G1 Z0.100 F2400
G1 E6.8541 F1200
G1 X-38.131 Y5.134 E6.8679 F1008
G1 X-38.131 Y5.872 E6.8816
G1 X-38.869 Y5.872 E6.8954
G1 X-38.869 Y5.134 E6.9091
; outer perimeter
G1 X-37.731 Y6.272 F9000
G1 X-39.269 Y6.272 E6.9378 F756
G1 X-39.269 Y4.734 E6.9664
G1 X-37.731 Y4.734 E6.9951
G1 X-37.731 Y6.272 E7.0237
G1 E5.5237 F1200
G1 Z1.100 F2400
; inner perimeter
G1 X-37.742 Y6.276 F9000
G1 X-39.273 Y6.276 F9000
G1 X-40.099 Y7.102 F9000
G1 Z0.100 F2400
G1 E7.0737 F1200
G1 X-40.099 Y7.900 E7.0886 F1008
G1 X-40.897 Y7.900 E7.1034
G1 X-40.897 Y7.102 E7.1183
G1 X-40.099 Y7.102 E7.1332
; outer perimeter
G1 X-41.297 Y6.702 F9000
G1 X-39.699 Y6.702 E7.1629 F756
G1 X-39.699 Y8.300 E7.1927
G1 X-41.297 Y8.300 E7.2224
G1 X-41.297 Y6.702 E7.2522
; solid layer
G1 X-40.557 Y7.522 F9000
G1 X-40.518 Y7.560 E7.2532 F756
G1 E5.7532 F1200
G1 Z1.100 F2400
; inner perimeter
G1 X-42.127 Y9.130 F9000
