; G-Code generated by Simplify3D(R) Version 4.0.0
; Sep 10, 2017 at 9:32:27 AM
; Settings Summary
;   processName,Process1
;   applyToModels,CANECO-Logo_azul_escuro
;   profileName,BEEVERYCREATIVE BEETHEFIRST (modified)
;   profileVersion,2017-09-06 17:01:25
;   baseProfile,
;   printMaterial,
;   printQuality,
;   printExtruders,
;   extruderName,Primary Extruder
;   extruderToolheadNumber,0
;   extruderDiameter,0.4
;   extruderAutoWidth,0
;   extruderWidth,0.4
;   extrusionMultiplier,1.1
;   extruderUseRetract,1
;   extruderRetractionDistance,1.5
;   extruderExtraRestartDistance,0.05
;   extruderRetractionZLift,0.5
;   extruderRetractionSpeed,1200
;   extruderUseCoasting,0
;   extruderCoastingDistance,0.1
;   extruderUseWipe,0
;   extruderWipeDistance,1
;   primaryExtruder,0
;   layerHeight,0.15
;   topSolidLayers,4
;   bottomSolidLayers,4
;   perimeterOutlines,2
;   printPerimetersInsideOut,1
;   startPointOption,1
;   startPointOriginX,0
;   startPointOriginY,0
;   sequentialIslands,0
;   spiralVaseMode,0
;   firstLayerHeightPercentage,100
;   firstLayerWidthPercentage,100
;   firstLayerUnderspeed,0.8
;   useRaft,0
;   raftExtruder,0
;   raftTopLayers,4
;   raftBaseLayers,2
;   raftOffset,10
;   raftSeparationDistance,0.2
;   raftTopInfill,100
;   aboveRaftSpeedMultiplier,0.3
;   useSkirt,0
;   skirtExtruder,0
;   skirtLayers,1
;   skirtOutlines,10
;   skirtOffset,0
;   usePrimePillar,0
;   primePillarExtruder,999
;   primePillarWidth,12
;   primePillarLocation,7
;   primePillarSpeedMultiplier,1
;   useOozeShield,0
;   oozeShieldExtruder,999
;   oozeShieldOffset,2
;   oozeShieldOutlines,1
;   oozeShieldSidewallShape,1
;   oozeShieldSidewallAngle,30
;   oozeShieldSpeedMultiplier,1
;   infillExtruder,0
;   internalInfillPattern,Triangular
;   externalInfillPattern,Rectilinear
;   infillPercentage,10
;   outlineOverlapPercentage,15
;   infillExtrusionWidthPercentage,100
;   minInfillLength,5
;   infillLayerInterval,1
;   internalInfillAngles,0,60,-60
;   overlapInternalInfillAngles,1
;   externalInfillAngles,45,-45
;   generateSupport,1
;   supportExtruder,0
;   supportInfillPercentage,10
;   supportExtraInflation,0
;   supportBaseLayers,0
;   denseSupportExtruder,0
;   denseSupportLayers,2
;   denseSupportInfillPercentage,80
;   supportLayerInterval,1
;   supportHorizontalPartOffset,0.25
;   supportUpperSeparationLayers,2
;   supportLowerSeparationLayers,2
;   supportType,0
;   supportGridSpacing,1
;   maxOverhangAngle,60
;   supportAngles,45
;   temperatureName,Primary Extruder Temperature
;   temperatureNumber,0
;   temperatureSetpointCount,1
;   temperatureSetpointLayers,1
;   temperatureSetpointTemperatures,230
;   temperatureStabilizeAtStartup,1
;   temperatureHeatedBed,0
;   temperatureRelayBetweenLayers,0
;   temperatureRelayBetweenLoops,0
;   fanLayers,1,2
;   fanSpeeds,0,30
;   blipFanToFullPower,0
;   adjustSpeedForCooling,0
;   minSpeedLayerTime,15
;   minCoolingSpeedSlowdown,50
;   increaseFanForCooling,0
;   minFanLayerTime,45
;   maxCoolingFanSpeed,90
;   increaseFanForBridging,0
;   bridgingFanSpeed,100
;   use5D,1
;   relativeEdistances,0
;   allowEaxisZeroing,0
;   independentExtruderAxes,0
;   includeM10123,0
;   stickySupport,1
;   applyToolheadOffsets,0
;   gcodeXoffset,0
;   gcodeYoffset,0
;   gcodeZoffset,0
;   overrideMachineDefinition,1
;   machineTypeOverride,0
;   strokeXoverride,190
;   strokeYoverride,135
;   strokeZoverride,125
;   originOffsetXoverride,95
;   originOffsetYoverride,67.5
;   originOffsetZoverride,0
;   homeXdirOverride,-1
;   homeYdirOverride,-1
;   homeZdirOverride,-1
;   flipXoverride,1
;   flipYoverride,-1
;   flipZoverride,1
;   toolheadOffsets,0,0|0,0|0,0|0,0|0,0|0,0
;   overrideFirmwareConfiguration,0
;   firmwareTypeOverride,RepRap (Marlin/Repetier/Sprinter)
;   GPXconfigOverride,r2
;   baudRateOverride,115200
;   overridePrinterModels,0
;   printerModelsOverride
;   startingGcode,M300,G28,M206 X500,M107,M104 S[extruder0_temperature],G92 E,M642 W1,M130 T6 U1.3 V80,G1 X-98.0 Y-20.0 Z5.0 F3000,G1 Y-68.0 Z0.3,G1 X-98.0 Y0.0 F500 E20,G92 E
;   layerChangeGcode,
;   retractionGcode,
;   toolChangeGcode,
;   endingGcode,M300,M104 S0,G28 X,G28 Z,G1 Y65,M107,M641 A1
;   exportFileFormat,gcode
;   celebration,0
;   celebrationSong,Random Song
;   postProcessing,
;   defaultSpeed,3000
;   outlineUnderspeed,0.6
;   solidInfillUnderspeed,0.6
;   supportUnderspeed,0.6
;   rapidXYspeed,5400
;   rapidZspeed,2400
;   minBridgingArea,5
;   bridgingExtraInflation,0
;   bridgingExtrusionMultiplier,1.1
;   bridgingSpeedMultiplier,0.6
;   useFixedBridgingAngle,0
;   fixedBridgingAngle,0
;   applyBridgingToPerimeters,0
;   filamentDiameters,1.75|1.75|1.75|1.75|1.75|1.75
;   filamentPricesPerKg,46|46|46|46|46|46
;   filamentDensities,1.25|1.25|1.25|1.25|1.25|1.25
;   useMinPrintHeight,0
;   minPrintHeight,0
;   useMaxPrintHeight,0
;   maxPrintHeight,2
;   useDiaphragm,0
;   diaphragmLayerInterval,20
;   robustSlicing,0
;   mergeAllIntoSolid,0
;   onlyRetractWhenCrossingOutline,1
;   retractBetweenLayers,1
;   useRetractionMinTravel,0
;   retractionMinTravel,1
;   retractWhileWiping,1
;   onlyWipeOutlines,0
;   avoidCrossingOutline,1
;   maxMovementDetourFactor,3
;   toolChangeRetractionDistance,12
;   toolChangeExtraRestartDistance,-0.5
;   toolChangeRetractionSpeed,600
;   externalThinWallType,1
;   internalThinWallType,2
;   thinWallAllowedOverlapPercentage,50
;   singleExtrusionMinLength,1
;   singleExtrusionMinPrintingWidthPercentage,50
;   singleExtrusionMaxPrintingWidthPercentage,200
;   singleExtrusionEndpointExtension,0.2
;   horizontalSizeCompensation,0
G90
M82
M106 S0
M300
G28
M206 X500
M107
M104 S230
G92 E
M642 W1
M130 T6 U1.3 V80
G1 X-98.0 Y-20.0 Z5.0 F3000
G1 Y-68.0 Z0.3
G1 X-98.0 Y0.0 F500 E20
G92 E
G1 E-1.5000 F1200
G1 Z0.650 F2400
; process Process1
; layer 1, Z = 0.150
T0
; tool H0.150 W0.400
; inner perimeter
G1 X4.901 Y-10.901 F5400
G1 Z0.150 F2400
G1 E0.0500 F360
G1 X4.901 Y-4.103 E0.2365 F1920
G1 X3.901 Y-4.103 E0.2640
G1 X3.901 Y-3.103 E0.2914
G1 X2.901 Y-3.103 E0.3189
G1 X2.901 Y-2.103 E0.3463
G1 X-2.899 Y-2.103 E0.5054
G1 X-2.899 Y-3.103 E0.5329
G1 X-3.899 Y-3.103 E0.5603
G1 X-3.899 Y-4.103 E0.5878
G1 X-4.901 Y-4.103 E0.6153
G1 X-4.901 Y-10.901 E0.8018
G1 X-3.099 Y-10.901 E0.8512
G1 X-3.099 Y-9.903 E0.8786
G1 X3.101 Y-9.903 E1.0487
G1 X3.101 Y-10.901 E1.0761
G1 X4.901 Y-10.901 E1.1255
; outer perimeter
G1 X5.301 Y-3.703 F5400
G1 X4.301 Y-3.703 E1.1530 F1440
G1 X4.301 Y-2.703 E1.1804
G1 X3.301 Y-2.703 E1.2078
G1 X3.301 Y-1.703 E1.2353
G1 X-3.299 Y-1.703 E1.4164
G1 X-3.299 Y-2.703 E1.4438
G1 X-4.299 Y-2.703 E1.4713
G1 X-4.299 Y-3.703 E1.4987
G1 X-5.301 Y-3.703 E1.5262
G1 X-5.301 Y-11.301 E1.7347
G1 X-2.699 Y-11.301 E1.8061
G1 X-2.699 Y-10.303 E1.8335
G1 X2.701 Y-10.303 E1.9816
G1 X2.701 Y-11.301 E2.0090
G1 X5.301 Y-11.301 E2.0804
G1 X5.301 Y-3.703 E2.2889
; inner perimeter
G1 X2.697 Y-5.066 F5400
G1 X2.697 Y-7.697 F5400
G1 X-2.327 Y-7.697 F5400
G1 X-3.099 Y-8.101 F5400
G1 X-3.099 Y-3.901 E2.4041 F1920
G1 X3.101 Y-3.901 E2.5742
G1 X3.101 Y-8.101 E2.6895
G1 X-3.099 Y-8.101 E2.8596
; outer perimeter
G1 X-2.482 Y-7.697 F5400
G1 X-2.695 Y-7.697 F5400
G1 X-2.695 Y-4.305 F5400
G1 X2.695 Y-4.305 F5400
G1 X2.701 Y-4.301 F5400
G1 X2.701 Y-7.701 E2.9529 F1440
G1 X-2.699 Y-7.701 E3.1011
G1 X-2.699 Y-4.301 E3.1944
G1 X2.701 Y-4.301 E3.3425
; solid layer
G1 X3.441 Y-8.202 F5400
G1 X4.561 Y-7.082 E3.3860 F1440
G1 X4.561 Y-6.517 E3.4015
G1 X3.441 Y-7.637 E3.4450
G1 X3.441 Y-7.071 E3.4605
G1 X4.561 Y-5.951 E3.5040
G1 X4.561 Y-5.385 E3.5195
G1 X3.441 Y-6.505 E3.5629
G1 X3.441 Y-5.939 E3.5785
G1 X4.561 Y-4.819 E3.6219
G1 X4.561 Y-4.443 E3.6323
G1 X4.372 Y-4.443 E3.6375
G1 X3.441 Y-5.374 E3.6736
G1 X3.441 Y-4.808 E3.6891
G1 X3.806 Y-4.443 E3.7033
G1 X3.561 Y-4.443 E3.7100
G1 X3.561 Y-4.122 E3.7188
G1 X3.441 Y-4.242 E3.7234
G1 X3.441 Y-3.677 E3.7390
G1 X3.561 Y-3.557 E3.7436
G1 X3.561 Y-3.443 E3.7467
G1 X3.109 Y-3.443 E3.7591
G1 X2.991 Y-3.561 E3.7637
G1 X2.425 Y-3.561 E3.7792
G1 X2.561 Y-3.425 E3.7845
G1 X2.561 Y-2.860 E3.8000
G1 X1.860 Y-3.561 E3.8272
G1 X1.294 Y-3.561 E3.8428
G1 X2.412 Y-2.443 E3.8862
G1 X1.846 Y-2.443 E3.9017
G1 X0.728 Y-3.561 E3.9451
G1 X0.163 Y-3.561 E3.9606
G1 X1.281 Y-2.443 E4.0040
G1 X0.715 Y-2.443 E4.0195
G1 X-0.403 Y-3.561 E4.0629
G1 X-0.969 Y-3.561 E4.0784
G1 X0.149 Y-2.443 E4.1218
G1 X-0.416 Y-2.443 E4.1373
G1 X-1.534 Y-3.561 E4.1807
G1 X-2.100 Y-3.561 E4.1962
G1 X-0.982 Y-2.443 E4.2396
G1 X-1.548 Y-2.443 E4.2551
G1 X-2.666 Y-3.561 E4.2985
G1 X-3.232 Y-3.561 E4.3140
G1 X-3.114 Y-3.443 E4.3186
G1 X-3.559 Y-3.443 E4.3308
G1 X-3.559 Y-3.888 E4.3430
G1 X-3.439 Y-3.768 E4.3477
G1 X-3.439 Y-4.334 E4.3632
G1 X-4.561 Y-5.456 E4.4068
G1 X-4.561 Y-6.022 E4.4223
G1 X-3.439 Y-4.900 E4.4658
G1 X-3.439 Y-5.466 E4.4813
G1 X-4.561 Y-6.588 E4.5249
G1 X-4.561 Y-7.153 E4.5404
G1 X-3.439 Y-6.031 E4.5839
G1 X-3.439 Y-6.597 E4.5995
G1 X-4.561 Y-7.719 E4.6430
G1 X-4.561 Y-8.285 E4.6585
G1 X-3.439 Y-7.163 E4.7021
G1 X-3.439 Y-7.728 E4.7176
G1 X-4.561 Y-8.850 E4.7611
G1 X-4.561 Y-9.416 E4.7767
G1 X-3.439 Y-8.294 E4.8202
G1 X-3.439 Y-8.441 E4.8242
G1 X-3.020 Y-8.441 E4.8357
G1 X-4.561 Y-9.982 E4.8955
G1 X-4.561 Y-10.547 E4.9110
G1 X-2.455 Y-8.441 E4.9928
G1 X-3.439 Y-10.557 F5400
G1 X-3.443 Y-10.561 E4.9929 F1440
G1 X-4.009 Y-10.561 E5.0084
G1 X-3.439 Y-9.991 E5.0306
G1 X-3.439 Y-9.563 E5.0423
G1 X-3.011 Y-9.563 E5.0541
G1 X-1.889 Y-8.441 E5.0976
G1 X-1.323 Y-8.441 E5.1131
G1 X-2.445 Y-9.563 E5.1567
G1 X-1.880 Y-9.563 E5.1722
G1 X-0.758 Y-8.441 E5.2157
G1 X-0.192 Y-8.441 E5.2312
G1 X-1.314 Y-9.563 E5.2748
G1 X-0.748 Y-9.563 E5.2903
G1 X0.374 Y-8.441 E5.3338
G1 X0.939 Y-8.441 E5.3494
G1 X-0.183 Y-9.563 E5.3929
G1 X0.383 Y-9.563 E5.4084
G1 X1.505 Y-8.441 E5.4520
G1 X2.071 Y-8.441 E5.4675
G1 X0.949 Y-9.563 E5.5110
G1 X1.514 Y-9.563 E5.5266
G1 X2.636 Y-8.441 E5.5701
G1 X3.202 Y-8.441 E5.5856
G1 X2.080 Y-9.563 E5.6292
G1 X2.646 Y-9.563 E5.6447
G1 X4.561 Y-7.648 E5.7190
G1 X4.561 Y-8.214 E5.7345
G1 X3.212 Y-9.563 E5.7869
G1 X3.441 Y-9.563 E5.7932
G1 X3.441 Y-9.899 E5.8024
G1 X4.561 Y-8.779 E5.8459
G1 X4.561 Y-9.345 E5.8614
G1 X3.441 Y-10.465 E5.9049
G1 X3.441 Y-10.561 E5.9075
G1 X3.911 Y-10.561 E5.9204
G1 X4.561 Y-9.911 E5.9456
G1 X4.561 Y-10.476 E5.9611
G1 X4.476 Y-10.561 E5.9644
G1 X1.850 Y-7.697 F5400
G1 X2.697 Y-7.697 F5400
G1 X2.697 Y-4.305 F5400
G1 X-1.260 Y-4.305 F5400
G1 X-2.559 Y-2.888 F5400
G1 X-2.114 Y-2.443 E5.9817 F1440
G1 X-4.114 Y-4.443 F5400
G1 X-4.561 Y-4.890 E5.9991 F1440
G1 E4.4991 F1200
G1 Z0.650 F2400
; inner perimeter
G1 X-11.099 Y-3.901 F5400
G1 Z0.150 F2400
G1 E6.0491 F1200
G1 X-7.101 Y-3.901 E6.1588 F1920
G1 X-7.101 Y-2.103 E6.2081
G1 X-16.899 Y-2.103 E6.4770
G1 X-16.899 Y-3.901 E6.5263
G1 X-12.901 Y-3.901 E6.6360
G1 X-12.901 Y-10.901 E6.8281
G1 X-11.099 Y-10.901 E6.8775
G1 X-11.099 Y-3.901 E7.0696
; outer perimeter
G1 X-6.701 Y-4.301 F5400
G1 X-6.701 Y-1.703 E7.1409 F1440
G1 X-17.299 Y-1.703 E7.4317
G1 X-17.299 Y-4.301 E7.5030
G1 X-13.301 Y-4.301 E7.6127
G1 X-13.301 Y-11.301 E7.8048
G1 X-10.699 Y-11.301 E7.8762
G1 X-10.699 Y-4.301 E8.0682
G1 X-6.701 Y-4.301 E8.1779
; solid layer
G1 X-7.757 Y-3.561 F5400
G1 X-7.441 Y-3.245 E8.1902 F1440
G1 X-7.441 Y-2.679 E8.2057
G1 X-8.323 Y-3.561 E8.2399
G1 X-8.888 Y-3.561 E8.2555
G1 X-7.770 Y-2.443 E8.2989
G1 X-8.336 Y-2.443 E8.3144
G1 X-9.454 Y-3.561 E8.3578
G1 X-10.020 Y-3.561 E8.3733
G1 X-8.902 Y-2.443 E8.4167
G1 X-9.467 Y-2.443 E8.4322
G1 X-10.585 Y-3.561 E8.4756
G1 X-11.151 Y-3.561 E8.4911
G1 X-10.033 Y-2.443 E8.5345
G1 X-16.256 Y-2.443 F5400
G1 X-16.559 Y-2.746 E8.5462 F1440
G1 X-16.559 Y-3.312 E8.5618
G1 X-15.690 Y-2.443 E8.5955
G1 X-15.124 Y-2.443 E8.6110
G1 X-16.242 Y-3.561 E8.6544
G1 X-15.677 Y-3.561 E8.6699
G1 X-14.559 Y-2.443 E8.7133
G1 X-13.993 Y-2.443 E8.7288
G1 X-15.111 Y-3.561 E8.7722
G1 X-14.545 Y-3.561 E8.7877
G1 X-13.427 Y-2.443 E8.8311
G1 X-12.862 Y-2.443 E8.8466
G1 X-13.980 Y-3.561 E8.8900
G1 X-13.414 Y-3.561 E8.9055
G1 X-12.296 Y-2.443 E8.9489
G1 X-11.730 Y-2.443 E8.9645
G1 X-12.848 Y-3.561 E9.0078
G1 X-12.561 Y-3.561 E9.0157
G1 X-12.561 Y-3.840 E9.0234
G1 X-11.165 Y-2.443 E9.0776
G1 X-10.599 Y-2.443 E9.0931
G1 X-12.561 Y-4.405 E9.1692
G1 X-12.561 Y-4.971 E9.1847
G1 X-11.439 Y-3.849 E9.2283
G1 X-11.439 Y-4.415 E9.2438
G1 X-12.561 Y-5.537 E9.2873
G1 X-12.561 Y-6.102 E9.3029
G1 X-11.439 Y-4.980 E9.3464
G1 X-11.439 Y-5.546 E9.3619
G1 X-12.561 Y-6.668 E9.4055
G1 X-12.561 Y-7.234 E9.4210
G1 X-11.439 Y-6.112 E9.4645
G1 X-11.439 Y-6.677 E9.4800
G1 X-12.561 Y-7.799 E9.5236
G1 X-12.561 Y-8.365 E9.5391
G1 X-11.439 Y-7.243 E9.5826
G1 X-11.439 Y-7.809 E9.5982
G1 X-12.561 Y-8.931 E9.6417
G1 X-12.561 Y-9.496 E9.6572
G1 X-11.439 Y-8.374 E9.7008
G1 X-11.439 Y-8.940 E9.7163
G1 X-12.561 Y-10.062 E9.7598
G1 X-12.561 Y-10.561 E9.7735
G1 X-12.494 Y-10.561 E9.7754
G1 X-11.439 Y-9.506 E9.8163
G1 X-11.439 Y-10.071 E9.8318
G1 X-11.929 Y-10.561 E9.8508
G1 E8.3508 F1200
G1 Z0.650 F2400
; inner perimeter
G1 X-19.099 Y-10.901 F5400
G1 Z0.150 F2400
G1 E9.9008 F1200
G1 X-19.099 Y-2.103 E10.1422 F1920
G1 X-20.901 Y-2.103 E10.1917
G1 X-20.901 Y-8.101 E10.3563
G1 X-27.099 Y-8.101 E10.5263
G1 X-27.099 Y-2.103 E10.6909
G1 X-28.901 Y-2.103 E10.7404
G1 X-28.901 Y-10.901 E10.9818
G1 X-27.099 Y-10.901 E11.0312
G1 X-27.099 Y-9.903 E11.0586
G1 X-20.901 Y-9.903 E11.2287
G1 X-20.901 Y-10.901 E11.2561
G1 X-19.099 Y-10.901 E11.3055
; outer perimeter
G1 X-21.305 Y-11.017 F5400
G1 X-21.305 Y-10.307 F5400
G1 X-26.695 Y-10.307 F5400
G1 X-26.695 Y-11.301 F5400
G1 X-26.699 Y-11.301 F5400
G1 X-26.699 Y-10.303 E11.3329 F1440
G1 X-21.301 Y-10.303 E11.4810
G1 X-21.301 Y-11.301 E11.5084
G1 X-18.699 Y-11.301 E11.5798
G1 X-18.699 Y-1.703 E11.8432
G1 X-21.301 Y-1.703 E11.9146
G1 X-21.301 Y-7.701 E12.0792
G1 X-26.699 Y-7.701 E12.2273
G1 X-26.699 Y-1.703 E12.3919
G1 X-29.301 Y-1.703 E12.4633
G1 X-29.301 Y-11.301 E12.7266
G1 X-26.699 Y-11.301 E12.7980
; solid layer
G1 X-27.439 Y-10.232 F5400
G1 X-27.768 Y-10.561 E12.8108 F1440
G1 X-28.333 Y-10.561 E12.8263
G1 X-27.439 Y-9.667 E12.8610
G1 X-27.439 Y-9.563 E12.8638
G1 X-27.335 Y-9.563 E12.8667
G1 X-26.213 Y-8.441 E12.9102
G1 X-25.648 Y-8.441 E12.9257
G1 X-26.770 Y-9.563 E12.9693
G1 X-26.204 Y-9.563 E12.9848
G1 X-25.082 Y-8.441 E13.0284
G1 X-24.516 Y-8.441 E13.0439
G1 X-25.638 Y-9.563 E13.0874
G1 X-25.073 Y-9.563 E13.1029
G1 X-23.951 Y-8.441 E13.1465
G1 X-23.385 Y-8.441 E13.1620
G1 X-24.507 Y-9.563 E13.2055
G1 X-23.941 Y-9.563 E13.2211
G1 X-22.819 Y-8.441 E13.2646
G1 X-22.254 Y-8.441 E13.2801
G1 X-23.376 Y-9.563 E13.3237
G1 X-22.810 Y-9.563 E13.3392
G1 X-21.688 Y-8.441 E13.3827
G1 X-21.122 Y-8.441 E13.3982
G1 X-22.244 Y-9.563 E13.4418
G1 X-21.679 Y-9.563 E13.4573
G1 X-19.439 Y-7.323 E13.5442
G1 X-19.439 Y-7.889 E13.5597
G1 X-21.113 Y-9.563 E13.6247
G1 X-20.561 Y-9.563 E13.6398
G1 X-20.561 Y-9.577 E13.6402
G1 X-19.439 Y-8.455 E13.6838
G1 X-19.439 Y-9.020 E13.6993
G1 X-20.561 Y-10.142 E13.7428
G1 X-20.561 Y-10.561 E13.7543
G1 X-20.414 Y-10.561 E13.7583
G1 X-19.439 Y-9.586 E13.7962
G1 X-19.439 Y-10.152 E13.8117
G1 X-19.848 Y-10.561 E13.8276
G1 X-20.561 Y-7.880 F5400
G1 X-19.439 Y-6.758 E13.8711 F1440
G1 X-19.439 Y-6.192 E13.8866
G1 X-20.561 Y-7.314 E13.9302
G1 X-20.561 Y-6.748 E13.9457
G1 X-19.439 Y-5.626 E13.9892
G1 X-19.439 Y-5.061 E14.0048
G1 X-20.561 Y-6.183 E14.0483
G1 X-20.561 Y-5.617 E14.0638
G1 X-19.439 Y-4.495 E14.1074
G1 X-19.439 Y-3.929 E14.1229
G1 X-20.561 Y-5.051 E14.1664
G1 X-20.561 Y-4.486 E14.1819
G1 X-19.439 Y-3.364 E14.2255
G1 X-19.439 Y-2.798 E14.2410
G1 X-20.561 Y-3.920 E14.2845
G1 X-20.561 Y-3.354 E14.3001
G1 X-19.650 Y-2.443 E14.3354
G1 X-20.215 Y-2.443 E14.3510
G1 X-20.561 Y-2.789 E14.3644
G1 X-21.305 Y-2.796 F5400
G1 X-21.305 Y-7.697 F5400
G1 X-26.695 Y-7.697 F5400
G1 X-26.695 Y-2.850 F5400
G1 X-28.561 Y-2.869 F5400
G1 X-28.135 Y-2.443 E14.3809 F1440
G1 X-27.569 Y-2.443 E14.3964
G1 X-28.561 Y-3.435 E14.4349
G1 X-28.561 Y-4.000 E14.4504
G1 X-27.439 Y-2.878 E14.4940
G1 X-27.439 Y-3.444 E14.5095
G1 X-28.561 Y-4.566 E14.5530
G1 X-28.561 Y-5.132 E14.5685
G1 X-27.439 Y-4.010 E14.6121
G1 X-27.439 Y-4.575 E14.6276
G1 X-28.561 Y-5.697 E14.6711
G1 X-28.561 Y-6.263 E14.6867
