; G-Code generated by Simplify3D(R) Version 4.0.0
; Sep 10, 2017 at 3:17:14 PM
; Settings Summary
;   processName,Process1
;   applyToModels,CANECO-Logo_Base_white
;   profileName,BEEVERYCREATIVE BEETHEFIRST (modified)
;   profileVersion,2017-09-06 17:01:25
;   baseProfile,
;   printMaterial,
;   printQuality,
;   printExtruders,
;   extruderName,Primary Extruder
;   extruderToolheadNumber,0
;   extruderDiameter,0.4
;   extruderAutoWidth,0
;   extruderWidth,0.4
;   extrusionMultiplier,1.1
;   extruderUseRetract,1
;   extruderRetractionDistance,1.5
;   extruderExtraRestartDistance,0.05
;   extruderRetractionZLift,0.5
;   extruderRetractionSpeed,1200
;   extruderUseCoasting,0
;   extruderCoastingDistance,0.1
;   extruderUseWipe,0
;   extruderWipeDistance,1
;   primaryExtruder,0
;   layerHeight,0.2
;   topSolidLayers,4
;   bottomSolidLayers,4
;   perimeterOutlines,2
;   printPerimetersInsideOut,1
;   startPointOption,1
;   startPointOriginX,0
;   startPointOriginY,0
;   sequentialIslands,0
;   spiralVaseMode,0
;   firstLayerHeightPercentage,100
;   firstLayerWidthPercentage,100
;   firstLayerUnderspeed,0.8
;   useRaft,0
;   raftExtruder,0
;   raftTopLayers,4
;   raftBaseLayers,2
;   raftOffset,10
;   raftSeparationDistance,0.2
;   raftTopInfill,100
;   aboveRaftSpeedMultiplier,0.3
;   useSkirt,0
;   skirtExtruder,0
;   skirtLayers,1
;   skirtOutlines,10
;   skirtOffset,0
;   usePrimePillar,0
;   primePillarExtruder,999
;   primePillarWidth,12
;   primePillarLocation,7
;   primePillarSpeedMultiplier,1
;   useOozeShield,0
;   oozeShieldExtruder,999
;   oozeShieldOffset,2
;   oozeShieldOutlines,1
;   oozeShieldSidewallShape,1
;   oozeShieldSidewallAngle,30
;   oozeShieldSpeedMultiplier,1
;   infillExtruder,0
;   internalInfillPattern,Fast Honeycomb
;   externalInfillPattern,Rectilinear
;   infillPercentage,10
;   outlineOverlapPercentage,15
;   infillExtrusionWidthPercentage,100
;   minInfillLength,5
;   infillLayerInterval,1
;   internalInfillAngles,0
;   overlapInternalInfillAngles,0
;   externalInfillAngles,45,-45
;   generateSupport,1
;   supportExtruder,0
;   supportInfillPercentage,10
;   supportExtraInflation,0
;   supportBaseLayers,0
;   denseSupportExtruder,0
;   denseSupportLayers,2
;   denseSupportInfillPercentage,80
;   supportLayerInterval,1
;   supportHorizontalPartOffset,0.25
;   supportUpperSeparationLayers,2
;   supportLowerSeparationLayers,2
;   supportType,0
;   supportGridSpacing,1
;   maxOverhangAngle,60
;   supportAngles,45
;   temperatureName,Primary Extruder Temperature
;   temperatureNumber,0
;   temperatureSetpointCount,1
;   temperatureSetpointLayers,1
;   temperatureSetpointTemperatures,215
;   temperatureStabilizeAtStartup,1
;   temperatureHeatedBed,0
;   temperatureRelayBetweenLayers,0
;   temperatureRelayBetweenLoops,0
;   fanLayers,1,2
;   fanSpeeds,0,100
;   blipFanToFullPower,0
;   adjustSpeedForCooling,0
;   minSpeedLayerTime,15
;   minCoolingSpeedSlowdown,50
;   increaseFanForCooling,0
;   minFanLayerTime,45
;   maxCoolingFanSpeed,90
;   increaseFanForBridging,0
;   bridgingFanSpeed,100
;   use5D,1
;   relativeEdistances,0
;   allowEaxisZeroing,0
;   independentExtruderAxes,0
;   includeM10123,0
;   stickySupport,1
;   applyToolheadOffsets,0
;   gcodeXoffset,0
;   gcodeYoffset,0
;   gcodeZoffset,0
;   overrideMachineDefinition,1
;   machineTypeOverride,0
;   strokeXoverride,190
;   strokeYoverride,135
;   strokeZoverride,125
;   originOffsetXoverride,95
;   originOffsetYoverride,67.5
;   originOffsetZoverride,0
;   homeXdirOverride,-1
;   homeYdirOverride,-1
;   homeZdirOverride,-1
;   flipXoverride,1
;   flipYoverride,-1
;   flipZoverride,1
;   toolheadOffsets,0,0|0,0|0,0|0,0|0,0|0,0
;   overrideFirmwareConfiguration,0
;   firmwareTypeOverride,RepRap (Marlin/Repetier/Sprinter)
;   GPXconfigOverride,r2
;   baudRateOverride,115200
;   overridePrinterModels,0
;   printerModelsOverride
;   startingGcode,M300,G28,M206 X500,M107,M104 S[extruder0_temperature],G92 E,M642 W1,M130 T6 U1.3 V80,G1 X-98.0 Y-20.0 Z5.0 F3000,G1 Y-68.0 Z0.3,G1 X-98.0 Y0.0 F500 E20,G92 E
;   layerChangeGcode,
;   retractionGcode,
;   toolChangeGcode,
;   endingGcode,M300,M104 S0,G28 X,G28 Z,G1 Y65,M107,M641 A1
;   exportFileFormat,gcode
;   celebration,0
;   celebrationSong,Random Song
;   postProcessing,
;   defaultSpeed,3000
;   outlineUnderspeed,0.6
;   solidInfillUnderspeed,0.6
;   supportUnderspeed,0.6
;   rapidXYspeed,4800
;   rapidZspeed,2400
;   minBridgingArea,5
;   bridgingExtraInflation,0
;   bridgingExtrusionMultiplier,1.1
;   bridgingSpeedMultiplier,0.6
;   useFixedBridgingAngle,0
;   fixedBridgingAngle,0
;   applyBridgingToPerimeters,0
;   filamentDiameters,1.75|1.75|1.75|1.75|1.75|1.75
;   filamentPricesPerKg,46|46|46|46|46|46
;   filamentDensities,1.25|1.25|1.25|1.25|1.25|1.25
;   useMinPrintHeight,0
;   minPrintHeight,0
;   useMaxPrintHeight,0
;   maxPrintHeight,2
;   useDiaphragm,0
;   diaphragmLayerInterval,20
;   robustSlicing,0
;   mergeAllIntoSolid,0
;   onlyRetractWhenCrossingOutline,1
;   retractBetweenLayers,1
;   useRetractionMinTravel,0
;   retractionMinTravel,1
;   retractWhileWiping,1
;   onlyWipeOutlines,0
;   avoidCrossingOutline,1
;   maxMovementDetourFactor,3
;   toolChangeRetractionDistance,12
;   toolChangeExtraRestartDistance,-0.5
;   toolChangeRetractionSpeed,600
;   externalThinWallType,1
;   internalThinWallType,2
;   thinWallAllowedOverlapPercentage,50
;   singleExtrusionMinLength,1
;   singleExtrusionMinPrintingWidthPercentage,50
;   singleExtrusionMaxPrintingWidthPercentage,200
;   singleExtrusionEndpointExtension,0.2
;   horizontalSizeCompensation,0
G90
M82
M106 S0
M300
G28
M206 X500
M107
M104 S215
G92 E
M642 W1
M130 T6 U1.3 V80
G1 X-98.0 Y-20.0 Z5.0 F3000
G1 Y-68.0 Z0.3
G1 X-98.0 Y0.0 F500 E20
G92 E
G1 E-1.5000 F1200
G1 Z0.700 F2400
; process Process1
; layer 1, Z = 0.200
T0
; tool H0.200 W0.400
; outer perimeter
G1 X56.299 Y-18.299 F4800
G1 Z0.200 F2400
G1 E0.0500 F360
G1 X56.299 Y0.299 E0.7304 F1440
G1 X55.599 Y0.299 E0.7560
G1 X55.599 Y-18.299 E1.4365
G1 X56.299 Y-18.299 E1.4621
G1 E-0.0379 F1200
G1 Z0.700 F2400
G1 X55.299 Y-18.699 F4800
G1 Z0.200 F2400
G1 E1.5121 F1200
G1 X-55.299 Y-18.699 E5.5584 F1440
G1 X-55.299 Y-19.299 E5.5804
G1 X55.299 Y-19.299 E9.6267
G1 X55.299 Y-18.699 E9.6487
G1 E8.1487 F1200
G1 Z0.700 F2400
G1 X55.299 Y0.699 F4800
G1 Z0.200 F2400
G1 E9.6987 F1200
G1 X55.299 Y1.299 E9.7206 F1440
G1 X43.299 Y1.299 E10.1597
G1 X43.299 Y2.301 E10.1963
G1 X42.699 Y2.301 E10.2183
G1 X42.699 Y1.299 E10.2549
G1 X40.699 Y1.299 E10.3281
G1 X40.699 Y0.699 E10.3501
G1 X55.299 Y0.699 E10.8842
G1 E9.3842 F1200
G1 Z0.700 F2400
G1 X48.299 Y6.699 F4800
G1 Z0.200 F2400
G1 E10.9342 F1200
G1 X48.299 Y12.299 E11.1391 F1440
G1 X47.599 Y12.299 E11.1647
G1 X47.599 Y6.699 E11.3696
G1 X48.299 Y6.699 E11.3952
G1 E9.8952 F1200
G1 Z0.700 F2400
G1 X47.299 Y6.299 F4800
G1 Z0.200 F2400
G1 E11.4452 F1200
G1 X45.597 Y6.299 E11.5075 F1440
G1 X45.597 Y4.701 E11.5659
G1 X46.299 Y4.701 E11.5916
G1 X46.299 Y5.699 E11.6281
G1 X47.299 Y5.699 E11.6647
G1 X47.299 Y6.299 E11.6867
G1 E10.1867 F1200
G1 Z0.700 F2400
G1 X46.694 Y5.695 F4800
G1 X46.303 Y5.695 F4800
G1 X46.303 Y5.305 F4800
G1 X45.297 Y4.301 F4800
G1 Z0.200 F2400
G1 E11.7367 F1200
G1 X43.599 Y4.301 E11.7988 F1440
G1 X43.599 Y2.701 E11.8573
G1 X44.297 Y2.701 E11.8829
G1 X44.297 Y3.701 E11.9195
G1 X45.297 Y3.701 E11.9561
G1 X45.297 Y4.301 E11.9780
G1 E10.4780 F1200
G1 Z0.700 F2400
G1 X45.597 Y12.699 F4800
G1 Z0.200 F2400
G1 E12.0280 F1200
G1 X47.299 Y12.699 E12.0903 F1440
G1 X47.299 Y13.299 E12.1122
G1 X46.299 Y13.299 E12.1488
G1 X46.299 Y14.299 E12.1854
G1 X45.597 Y14.299 E12.2111
G1 X45.597 Y12.699 E12.2696
G1 E10.7696 F1200
G1 Z0.700 F2400
G1 X45.297 Y14.699 F4800
G1 Z0.200 F2400
G1 E12.3196 F1200
G1 X45.297 Y15.299 E12.3416 F1440
G1 X44.297 Y15.299 E12.3782
G1 X44.297 Y16.301 E12.4148
G1 X43.599 Y16.301 E12.4404
G1 X43.599 Y14.699 E12.4990
G1 X45.297 Y14.699 E12.5611
G1 E11.0611 F1200
G1 Z0.700 F2400
G1 X44.694 Y15.303 F4800
G1 X44.301 Y15.303 F4800
G1 X44.301 Y15.697 F4800
G1 X43.299 Y16.701 F4800
G1 Z0.200 F2400
G1 E12.6111 F1200
G1 X43.299 Y17.301 E12.6330 F1440
G1 X42.299 Y17.301 E12.6696
G1 X42.299 Y18.301 E12.7062
G1 X41.599 Y18.301 E12.7318
G1 X41.599 Y16.701 E12.7904
G1 X43.299 Y16.701 E12.8526
G1 E11.3526 F1200
G1 Z0.700 F2400
G1 X42.695 Y17.305 F4800
G1 X42.303 Y17.305 F4800
G1 X42.303 Y17.697 F4800
G1 X41.299 Y18.701 F4800
G1 Z0.200 F2400
G1 E12.9026 F1200
G1 X41.299 Y19.299 E12.9244 F1440
G1 X33.699 Y19.299 E13.2025
G1 X33.699 Y18.701 E13.2244
G1 X41.299 Y18.701 E13.5024
G1 E12.0024 F1200
G1 Z0.700 F2400
G1 X33.399 Y18.301 F4800
G1 Z0.200 F2400
G1 E13.5524 F1200
G1 X32.599 Y18.301 E13.5817 F1440
G1 X32.599 Y17.701 E13.6036
G1 X33.399 Y17.701 E13.6329
G1 X33.399 Y18.301 E13.6549
G1 E12.1549 F1200
G1 Z0.700 F2400
G1 X32.299 Y18.701 F4800
G1 Z0.200 F2400
G1 E13.7049 F1200
G1 X32.299 Y19.299 E13.7267 F1440
G1 X-32.299 Y19.299 E16.0901
G1 X-32.299 Y18.701 E16.1120
G1 X32.299 Y18.701 E18.4754
G1 E16.9754 F1200
G1 Z0.700 F2400
G1 X-32.599 Y18.301 F4800
G1 Z0.200 F2400
G1 E18.5254 F1200
G1 X-33.399 Y18.301 E18.5547 F1440
G1 X-33.399 Y17.701 E18.5766
G1 X-32.599 Y17.701 E18.6059
G1 X-32.599 Y18.301 E18.6278
G1 E17.1278 F1200
G1 Z0.700 F2400
G1 X-33.699 Y18.701 F4800
G1 Z0.200 F2400
G1 E18.6778 F1200
G1 X-33.699 Y19.299 E18.6997 F1440
G1 X-41.299 Y19.299 E18.9778
G1 X-41.299 Y18.701 E18.9997
G1 X-33.699 Y18.701 E19.2777
G1 E17.7777 F1200
G1 Z0.700 F2400
G1 X-41.599 Y18.301 F4800
G1 Z0.200 F2400
G1 E19.3277 F1200
G1 X-42.301 Y18.301 E19.3534 F1440
G1 X-42.301 Y17.301 E19.3900
G1 X-43.301 Y17.301 E19.4266
G1 X-43.301 Y16.701 E19.4485
G1 X-41.599 Y16.701 E19.5108
G1 X-41.599 Y18.301 E19.5693
G1 E18.0693 F1200
G1 Z0.700 F2400
G1 X-42.305 Y17.596 F4800
G1 X-42.305 Y17.305 F4800
G1 X-42.596 Y17.305 F4800
G1 X-43.601 Y16.301 F4800
G1 Z0.200 F2400
G1 E19.6193 F1200
G1 X-44.301 Y16.301 E19.6449 F1440
G1 X-44.301 Y15.299 E19.6816
G1 X-45.301 Y15.299 E19.7182
G1 X-45.301 Y14.699 E19.7401
G1 X-43.601 Y14.699 E19.8023
G1 X-43.601 Y16.301 E19.8609
G1 E18.3609 F1200
G1 Z0.700 F2400
G1 X-44.305 Y15.596 F4800
G1 X-44.305 Y15.303 F4800
G1 X-44.598 Y15.303 F4800
G1 X-45.601 Y14.299 F4800
G1 Z0.200 F2400
G1 E19.9109 F1200
G1 X-46.299 Y14.299 E19.9365 F1440
G1 X-46.299 Y13.299 E19.9731
G1 X-47.299 Y13.299 E20.0097
G1 X-47.299 Y12.699 E20.0316
G1 X-45.601 Y12.699 E20.0937
G1 X-45.601 Y14.299 E20.1523
G1 E18.6523 F1200
G1 Z0.700 F2400
G1 X-46.303 Y13.596 F4800
G1 X-46.303 Y13.303 F4800
G1 X-46.596 Y13.303 F4800
G1 X-47.599 Y12.299 F4800
G1 Z0.200 F2400
G1 E20.2023 F1200
G1 X-48.299 Y12.299 E20.2279 F1440
G1 X-48.299 Y6.699 E20.4328
G1 X-47.599 Y6.699 E20.4584
G1 X-47.599 Y12.299 E20.6632
G1 E19.1632 F1200
G1 Z0.700 F2400
G1 X-47.299 Y6.299 F4800
G1 Z0.200 F2400
G1 E20.7132 F1200
G1 X-47.299 Y5.699 E20.7352 F1440
G1 X-46.299 Y5.699 E20.7718
G1 X-46.299 Y4.701 E20.8083
G1 X-45.601 Y4.701 E20.8338
G1 X-45.601 Y6.299 E20.8923
G1 X-47.299 Y6.299 E20.9544
G1 E19.4544 F1200
G1 Z0.700 F2400
G1 X-46.695 Y5.695 F4800
G1 X-46.303 Y5.695 F4800
G1 X-46.303 Y5.303 F4800
G1 X-45.301 Y4.301 F4800
G1 Z0.200 F2400
G1 E21.0044 F1200
G1 X-45.301 Y3.701 E21.0264 F1440
G1 X-44.301 Y3.701 E21.0630
G1 X-44.301 Y2.701 E21.0995
G1 X-43.601 Y2.701 E21.1252
G1 X-43.601 Y4.301 E21.1837
G1 X-45.301 Y4.301 E21.2459
G1 E19.7459 F1200
G1 Z0.700 F2400
G1 X-44.697 Y3.697 F4800
G1 X-44.305 Y3.697 F4800
G1 X-44.305 Y3.305 F4800
G1 X-43.301 Y2.301 F4800
G1 Z0.200 F2400
G1 E21.2959 F1200
G1 X-43.301 Y1.299 E21.3326 F1440
G1 X-55.299 Y1.299 E21.7715
G1 X-55.299 Y0.699 E21.7935
G1 X-40.699 Y0.699 E22.3276
G1 X-40.699 Y1.299 E22.3496
G1 X-42.701 Y1.299 E22.4228
G1 X-42.701 Y2.301 E22.4595
G1 X-43.301 Y2.301 E22.4814
G1 X-43.305 Y2.300 F4800
G1 X-43.305 Y2.305 F4800
G1 X-42.697 Y2.305 F4800
G1 X-42.697 Y1.303 F4800
G1 X-40.695 Y1.303 F4800
G1 X-40.695 Y0.695 F4800
G1 X-53.086 Y0.695 F4800
G1 X-55.499 Y0.299 F4800
G1 X-56.299 Y0.299 E22.5107 F1440
G1 X-56.299 Y-18.299 E23.1911
G1 X-55.499 Y-18.299 E23.2204
G1 X-55.499 Y0.299 E23.9008
; gap fill
G1 X-55.955 Y-0.518 F4800
G1 X-55.843 Y-0.406 E23.9066 F1440
G1 X-55.843 Y-0.972 E23.9273
G1 X-55.955 Y-1.084 E23.9331
G1 X-55.955 Y-1.649 E23.9538
G1 X-55.843 Y-1.537 E23.9596
G1 X-55.843 Y-2.103 E23.9803
G1 X-55.955 Y-2.215 E23.9861
G1 X-55.955 Y-2.781 E24.0068
G1 X-55.843 Y-2.669 E24.0126
G1 X-55.843 Y-3.234 E24.0333
G1 X-55.955 Y-3.346 E24.0391
G1 X-55.955 Y-3.912 E24.0598
G1 X-55.843 Y-3.800 E24.0656
G1 X-55.843 Y-4.366 E24.0863
G1 X-55.955 Y-4.478 E24.0921
G1 X-55.955 Y-5.043 E24.1127
G1 X-55.843 Y-4.931 E24.1185
G1 X-55.843 Y-5.497 E24.1392
G1 X-55.955 Y-5.609 E24.1450
G1 X-55.955 Y-6.175 E24.1657
G1 X-55.843 Y-6.063 E24.1715
G1 X-55.843 Y-6.628 E24.1922
G1 X-55.955 Y-6.740 E24.1980
G1 X-55.955 Y-7.306 E24.2187
G1 X-55.843 Y-7.194 E24.2245
G1 X-55.843 Y-7.760 E24.2452
G1 X-55.955 Y-7.872 E24.2510
G1 X-55.955 Y-8.437 E24.2717
G1 X-55.843 Y-8.325 E24.2775
G1 X-55.843 Y-8.891 E24.2982
G1 X-55.955 Y-9.003 E24.3040
G1 X-55.955 Y-9.569 E24.3247
G1 X-55.843 Y-9.457 E24.3305
G1 X-55.843 Y-10.023 E24.3512
G1 X-55.955 Y-10.134 E24.3570
G1 X-55.955 Y-10.700 E24.3777
G1 X-55.843 Y-10.588 E24.3835
G1 X-55.843 Y-11.154 E24.4041
G1 X-55.955 Y-11.266 E24.4099
G1 X-55.955 Y-11.832 E24.4306
G1 X-55.843 Y-11.720 E24.4364
G1 X-55.843 Y-12.285 E24.4571
G1 X-55.955 Y-12.397 E24.4629
G1 X-55.955 Y-12.963 E24.4836
G1 X-55.843 Y-12.851 E24.4894
G1 X-55.843 Y-13.417 E24.5101
G1 X-55.955 Y-13.529 E24.5159
G1 X-55.955 Y-14.094 E24.5366
G1 X-55.843 Y-13.982 E24.5424
G1 X-55.843 Y-14.548 E24.5631
G1 X-55.955 Y-14.660 E24.5689
G1 X-55.955 Y-15.226 E24.5896
G1 X-55.843 Y-15.114 E24.5954
G1 X-55.843 Y-15.679 E24.6161
G1 X-55.955 Y-15.791 E24.6219
G1 X-55.955 Y-16.357 E24.6426
G1 X-55.843 Y-16.245 E24.6484
G1 X-55.843 Y-16.811 E24.6691
G1 X-55.955 Y-16.923 E24.6748
G1 X-55.955 Y-17.488 E24.6955
G1 X-55.843 Y-17.376 E24.7013
G1 X-55.843 Y-17.942 E24.7220
G1 X-55.856 Y-17.955 E24.7227
G1 E23.2227 F1200
G1 Z0.700 F2400
G1 X-43.957 Y3.561 F4800
G1 Z0.200 F2400
G1 E24.7727 F1200
G1 X-43.945 Y3.573 E24.7733 F1440
G1 E23.2733 F1200
G1 Z0.700 F2400
G1 X-45.945 Y5.532 F4800
G1 Z0.200 F2400
G1 E24.8233 F1200
G1 X-45.955 Y5.522 E24.8238 F1440
G1 E23.3238 F1200
G1 Z0.700 F2400
G1 X-47.955 Y7.482 F4800
G1 Z0.200 F2400
G1 E24.8738 F1200
G1 X-47.943 Y7.494 E24.8745 F1440
G1 X-47.943 Y8.060 E24.8952
G1 X-47.955 Y8.048 E24.8958
G1 X-47.955 Y8.614 E24.9165
G1 X-47.943 Y8.626 E24.9171
G1 X-47.943 Y9.191 E24.9378
G1 X-47.955 Y9.179 E24.9384
G1 X-47.955 Y9.745 E24.9591
G1 X-47.943 Y9.757 E24.9597
G1 X-47.943 Y10.323 E24.9804
G1 X-47.955 Y10.311 E24.9810
G1 X-47.955 Y10.876 E25.0017
G1 X-47.943 Y10.888 E25.0024
G1 X-47.943 Y11.454 E25.0231
G1 X-47.955 Y11.442 E25.0237
G1 E23.5237 F1200
G1 Z0.700 F2400
G1 X-45.955 Y13.442 F4800
G1 Z0.200 F2400
G1 E25.0737 F1200
G1 X-45.945 Y13.452 E25.0742 F1440
G1 E23.5742 F1200
G1 Z0.700 F2400
G1 X-43.957 Y15.440 F4800
G1 Z0.200 F2400
G1 E25.1242 F1200
G1 X-43.945 Y15.452 E25.1248 F1440
G1 E23.6248 F1200
G1 Z0.700 F2400
G1 X-41.957 Y17.440 F4800
G1 Z0.200 F2400
G1 E25.1748 F1200
G1 X-41.943 Y17.454 E25.1755 F1440
G1 E23.6755 F1200
G1 Z0.700 F2400
G1 X41.943 Y17.619 F4800
G1 Z0.200 F2400
G1 E25.2255 F1200
G1 X41.955 Y17.631 E25.2262 F1440
G1 X41.955 Y17.065 E25.2469
G1 X41.943 Y17.053 E25.2475
G1 E23.7475 F1200
G1 Z0.700 F2400
G1 X43.943 Y15.659 F4800
G1 Z0.200 F2400
G1 E25.2975 F1200
G1 X43.953 Y15.669 E25.2980 F1440
G1 X43.953 Y15.103 E25.3187
G1 X43.943 Y15.093 E25.3192
G1 E23.8192 F1200
G1 Z0.700 F2400
G1 X45.941 Y13.697 F4800
G1 Z0.200 F2400
G1 E25.3692 F1200
G1 X45.955 Y13.711 E25.3699 F1440
G1 X45.955 Y13.145 E25.3906
G1 X45.941 Y13.131 E25.3914
G1 E23.8914 F1200
G1 Z0.700 F2400
G1 X47.955 Y11.751 F4800
G1 Z0.200 F2400
G1 E25.4414 F1200
G1 X47.943 Y11.739 E25.4420 F1440
G1 X47.943 Y11.173 E25.4627
G1 X47.955 Y11.185 E25.4633
G1 X47.955 Y10.620 E25.4840
G1 X47.943 Y10.608 E25.4846
G1 X47.943 Y10.042 E25.5053
G1 X47.955 Y10.054 E25.5059
G1 X47.955 Y9.488 E25.5266
G1 X47.943 Y9.476 E25.5272
G1 X47.943 Y8.911 E25.5479
G1 X47.955 Y8.923 E25.5486
