; G-Code generated by Simplify3D(R) Version 4.0.0
; Sep 6, 2017 at 3:25:24 PM
; Settings Summary
;   processName,Process1
;   applyToModels,garra fixa,garra,garra(2),garra(3)
;   profileName,BEEVERYCREATIVE BEETHEFIRST (modified)
;   profileVersion,2017-09-05 18:11:50
;   baseProfile,
;   printMaterial,
;   printQuality,
;   printExtruders,
;   extruderName,Primary Extruder
;   extruderToolheadNumber,0
;   extruderDiameter,0.4
;   extruderAutoWidth,0
;   extruderWidth,0.4
;   extrusionMultiplier,1.1
;   extruderUseRetract,1
;   extruderRetractionDistance,1.5
;   extruderExtraRestartDistance,0.05
;   extruderRetractionZLift,0
;   extruderRetractionSpeed,1200
;   extruderUseCoasting,0
;   extruderCoastingDistance,0.1
;   extruderUseWipe,0
;   extruderWipeDistance,1
;   primaryExtruder,0
;   layerHeight,0.15
;   topSolidLayers,4
;   bottomSolidLayers,4
;   perimeterOutlines,2
;   printPerimetersInsideOut,1
;   startPointOption,1
;   startPointOriginX,0
;   startPointOriginY,0
;   sequentialIslands,0
;   spiralVaseMode,0
;   firstLayerHeightPercentage,100
;   firstLayerWidthPercentage,100
;   firstLayerUnderspeed,0.8
;   useRaft,0
;   raftExtruder,0
;   raftTopLayers,4
;   raftBaseLayers,2
;   raftOffset,10
;   raftSeparationDistance,0.2
;   raftTopInfill,100
;   aboveRaftSpeedMultiplier,0.3
;   useSkirt,0
;   skirtExtruder,0
;   skirtLayers,1
;   skirtOutlines,10
;   skirtOffset,0
;   usePrimePillar,0
;   primePillarExtruder,999
;   primePillarWidth,12
;   primePillarLocation,7
;   primePillarSpeedMultiplier,1
;   useOozeShield,0
;   oozeShieldExtruder,999
;   oozeShieldOffset,2
;   oozeShieldOutlines,1
;   oozeShieldSidewallShape,1
;   oozeShieldSidewallAngle,30
;   oozeShieldSpeedMultiplier,1
;   infillExtruder,0
;   internalInfillPattern,Triangular
;   externalInfillPattern,Rectilinear
;   infillPercentage,10
;   outlineOverlapPercentage,15
;   infillExtrusionWidthPercentage,100
;   minInfillLength,5
;   infillLayerInterval,1
;   internalInfillAngles,0,60,-60
;   overlapInternalInfillAngles,1
;   externalInfillAngles,45,-45
;   generateSupport,0
;   supportExtruder,0
;   supportInfillPercentage,10
;   supportExtraInflation,0
;   supportBaseLayers,0
;   denseSupportExtruder,0
;   denseSupportLayers,2
;   denseSupportInfillPercentage,80
;   supportLayerInterval,1
;   supportHorizontalPartOffset,0.25
;   supportUpperSeparationLayers,2
;   supportLowerSeparationLayers,2
;   supportType,0
;   supportGridSpacing,1
;   maxOverhangAngle,60
;   supportAngles,45
;   temperatureName,Primary Extruder Temperature
;   temperatureNumber,0
;   temperatureSetpointCount,1
;   temperatureSetpointLayers,1
;   temperatureSetpointTemperatures,220
;   temperatureStabilizeAtStartup,1
;   temperatureHeatedBed,0
;   temperatureRelayBetweenLayers,0
;   temperatureRelayBetweenLoops,0
;   fanLayers,1,2
;   fanSpeeds,0,80
;   blipFanToFullPower,0
;   adjustSpeedForCooling,0
;   minSpeedLayerTime,15
;   minCoolingSpeedSlowdown,50
;   increaseFanForCooling,0
;   minFanLayerTime,45
;   maxCoolingFanSpeed,90
;   increaseFanForBridging,0
;   bridgingFanSpeed,100
;   use5D,1
;   relativeEdistances,0
;   allowEaxisZeroing,0
;   independentExtruderAxes,0
;   includeM10123,0
;   stickySupport,1
;   applyToolheadOffsets,0
;   gcodeXoffset,0
;   gcodeYoffset,0
;   gcodeZoffset,0
;   overrideMachineDefinition,1
;   machineTypeOverride,0
;   strokeXoverride,190
;   strokeYoverride,135
;   strokeZoverride,125
;   originOffsetXoverride,95
;   originOffsetYoverride,67.5
;   originOffsetZoverride,0
;   homeXdirOverride,-1
;   homeYdirOverride,-1
;   homeZdirOverride,-1
;   flipXoverride,1
;   flipYoverride,-1
;   flipZoverride,1
;   toolheadOffsets,0,0|0,0|0,0|0,0|0,0|0,0
;   overrideFirmwareConfiguration,0
;   firmwareTypeOverride,RepRap (Marlin/Repetier/Sprinter)
;   GPXconfigOverride,r2
;   baudRateOverride,115200
;   overridePrinterModels,0
;   printerModelsOverride
;   startingGcode,M300,G28,M206 X500,M107,M104 S[extruder0_temperature],G92 E,M642 W1,M130 T6 U1.3 V80,G1 X-98.0 Y-20.0 Z5.0 F3000,G1 Y-68.0 Z0.3,G1 X-98.0 Y0.0 F500 E20,G92 E
;   layerChangeGcode,
;   retractionGcode,
;   toolChangeGcode,
;   endingGcode,M300,M104 S0,G28 X,G28 Z,G1 Y65,M107,M641 A1
;   exportFileFormat,gcode
;   celebration,0
;   celebrationSong,Random Song
;   postProcessing,
;   defaultSpeed,3000
;   outlineUnderspeed,0.6
;   solidInfillUnderspeed,0.6
;   supportUnderspeed,0.6
;   rapidXYspeed,5400
;   rapidZspeed,2400
;   minBridgingArea,5
;   bridgingExtraInflation,0
;   bridgingExtrusionMultiplier,1.1
;   bridgingSpeedMultiplier,0.6
;   useFixedBridgingAngle,0
;   fixedBridgingAngle,0
;   applyBridgingToPerimeters,0
;   filamentDiameters,1.75|1.75|1.75|1.75|1.75|1.75
;   filamentPricesPerKg,46|46|46|46|46|46
;   filamentDensities,1.25|1.25|1.25|1.25|1.25|1.25
;   useMinPrintHeight,0
;   minPrintHeight,0
;   useMaxPrintHeight,0
;   maxPrintHeight,2
;   useDiaphragm,0
;   diaphragmLayerInterval,20
;   robustSlicing,0
;   mergeAllIntoSolid,0
;   onlyRetractWhenCrossingOutline,1
;   retractBetweenLayers,1
;   useRetractionMinTravel,0
;   retractionMinTravel,1
;   retractWhileWiping,1
;   onlyWipeOutlines,0
;   avoidCrossingOutline,1
;   maxMovementDetourFactor,3
;   toolChangeRetractionDistance,12
;   toolChangeExtraRestartDistance,-0.5
;   toolChangeRetractionSpeed,600
;   externalThinWallType,1
;   internalThinWallType,2
;   thinWallAllowedOverlapPercentage,50
;   singleExtrusionMinLength,1
;   singleExtrusionMinPrintingWidthPercentage,50
;   singleExtrusionMaxPrintingWidthPercentage,200
;   singleExtrusionEndpointExtension,0.2
;   horizontalSizeCompensation,0
G90
M82
M106 S0
M300
G28
M206 X500
M107
M104 S220
G92 E
M642 W1
M130 T6 U1.3 V80
G1 X-98.0 Y-20.0 Z5.0 F3000
G1 Y-68.0 Z0.3
G1 X-98.0 Y0.0 F500 E20
G92 E
G1 E-1.5000 F1200
G1 Z0.150 F2400
; process Process1
; layer 1, Z = 0.150
T0
; tool H0.150 W0.400
; inner perimeter
G1 X-93.900 Y-0.900 F5400
G1 E0.0500 F360
G1 X-12.813 Y-0.893 E2.2750 F1920
G1 X-12.813 Y3.893 E2.4063
G1 X-93.900 Y3.900 E4.6313
G1 X-93.900 Y-0.900 E4.7630
; outer perimeter
G1 X-12.413 Y-1.293 F5400
G1 X-12.413 Y4.293 E4.9163 F1440
G1 X-94.300 Y4.300 E7.1633
G1 X-94.300 Y-1.300 E7.3169
G1 X-12.413 Y-1.293 E9.5639
; solid layer
G1 X-13.564 Y-0.553 F5400
G1 X-13.153 Y-0.143 E9.5798 F1440
G1 X-13.153 Y0.423 E9.5953
G1 X-14.130 Y-0.553 E9.6332
G1 X-14.696 Y-0.554 E9.6487
G1 X-13.153 Y0.989 E9.7086
G1 X-13.153 Y1.554 E9.7241
G1 X-15.261 Y-0.554 E9.8059
G1 X-15.827 Y-0.554 E9.8214
G1 X-13.153 Y2.120 E9.9252
G1 X-13.153 Y2.686 E9.9407
G1 X-16.393 Y-0.554 E10.0664
G1 X-16.959 Y-0.554 E10.0819
G1 X-13.153 Y3.251 E10.2296
G1 X-13.153 Y3.553 E10.2379
G1 X-13.417 Y3.553 E10.2451
G1 X-17.524 Y-0.554 E10.4045
G1 X-18.090 Y-0.554 E10.4200
G1 X-13.983 Y3.553 E10.5794
G1 X-14.548 Y3.553 E10.5949
G1 X-18.656 Y-0.554 E10.7543
G1 X-19.221 Y-0.554 E10.7698
G1 X-15.114 Y3.554 E10.9292
G1 X-15.680 Y3.554 E10.9447
G1 X-19.787 Y-0.554 E11.1041
G1 X-20.353 Y-0.554 E11.1197
G1 X-16.245 Y3.554 E11.2791
G1 X-16.811 Y3.554 E11.2946
G1 X-20.919 Y-0.554 E11.4540
G1 X-21.484 Y-0.554 E11.4695
G1 X-17.377 Y3.554 E11.6289
G1 X-17.942 Y3.554 E11.6444
G1 X-22.050 Y-0.554 E11.8038
G1 X-22.616 Y-0.554 E11.8194
G1 X-18.508 Y3.554 E11.9788
G1 X-19.074 Y3.554 E11.9943
G1 X-23.182 Y-0.554 E12.1537
G1 X-23.747 Y-0.554 E12.1692
G1 X-19.639 Y3.554 E12.3286
G1 X-20.205 Y3.554 E12.3442
G1 X-24.313 Y-0.554 E12.5036
G1 X-24.879 Y-0.554 E12.5191
G1 X-20.770 Y3.554 E12.6785
G1 X-21.336 Y3.554 E12.6941
G1 X-25.445 Y-0.554 E12.8535
G1 X-26.010 Y-0.554 E12.8690
G1 X-21.902 Y3.554 E13.0284
G1 X-22.467 Y3.554 E13.0440
G1 X-26.576 Y-0.554 E13.2034
G1 X-27.142 Y-0.555 E13.2189
G1 X-23.033 Y3.554 E13.3784
G1 X-23.599 Y3.554 E13.3939
G1 X-27.707 Y-0.555 E13.5533
G1 X-28.273 Y-0.555 E13.5689
G1 X-24.164 Y3.554 E13.7283
G1 X-24.730 Y3.554 E13.7438
G1 X-28.839 Y-0.555 E13.9033
G1 X-29.405 Y-0.555 E13.9188
G1 X-25.296 Y3.554 E14.0783
G1 X-25.861 Y3.554 E14.0938
G1 X-29.970 Y-0.555 E14.2532
G1 X-30.536 Y-0.555 E14.2688
G1 X-26.427 Y3.554 E14.4282
G1 X-26.993 Y3.554 E14.4437
G1 X-31.102 Y-0.555 E14.6032
G1 X-31.668 Y-0.555 E14.6187
G1 X-27.558 Y3.555 E14.7782
G1 X-28.124 Y3.555 E14.7937
G1 X-32.233 Y-0.555 E14.9532
G1 X-32.799 Y-0.555 E14.9687
G1 X-28.689 Y3.555 E15.1282
G1 X-29.255 Y3.555 E15.1437
G1 X-33.365 Y-0.555 E15.3032
G1 X-33.931 Y-0.555 E15.3187
G1 X-29.821 Y3.555 E15.4782
G1 X-30.386 Y3.555 E15.4937
G1 X-34.496 Y-0.555 E15.6532
G1 X-35.062 Y-0.555 E15.6687
G1 X-30.952 Y3.555 E15.8282
G1 X-31.518 Y3.555 E15.8437
G1 X-35.628 Y-0.555 E16.0032
G1 X-36.193 Y-0.555 E16.0188
G1 X-32.083 Y3.555 E16.1782
G1 X-32.649 Y3.555 E16.1938
G1 X-36.759 Y-0.555 E16.3533
G1 X-37.325 Y-0.555 E16.3688
G1 X-33.215 Y3.555 E16.5283
G1 X-33.780 Y3.555 E16.5438
G1 X-37.891 Y-0.555 E16.7033
G1 X-38.456 Y-0.555 E16.7188
G1 X-34.346 Y3.555 E16.8784
G1 X-34.911 Y3.555 E16.8939
G1 X-39.022 Y-0.555 E17.0534
G1 X-39.588 Y-0.556 E17.0689
G1 X-35.477 Y3.555 E17.2284
G1 X-36.043 Y3.555 E17.2440
G1 X-40.154 Y-0.556 E17.4035
G1 X-40.719 Y-0.556 E17.4190
G1 X-36.608 Y3.555 E17.5785
G1 X-37.174 Y3.555 E17.5941
G1 X-41.285 Y-0.556 E17.7536
G1 X-41.851 Y-0.556 E17.7691
G1 X-37.740 Y3.555 E17.9286
G1 X-38.305 Y3.555 E17.9442
G1 X-42.416 Y-0.556 E18.1037
G1 X-42.982 Y-0.556 E18.1192
G1 X-38.871 Y3.555 E18.2788
G1 X-39.437 Y3.556 E18.2943
G1 X-43.548 Y-0.556 E18.4538
G1 X-44.114 Y-0.556 E18.4693
G1 X-40.002 Y3.556 E18.6289
G1 X-40.568 Y3.556 E18.6444
G1 X-44.679 Y-0.556 E18.8040
G1 X-45.245 Y-0.556 E18.8195
G1 X-41.133 Y3.556 E18.9790
G1 X-41.699 Y3.556 E18.9946
G1 X-45.811 Y-0.556 E19.1541
G1 X-46.377 Y-0.556 E19.1696
G1 X-42.265 Y3.556 E19.3292
G1 X-42.830 Y3.556 E19.3447
G1 X-46.942 Y-0.556 E19.5043
G1 X-47.508 Y-0.556 E19.5198
G1 X-43.396 Y3.556 E19.6794
G1 X-43.962 Y3.556 E19.6949
G1 X-48.074 Y-0.556 E19.8545
G1 X-48.640 Y-0.556 E19.8700
G1 X-44.527 Y3.556 E20.0296
G1 X-45.093 Y3.556 E20.0451
G1 X-49.205 Y-0.556 E20.2047
G1 X-49.771 Y-0.556 E20.2202
G1 X-45.659 Y3.556 E20.3798
G1 X-46.224 Y3.556 E20.3953
G1 X-50.337 Y-0.556 E20.5549
G1 X-50.902 Y-0.556 E20.5704
G1 X-46.790 Y3.556 E20.7300
G1 X-47.356 Y3.556 E20.7455
G1 X-51.468 Y-0.557 E20.9051
G1 X-52.034 Y-0.557 E20.9206
G1 X-47.921 Y3.556 E21.0802
G1 X-48.487 Y3.556 E21.0958
G1 X-52.600 Y-0.557 E21.2554
G1 X-53.165 Y-0.557 E21.2709
G1 X-49.052 Y3.556 E21.4305
G1 X-49.618 Y3.556 E21.4460
G1 X-53.731 Y-0.557 E21.6056
G1 X-54.297 Y-0.557 E21.6211
G1 X-50.184 Y3.556 E21.7808
G1 X-50.749 Y3.556 E21.7963
G1 X-54.863 Y-0.557 E21.9559
G1 X-55.428 Y-0.557 E21.9714
G1 X-51.315 Y3.556 E22.1310
G1 X-51.881 Y3.557 E22.1466
G1 X-55.994 Y-0.557 E22.3062
G1 X-56.560 Y-0.557 E22.3217
G1 X-52.446 Y3.557 E22.4813
G1 X-53.012 Y3.557 E22.4968
G1 X-57.126 Y-0.557 E22.6565
G1 X-57.691 Y-0.557 E22.6720
G1 X-53.578 Y3.557 E22.8316
G1 X-54.143 Y3.557 E22.8472
G1 X-58.257 Y-0.557 E23.0068
G1 X-58.823 Y-0.557 E23.0223
G1 X-54.709 Y3.557 E23.1820
G1 X-55.274 Y3.557 E23.1975
G1 X-59.388 Y-0.557 E23.3571
G1 X-59.954 Y-0.557 E23.3726
G1 X-55.840 Y3.557 E23.5323
G1 X-56.406 Y3.557 E23.5478
G1 X-60.520 Y-0.557 E23.7075
G1 X-61.086 Y-0.557 E23.7230
G1 X-56.971 Y3.557 E23.8826
G1 X-57.537 Y3.557 E23.8982
G1 X-61.651 Y-0.557 E24.0578
G1 X-62.217 Y-0.557 E24.0733
G1 X-58.103 Y3.557 E24.2330
G1 X-58.668 Y3.557 E24.2485
G1 X-62.783 Y-0.557 E24.4082
G1 X-63.349 Y-0.557 E24.4237
G1 X-59.234 Y3.557 E24.5834
G1 X-59.800 Y3.557 E24.5989
G1 X-63.914 Y-0.558 E24.7586
G1 X-64.480 Y-0.558 E24.7741
G1 X-60.365 Y3.557 E24.9338
G1 X-60.931 Y3.557 E24.9493
G1 X-65.046 Y-0.558 E25.1090
G1 X-65.611 Y-0.558 E25.1245
G1 X-61.497 Y3.557 E25.2842
G1 X-62.062 Y3.557 E25.2997
G1 X-66.177 Y-0.558 E25.4594
G1 X-66.743 Y-0.558 E25.4749
G1 X-62.628 Y3.557 E25.6346
G1 X-63.193 Y3.557 E25.6501
G1 X-67.309 Y-0.558 E25.8098
G1 X-67.874 Y-0.558 E25.8253
G1 X-63.759 Y3.557 E25.9850
G1 X-64.325 Y3.558 E26.0006
G1 X-68.440 Y-0.558 E26.1603
G1 X-69.006 Y-0.558 E26.1758
G1 X-64.890 Y3.558 E26.3355
G1 X-65.456 Y3.558 E26.3510
G1 X-69.572 Y-0.558 E26.5107
G1 X-70.137 Y-0.558 E26.5262
G1 X-66.022 Y3.558 E26.6859
G1 X-66.587 Y3.558 E26.7015
G1 X-70.703 Y-0.558 E26.8612
G1 X-71.269 Y-0.558 E26.8767
G1 X-67.153 Y3.558 E27.0364
G1 X-67.719 Y3.558 E27.0519
G1 X-71.835 Y-0.558 E27.2117
G1 X-72.400 Y-0.558 E27.2272
G1 X-68.284 Y3.558 E27.3869
G1 X-68.850 Y3.558 E27.4024
G1 X-72.966 Y-0.558 E27.5622
G1 X-73.532 Y-0.558 E27.5777
G1 X-69.415 Y3.558 E27.7374
G1 X-69.981 Y3.558 E27.7529
G1 X-74.097 Y-0.558 E27.9127
G1 X-74.663 Y-0.558 E27.9282
G1 X-70.547 Y3.558 E28.0879
G1 X-71.112 Y3.558 E28.1035
G1 X-75.229 Y-0.558 E28.2632
G1 X-75.795 Y-0.558 E28.2787
G1 X-71.678 Y3.558 E28.4385
G1 X-72.244 Y3.558 E28.4540
G1 X-76.360 Y-0.559 E28.6138
G1 X-76.926 Y-0.559 E28.6293
G1 X-72.809 Y3.558 E28.7890
G1 X-73.375 Y3.558 E28.8046
G1 X-77.492 Y-0.559 E28.9643
G1 X-78.058 Y-0.559 E28.9798
G1 X-73.941 Y3.558 E29.1396
G1 X-74.506 Y3.558 E29.1551
G1 X-78.623 Y-0.559 E29.3149
G1 X-79.189 Y-0.559 E29.3304
G1 X-75.072 Y3.558 E29.4902
G1 X-75.638 Y3.558 E29.5057
G1 X-79.755 Y-0.559 E29.6655
G1 X-80.320 Y-0.559 E29.6810
G1 X-76.203 Y3.558 E29.8408
G1 X-76.769 Y3.559 E29.8563
G1 X-80.886 Y-0.559 E30.0161
G1 X-81.452 Y-0.559 E30.0316
G1 X-77.334 Y3.559 E30.1914
G1 X-77.900 Y3.559 E30.2069
G1 X-82.018 Y-0.559 E30.3667
G1 X-82.583 Y-0.559 E30.3822
G1 X-78.466 Y3.559 E30.5420
G1 X-79.031 Y3.559 E30.5575
G1 X-83.149 Y-0.559 E30.7173
G1 X-83.715 Y-0.559 E30.7328
G1 X-79.597 Y3.559 E30.8926
G1 X-80.163 Y3.559 E30.9081
G1 X-84.281 Y-0.559 E31.0680
G1 X-84.846 Y-0.559 E31.0835
G1 X-80.728 Y3.559 E31.2433
G1 X-81.294 Y3.559 E31.2588
G1 X-85.412 Y-0.559 E31.4186
G1 X-85.978 Y-0.559 E31.4341
G1 X-81.860 Y3.559 E31.5939
G1 X-82.425 Y3.559 E31.6095
G1 X-86.544 Y-0.559 E31.7693
G1 X-87.109 Y-0.559 E31.7848
G1 X-82.991 Y3.559 E31.9446
G1 X-83.556 Y3.559 E31.9601
G1 X-87.675 Y-0.559 E32.1200
G1 X-88.241 Y-0.560 E32.1355
G1 X-84.122 Y3.559 E32.2953
G1 X-84.688 Y3.559 E32.3108
G1 X-88.806 Y-0.560 E32.4707
G1 X-89.372 Y-0.560 E32.4862
G1 X-85.253 Y3.559 E32.6460
G1 X-85.819 Y3.559 E32.6615
G1 X-89.938 Y-0.560 E32.8214
G1 X-90.504 Y-0.560 E32.8369
G1 X-86.385 Y3.559 E32.9967
G1 X-86.950 Y3.559 E33.0123
G1 X-91.069 Y-0.560 E33.1721
G1 X-91.635 Y-0.560 E33.1876
G1 X-87.516 Y3.559 E33.3475
G1 X-88.082 Y3.559 E33.3630
G1 X-92.201 Y-0.560 E33.5228
G1 X-92.767 Y-0.560 E33.5384
G1 X-88.647 Y3.560 E33.6982
G1 X-89.213 Y3.560 E33.7137
G1 X-93.332 Y-0.560 E33.8736
G1 X-93.560 Y-0.560 E33.8799
G1 X-93.560 Y-0.222 E33.8891
G1 X-89.778 Y3.560 E34.0359
G1 X-90.344 Y3.560 E34.0514
G1 X-93.560 Y0.344 E34.1762
G1 X-93.560 Y0.909 E34.1917
G1 X-90.910 Y3.560 E34.2946
G1 X-91.475 Y3.560 E34.3101
G1 X-93.560 Y1.475 E34.3910
G1 X-93.560 Y2.041 E34.4065
G1 X-92.041 Y3.560 E34.4654
G1 X-92.607 Y3.560 E34.4810
G1 X-93.560 Y2.606 E34.5180
G1 X-93.560 Y3.172 E34.5335
G1 X-93.172 Y3.560 E34.5485
G1 E33.0485 F1200
; inner perimeter
G1 X-84.049 Y4.303 F5400
G1 X-12.409 Y4.297 F5400
G1 X-12.813 Y10.107 F5400
G1 E34.5985 F1200
G1 X-12.813 Y14.893 E34.7299 F1920
G1 X-93.900 Y14.900 E36.9548
G1 X-93.900 Y10.100 E37.0866
G1 X-12.813 Y10.107 E39.3115
; outer perimeter
G1 X-94.300 Y15.300 F5400
G1 X-94.300 Y9.700 E39.4652 F1440
G1 X-12.413 Y9.707 E41.7121
G1 X-12.413 Y15.293 E41.8654
G1 X-94.300 Y15.300 E44.1124
; solid layer
G1 X-93.560 Y14.486 F5400
G1 X-93.486 Y14.560 E44.1152 F1440
G1 X-92.920 Y14.560 E44.1308
G1 X-93.560 Y13.920 E44.1556
G1 X-93.560 Y13.355 E44.1711
G1 X-92.355 Y14.560 E44.2179
G1 X-91.789 Y14.560 E44.2334
G1 X-93.560 Y12.789 E44.3021
G1 X-93.560 Y12.223 E44.3176
G1 X-91.223 Y14.560 E44.4083
G1 X-90.658 Y14.560 E44.4238
G1 X-93.560 Y11.657 E44.5365
G1 X-93.560 Y11.092 E44.5520
G1 X-90.092 Y14.560 E44.6866
G1 X-89.527 Y14.560 E44.7021
G1 X-93.560 Y10.526 E44.8586
G1 X-93.560 Y10.440 E44.8610
G1 X-93.080 Y10.440 E44.8741
G1 X-88.961 Y14.560 E45.0340
G1 X-88.395 Y14.559 E45.0495
G1 X-92.515 Y10.440 E45.2093
G1 X-91.949 Y10.440 E45.2249
G1 X-87.830 Y14.559 E45.3847
G1 X-87.264 Y14.559 E45.4002
G1 X-91.383 Y10.440 E45.5601
G1 X-90.817 Y10.440 E45.5756
G1 X-86.698 Y14.559 E45.7355
G1 X-86.133 Y14.559 E45.7510
