; G-Code generated by Simplify3D(R) Version 4.0.0
; Sep 8, 2017 at 10:06:07 PM
; Settings Summary
;   processName,Process1
;   applyToModels,Tampa_LEDS
;   profileName,BEEVERYCREATIVE BEETHEFIRST (modified)
;   profileVersion,2017-09-06 17:01:25
;   baseProfile,
;   printMaterial,
;   printQuality,
;   printExtruders,
;   extruderName,Primary Extruder
;   extruderToolheadNumber,0
;   extruderDiameter,0.4
;   extruderAutoWidth,0
;   extruderWidth,0.4
;   extrusionMultiplier,1.1
;   extruderUseRetract,1
;   extruderRetractionDistance,1.5
;   extruderExtraRestartDistance,0.05
;   extruderRetractionZLift,0
;   extruderRetractionSpeed,1200
;   extruderUseCoasting,0
;   extruderCoastingDistance,0.1
;   extruderUseWipe,0
;   extruderWipeDistance,1
;   primaryExtruder,0
;   layerHeight,0.15
;   topSolidLayers,4
;   bottomSolidLayers,4
;   perimeterOutlines,2
;   printPerimetersInsideOut,1
;   startPointOption,1
;   startPointOriginX,0
;   startPointOriginY,0
;   sequentialIslands,0
;   spiralVaseMode,0
;   firstLayerHeightPercentage,100
;   firstLayerWidthPercentage,100
;   firstLayerUnderspeed,0.8
;   useRaft,0
;   raftExtruder,0
;   raftTopLayers,4
;   raftBaseLayers,2
;   raftOffset,10
;   raftSeparationDistance,0.2
;   raftTopInfill,100
;   aboveRaftSpeedMultiplier,0.3
;   useSkirt,1
;   skirtExtruder,0
;   skirtLayers,1
;   skirtOutlines,10
;   skirtOffset,0
;   usePrimePillar,0
;   primePillarExtruder,999
;   primePillarWidth,12
;   primePillarLocation,7
;   primePillarSpeedMultiplier,1
;   useOozeShield,0
;   oozeShieldExtruder,999
;   oozeShieldOffset,2
;   oozeShieldOutlines,1
;   oozeShieldSidewallShape,1
;   oozeShieldSidewallAngle,30
;   oozeShieldSpeedMultiplier,1
;   infillExtruder,0
;   internalInfillPattern,Triangular
;   externalInfillPattern,Rectilinear
;   infillPercentage,10
;   outlineOverlapPercentage,15
;   infillExtrusionWidthPercentage,100
;   minInfillLength,5
;   infillLayerInterval,1
;   internalInfillAngles,0,60,-60
;   overlapInternalInfillAngles,1
;   externalInfillAngles,45,-45
;   generateSupport,0
;   supportExtruder,0
;   supportInfillPercentage,10
;   supportExtraInflation,0
;   supportBaseLayers,0
;   denseSupportExtruder,0
;   denseSupportLayers,2
;   denseSupportInfillPercentage,80
;   supportLayerInterval,1
;   supportHorizontalPartOffset,0.25
;   supportUpperSeparationLayers,2
;   supportLowerSeparationLayers,2
;   supportType,0
;   supportGridSpacing,1
;   maxOverhangAngle,60
;   supportAngles,45
;   temperatureName,Primary Extruder Temperature
;   temperatureNumber,0
;   temperatureSetpointCount,1
;   temperatureSetpointLayers,1
;   temperatureSetpointTemperatures,230
;   temperatureStabilizeAtStartup,1
;   temperatureHeatedBed,0
;   temperatureRelayBetweenLayers,0
;   temperatureRelayBetweenLoops,0
;   fanLayers,1,2
;   fanSpeeds,0,30
;   blipFanToFullPower,0
;   adjustSpeedForCooling,0
;   minSpeedLayerTime,15
;   minCoolingSpeedSlowdown,50
;   increaseFanForCooling,0
;   minFanLayerTime,45
;   maxCoolingFanSpeed,90
;   increaseFanForBridging,0
;   bridgingFanSpeed,100
;   use5D,1
;   relativeEdistances,0
;   allowEaxisZeroing,0
;   independentExtruderAxes,0
;   includeM10123,0
;   stickySupport,1
;   applyToolheadOffsets,0
;   gcodeXoffset,0
;   gcodeYoffset,0
;   gcodeZoffset,0
;   overrideMachineDefinition,1
;   machineTypeOverride,0
;   strokeXoverride,190
;   strokeYoverride,135
;   strokeZoverride,125
;   originOffsetXoverride,95
;   originOffsetYoverride,67.5
;   originOffsetZoverride,0
;   homeXdirOverride,-1
;   homeYdirOverride,-1
;   homeZdirOverride,-1
;   flipXoverride,1
;   flipYoverride,-1
;   flipZoverride,1
;   toolheadOffsets,0,0|0,0|0,0|0,0|0,0|0,0
;   overrideFirmwareConfiguration,0
;   firmwareTypeOverride,RepRap (Marlin/Repetier/Sprinter)
;   GPXconfigOverride,r2
;   baudRateOverride,115200
;   overridePrinterModels,0
;   printerModelsOverride
;   startingGcode,M300,G28,M206 X500,M107,M104 S[extruder0_temperature],G92 E,M642 W1,M130 T6 U1.3 V80,G1 X-98.0 Y-20.0 Z5.0 F3000,G1 Y-68.0 Z0.3,G1 X-98.0 Y0.0 F500 E20,G92 E
;   layerChangeGcode,
;   retractionGcode,
;   toolChangeGcode,
;   endingGcode,M300,M104 S0,G28 X,G28 Z,G1 Y65,M107,M641 A1
;   exportFileFormat,gcode
;   celebration,0
;   celebrationSong,Random Song
;   postProcessing,
;   defaultSpeed,3000
;   outlineUnderspeed,0.6
;   solidInfillUnderspeed,0.6
;   supportUnderspeed,0.6
;   rapidXYspeed,5400
;   rapidZspeed,2400
;   minBridgingArea,5
;   bridgingExtraInflation,0
;   bridgingExtrusionMultiplier,1.1
;   bridgingSpeedMultiplier,0.6
;   useFixedBridgingAngle,0
;   fixedBridgingAngle,0
;   applyBridgingToPerimeters,0
;   filamentDiameters,1.75|1.75|1.75|1.75|1.75|1.75
;   filamentPricesPerKg,46|46|46|46|46|46
;   filamentDensities,1.25|1.25|1.25|1.25|1.25|1.25
;   useMinPrintHeight,0
;   minPrintHeight,0
;   useMaxPrintHeight,0
;   maxPrintHeight,2
;   useDiaphragm,0
;   diaphragmLayerInterval,20
;   robustSlicing,0
;   mergeAllIntoSolid,0
;   onlyRetractWhenCrossingOutline,1
;   retractBetweenLayers,1
;   useRetractionMinTravel,0
;   retractionMinTravel,1
;   retractWhileWiping,1
;   onlyWipeOutlines,0
;   avoidCrossingOutline,1
;   maxMovementDetourFactor,3
;   toolChangeRetractionDistance,12
;   toolChangeExtraRestartDistance,-0.5
;   toolChangeRetractionSpeed,600
;   externalThinWallType,1
;   internalThinWallType,2
;   thinWallAllowedOverlapPercentage,50
;   singleExtrusionMinLength,1
;   singleExtrusionMinPrintingWidthPercentage,50
;   singleExtrusionMaxPrintingWidthPercentage,200
;   singleExtrusionEndpointExtension,0.2
;   horizontalSizeCompensation,0
G90
M82
M106 S0
M300
G28
M206 X500
M107
M104 S230
G92 E
M642 W1
M130 T6 U1.3 V80
G1 X-98.0 Y-20.0 Z5.0 F3000
G1 Y-68.0 Z0.3
G1 X-98.0 Y0.0 F500 E20
G92 E
G1 E-1.5000 F1200
G1 Z0.150 F2400
; process Process1
; layer 1, Z = 0.150
T0
; tool H0.150 W0.400
; skirt
G1 X-11.063 Y-18.518 F5400
G1 E0.0500 F360
G1 X11.063 Y-18.518 E0.6571 F2400
G1 X11.744 Y-18.800 E0.6774
G1 X29.574 Y-18.800 E1.1666
G1 X31.800 Y-16.574 E1.2530
G1 X31.800 Y16.574 E2.1626
G1 X29.574 Y18.800 E2.2489
G1 X11.744 Y18.800 E2.7382
G1 X11.063 Y18.518 E2.7584
G1 X-11.063 Y18.518 E3.3655
G1 X-11.744 Y18.800 E3.3858
G1 X-29.574 Y18.800 E3.8750
G1 X-31.800 Y16.574 E3.9614
G1 X-31.800 Y-16.574 E4.8710
G1 X-29.574 Y-18.800 E4.9573
G1 X-11.744 Y-18.800 E5.4466
G1 X-11.063 Y-18.518 E5.4668
G1 X-11.143 Y-18.118 F5400
G1 X11.143 Y-18.118 E6.0783 F2400
G1 X11.824 Y-18.400 E6.0985
G1 X29.408 Y-18.400 E6.5811
G1 X31.400 Y-16.408 E6.6583
G1 X31.400 Y16.408 E7.5588
G1 X29.408 Y18.400 E7.6361
G1 X11.824 Y18.400 E8.1186
G1 X11.143 Y18.118 E8.1389
G1 X-11.143 Y18.118 E8.7504
G1 X-11.824 Y18.400 E8.7706
G1 X-29.408 Y18.400 E9.2531
G1 X-31.400 Y16.408 E9.3304
G1 X-31.400 Y-16.408 E10.2309
G1 X-29.408 Y-18.400 E10.3081
G1 X-11.824 Y-18.400 E10.7907
G1 X-11.143 Y-18.118 E10.8109
G1 X-11.222 Y-17.718 F5400
G1 X11.222 Y-17.718 E11.4268 F2400
G1 X11.903 Y-18.000 E11.4470
G1 X29.243 Y-18.000 E11.9228
G1 X31.000 Y-16.243 E11.9910
G1 X31.000 Y16.243 E12.8823
G1 X29.243 Y18.000 E12.9505
G1 X11.903 Y18.000 E13.4263
G1 X11.222 Y17.718 E13.4466
G1 X-11.222 Y17.718 E14.0624
G1 X-11.903 Y18.000 E14.0827
G1 X-29.243 Y18.000 E14.5584
G1 X-31.000 Y16.243 E14.6266
G1 X-31.000 Y-16.243 E15.5180
G1 X-29.243 Y-18.000 E15.5862
G1 X-11.903 Y-18.000 E16.0620
G1 X-11.222 Y-17.718 E16.0822
G1 X-11.302 Y-17.318 F5400
G1 X11.302 Y-17.318 E16.7025 F2400
G1 X11.983 Y-17.600 E16.7227
G1 X29.077 Y-17.600 E17.1917
G1 X30.600 Y-16.077 E17.2508
G1 X30.600 Y16.077 E18.1331
G1 X29.077 Y17.600 E18.1922
G1 X11.983 Y17.600 E18.6613
G1 X11.302 Y17.318 E18.6815
G1 X-11.302 Y17.318 E19.3018
G1 X-11.983 Y17.600 E19.3220
G1 X-29.077 Y17.600 E19.7910
G1 X-30.600 Y16.077 E19.8501
G1 X-30.600 Y-16.077 E20.7324
G1 X-29.077 Y-17.600 E20.7915
G1 X-11.983 Y-17.600 E21.2606
G1 X-11.302 Y-17.318 E21.2808
G1 X-11.381 Y-16.918 F5400
G1 X11.381 Y-16.918 E21.9054 F2400
G1 X12.062 Y-17.200 E21.9256
G1 X28.911 Y-17.200 E22.3880
G1 X30.200 Y-15.911 E22.4380
G1 X30.200 Y15.911 E23.3112
G1 X28.911 Y17.200 E23.3612
G1 X12.062 Y17.200 E23.8235
G1 X11.381 Y16.918 E23.8437
G1 X-11.381 Y16.918 E24.4683
G1 X-12.062 Y17.200 E24.4886
G1 X-28.911 Y17.200 E24.9509
G1 X-30.200 Y15.911 E25.0009
G1 X-30.200 Y-15.911 E25.8741
G1 X-28.911 Y-17.200 E25.9241
G1 X-12.062 Y-17.200 E26.3864
G1 X-11.381 Y-16.918 E26.4067
G1 X-11.480 Y-16.526 F5400
G1 X-11.472 Y-16.518 E26.4070 F2400
G1 X11.472 Y-16.518 E27.0366
G1 X11.480 Y-16.526 E27.0369
G1 X12.142 Y-16.800 E27.0565
G1 X28.746 Y-16.800 E27.5121
G1 X29.800 Y-15.746 E27.5530
G1 X29.800 Y15.746 E28.4172
G1 X28.746 Y16.800 E28.4581
G1 X12.142 Y16.800 E28.9137
G1 X11.480 Y16.526 E28.9333
G1 X11.472 Y16.518 E28.9336
G1 X-11.472 Y16.518 E29.5632
G1 X-11.480 Y16.526 E29.5635
G1 X-12.142 Y16.800 E29.5832
G1 X-28.746 Y16.800 E30.0388
G1 X-29.800 Y15.746 E30.0797
G1 X-29.800 Y-15.746 E30.9438
G1 X-28.746 Y-16.800 E30.9847
G1 X-12.142 Y-16.800 E31.4403
G1 X-11.480 Y-16.526 E31.4600
G1 X-11.707 Y-16.187 F5400
G1 X-11.638 Y-16.118 E31.4626 F2400
G1 X11.638 Y-16.118 E32.1013
G1 X11.707 Y-16.187 E32.1040
G1 X12.222 Y-16.400 E32.1193
G1 X28.580 Y-16.400 E32.5682
G1 X29.400 Y-15.580 E32.6000
G1 X29.400 Y15.580 E33.4550
G1 X28.580 Y16.400 E33.4868
G1 X12.222 Y16.400 E33.9357
G1 X11.707 Y16.187 E33.9510
G1 X11.638 Y16.118 E33.9536
G1 X-11.638 Y16.118 E34.5923
G1 X-11.707 Y16.187 E34.5950
G1 X-12.222 Y16.400 E34.6103
G1 X-28.580 Y16.400 E35.0592
G1 X-29.400 Y15.580 E35.0910
G1 X-29.400 Y-15.580 E35.9460
G1 X-28.580 Y-16.400 E35.9778
G1 X-12.222 Y-16.400 E36.4267
G1 X-11.707 Y-16.187 E36.4420
G1 X-11.934 Y-15.848 F5400
G1 X-11.804 Y-15.718 E36.4470 F2400
G1 X11.804 Y-15.718 E37.0948
G1 X11.934 Y-15.848 E37.0998
G1 X12.301 Y-16.000 E37.1107
G1 X28.414 Y-16.000 E37.5529
G1 X29.000 Y-15.414 E37.5756
G1 X29.000 Y15.414 E38.4215
G1 X28.414 Y16.000 E38.4443
G1 X12.301 Y16.000 E38.8864
G1 X11.934 Y15.848 E38.8973
G1 X11.804 Y15.718 E38.9024
G1 X-11.804 Y15.718 E39.5501
G1 X-11.934 Y15.848 E39.5552
G1 X-12.301 Y16.000 E39.5661
G1 X-28.414 Y16.000 E40.0082
G1 X-29.000 Y15.414 E40.0310
G1 X-29.000 Y-15.414 E40.8769
G1 X-28.414 Y-16.000 E40.8996
G1 X-12.301 Y-16.000 E41.3417
G1 X-11.934 Y-15.848 E41.3527
G1 X-12.160 Y-15.509 F5400
G1 X-11.969 Y-15.318 E41.3601 F2400
G1 X11.969 Y-15.318 E42.0169
G1 X12.160 Y-15.509 E42.0243
G1 X12.381 Y-15.600 E42.0309
G1 X28.249 Y-15.600 E42.4663
G1 X28.600 Y-15.249 E42.4799
G1 X28.600 Y15.249 E43.3168
G1 X28.249 Y15.600 E43.3304
G1 X12.381 Y15.600 E43.7658
G1 X12.160 Y15.509 E43.7724
G1 X11.969 Y15.318 E43.7798
G1 X-11.969 Y15.318 E44.4366
G1 X-12.160 Y15.509 E44.4440
G1 X-12.381 Y15.600 E44.4506
G1 X-28.249 Y15.600 E44.8860
G1 X-28.600 Y15.249 E44.8996
G1 X-28.600 Y-15.249 E45.7365
G1 X-28.249 Y-15.600 E45.7501
G1 X-12.381 Y-15.600 E46.1855
G1 X-12.160 Y-15.509 E46.1921
G1 X-12.387 Y-15.170 F5400
G1 X-12.135 Y-14.918 E46.2018 F2400
G1 X12.135 Y-14.918 E46.8678
G1 X12.387 Y-15.170 E46.8775
G1 X12.460 Y-15.200 E46.8797
G1 X28.083 Y-15.200 E47.3084
G1 X28.200 Y-15.083 E47.3130
G1 X28.200 Y15.083 E48.1407
G1 X28.083 Y15.200 E48.1452
G1 X12.460 Y15.200 E48.5739
G1 X12.387 Y15.170 E48.5761
G1 X12.135 Y14.918 E48.5859
G1 X-12.135 Y14.918 E49.2518
G1 X-12.387 Y15.170 E49.2616
G1 X-12.460 Y15.200 E49.2638
G1 X-28.083 Y15.200 E49.6925
G1 X-28.200 Y15.083 E49.6970
G1 X-28.200 Y-15.083 E50.5247
G1 X-28.083 Y-15.200 E50.5293
G1 X-12.460 Y-15.200 E50.9580
G1 X-12.387 Y-15.170 E50.9601
G1 E49.4601 F1200
; inner perimeter
G1 X-12.581 Y-14.804 F5400
G1 X-12.566 Y-14.789 F5400
G1 X-12.749 Y-14.400 F5400
G1 E51.0101 F1200
G1 X-12.466 Y-14.118 E51.0211 F1920
G1 X12.466 Y-14.118 E51.7052
G1 X12.749 Y-14.400 E51.7162
G1 X27.400 Y-14.400 E52.1182
G1 X27.400 Y14.400 E52.9085
G1 X12.749 Y14.400 E53.3105
G1 X12.466 Y14.118 E53.3215
G1 X-12.466 Y14.118 E54.0056
G1 X-12.749 Y14.400 E54.0165
G1 X-27.400 Y14.400 E54.4186
G1 X-27.400 Y-14.400 E55.2088
G1 X-12.749 Y-14.400 E55.6109
G1 E54.1109 F1200
; outer perimeter
G1 X27.800 Y14.800 F5400
G1 E55.6609 F1200
G1 X12.583 Y14.800 E56.0784 F1440
G1 X12.301 Y14.518 E56.0894
G1 X-12.301 Y14.518 E56.7644
G1 X-12.583 Y14.800 E56.7754
G1 X-27.800 Y14.800 E57.1929
G1 X-27.800 Y-14.800 E58.0051
G1 X-12.583 Y-14.800 E58.4227
G1 X-12.301 Y-14.518 E58.4336
G1 X12.301 Y-14.518 E59.1087
G1 X12.583 Y-14.800 E59.1196
G1 X27.800 Y-14.800 E59.5372
G1 X27.800 Y14.800 E60.3494
; inner perimeter
G1 X8.125 Y12.896 F5400
G1 X15.196 Y12.896 F5400
G1 X15.196 Y11.004 F5400
G1 X-11.425 Y11.004 F5400
G1 X-15.600 Y10.600 F5400
G1 X-15.600 Y13.300 E60.4235 F1920
G1 X15.600 Y13.300 E61.2796
G1 X15.600 Y10.600 E61.3537
G1 X-15.600 Y10.600 E62.2098
; outer perimeter
G1 X-10.190 Y11.004 F5400
G1 X-15.196 Y11.004 F5400
G1 X-15.196 Y12.896 F5400
G1 X15.146 Y12.896 F5400
G1 X15.200 Y12.900 F5400
G1 X15.200 Y11.000 E62.2619 F1440
G1 X-15.200 Y11.000 E63.0961
G1 X-15.200 Y12.900 E63.1482
G1 X15.200 Y12.900 E63.9824
; inner perimeter
G1 X15.195 Y12.896 F5400
G1 X15.196 Y12.896 F5400
G1 X15.196 Y11.004 F5400
G1 X12.971 Y11.004 F5400
G1 X-12.901 Y-11.004 F5400
G1 X-15.196 Y-11.004 F5400
G1 X-15.196 Y-12.896 F5400
G1 X-15.125 Y-12.896 F5400
G1 X-15.600 Y-13.300 F5400
G1 X-15.600 Y-10.600 E64.0565 F1920
G1 X15.600 Y-10.600 E64.9126
G1 X15.600 Y-13.300 E64.9867
G1 X-15.600 Y-13.300 E65.8428
; outer perimeter
G1 X-15.200 Y-11.000 F5400
G1 X15.200 Y-11.000 E66.6770 F1440
G1 X15.200 Y-12.900 E66.7291
G1 X-15.200 Y-12.900 E67.5633
G1 X-15.200 Y-11.000 E67.6154
; solid layer
G1 X-15.351 Y-10.260 F5400
G1 X5.169 Y10.260 E68.4117 F1440
G1 X5.735 Y10.260 E68.4272
G1 X-14.785 Y-10.260 E69.2235
G1 X-14.220 Y-10.260 E69.2390
G1 X6.300 Y10.260 E70.0353
G1 X6.866 Y10.260 E70.0508
G1 X-13.654 Y-10.260 E70.8471
G1 X-13.088 Y-10.260 E70.8627
G1 X7.432 Y10.260 E71.6589
G1 X7.997 Y10.260 E71.6745
G1 X-12.523 Y-10.260 E72.4708
G1 X-11.957 Y-10.260 E72.4863
G1 X8.563 Y10.260 E73.2826
G1 X9.129 Y10.260 E73.2981
G1 X-11.391 Y-10.260 E74.0944
G1 X-10.826 Y-10.260 E74.1099
G1 X9.694 Y10.260 E74.9062
G1 X10.260 Y10.260 E74.9217
G1 X-10.260 Y-10.260 E75.7180
G1 X-9.694 Y-10.260 E75.7335
G1 X10.826 Y10.260 E76.5298
G1 X11.391 Y10.260 E76.5453
G1 X-9.129 Y-10.260 E77.3416
G1 X-8.563 Y-10.260 E77.3571
G1 X11.957 Y10.260 E78.1534
G1 X12.523 Y10.260 E78.1690
G1 X-7.997 Y-10.260 E78.9652
G1 X-7.432 Y-10.260 E78.9808
G1 X13.088 Y10.260 E79.7771
G1 X13.654 Y10.260 E79.7926
G1 X-6.866 Y-10.260 E80.5889
G1 X-6.300 Y-10.260 E80.6044
G1 X14.220 Y10.260 E81.4007
G1 X14.785 Y10.260 E81.4162
G1 X-5.735 Y-10.260 E82.2125
G1 X-5.169 Y-10.260 E82.2280
G1 X15.351 Y10.260 E83.0243
G1 X15.917 Y10.260 E83.0398
G1 X-4.603 Y-10.260 E83.8361
G1 X-4.037 Y-10.260 E83.8516
G1 X20.283 Y14.060 E84.7954
G1 X20.848 Y14.060 E84.8109
G1 X-3.472 Y-10.260 E85.7546
G1 X-2.906 Y-10.260 E85.7702
G1 X21.414 Y14.060 E86.7139
G1 X21.980 Y14.060 E86.7294
G1 X-2.340 Y-10.260 E87.6732
G1 X-1.775 Y-10.260 E87.6887
G1 X22.545 Y14.060 E88.6325
G1 X23.111 Y14.060 E88.6480
G1 X-1.209 Y-10.260 E89.5917
G1 X-0.643 Y-10.260 E89.6073
G1 X23.677 Y14.060 E90.5510
G1 X24.242 Y14.060 E90.5665
G1 X-0.078 Y-10.260 E91.5103
G1 X0.488 Y-10.260 E91.5258
G1 X24.808 Y14.060 E92.4695
G1 X25.374 Y14.060 E92.4851
G1 X1.054 Y-10.260 E93.4288
G1 X1.619 Y-10.260 E93.4443
G1 X25.939 Y14.060 E94.3881
G1 X26.505 Y14.060 E94.4036
G1 X2.185 Y-10.260 E95.3474
G1 X2.751 Y-10.260 E95.3629
G1 X27.060 Y14.049 E96.3062
G1 X27.060 Y13.484 E96.3217
G1 X3.316 Y-10.260 E97.2431
G1 X3.882 Y-10.260 E97.2586
G1 X27.060 Y12.918 E98.1581
G1 X27.060 Y12.352 E98.1736
G1 X4.448 Y-10.260 E99.0511
G1 X5.014 Y-10.260 E99.0666
G1 X27.060 Y11.786 E99.9221
G1 X27.060 Y11.221 E99.9376
G1 X5.579 Y-10.260 E100.7712
G1 X6.145 Y-10.260 E100.7867
G1 X27.060 Y10.655 E101.5983
G1 X27.060 Y10.089 E101.6139
G1 X6.711 Y-10.260 E102.4035
G1 X7.276 Y-10.260 E102.4191
G1 X27.060 Y9.524 E103.1868
G1 X27.060 Y8.958 E103.2023
G1 X7.842 Y-10.260 E103.9481
G1 X8.408 Y-10.260 E103.9636
G1 X27.060 Y8.392 E104.6874
G1 X27.060 Y7.827 E104.7029
G1 X8.973 Y-10.260 E105.4048
G1 X9.539 Y-10.260 E105.4203
G1 X27.060 Y7.261 E106.1002
G1 X27.060 Y6.695 E106.1157
