; G-Code generated by Simplify3D(R) Version 4.0.0
; Sep 6, 2017 at 11:21:16 AM
; Settings Summary
;   processName,Process1
;   applyToModels,tampa_destacavel
;   profileName,BEEVERYCREATIVE BEETHEFIRST (modified)
;   profileVersion,2017-09-05 18:11:50
;   baseProfile,
;   printMaterial,
;   printQuality,
;   printExtruders,
;   extruderName,Primary Extruder
;   extruderToolheadNumber,0
;   extruderDiameter,0.4
;   extruderAutoWidth,0
;   extruderWidth,0.4
;   extrusionMultiplier,1.12
;   extruderUseRetract,1
;   extruderRetractionDistance,1.5
;   extruderExtraRestartDistance,0.05
;   extruderRetractionZLift,0
;   extruderRetractionSpeed,1200
;   extruderUseCoasting,0
;   extruderCoastingDistance,0.1
;   extruderUseWipe,0
;   extruderWipeDistance,1
;   primaryExtruder,0
;   layerHeight,0.3
;   topSolidLayers,4
;   bottomSolidLayers,2
;   perimeterOutlines,2
;   printPerimetersInsideOut,1
;   startPointOption,1
;   startPointOriginX,0
;   startPointOriginY,0
;   sequentialIslands,0
;   spiralVaseMode,0
;   firstLayerHeightPercentage,100
;   firstLayerWidthPercentage,100
;   firstLayerUnderspeed,0.8
;   useRaft,0
;   raftExtruder,0
;   raftTopLayers,4
;   raftBaseLayers,2
;   raftOffset,10
;   raftSeparationDistance,0.2
;   raftTopInfill,100
;   aboveRaftSpeedMultiplier,0.3
;   useSkirt,0
;   skirtExtruder,0
;   skirtLayers,1
;   skirtOutlines,10
;   skirtOffset,0
;   usePrimePillar,0
;   primePillarExtruder,999
;   primePillarWidth,12
;   primePillarLocation,7
;   primePillarSpeedMultiplier,1
;   useOozeShield,0
;   oozeShieldExtruder,999
;   oozeShieldOffset,2
;   oozeShieldOutlines,1
;   oozeShieldSidewallShape,1
;   oozeShieldSidewallAngle,30
;   oozeShieldSpeedMultiplier,1
;   infillExtruder,0
;   internalInfillPattern,Fast Honeycomb
;   externalInfillPattern,Rectilinear
;   infillPercentage,10
;   outlineOverlapPercentage,15
;   infillExtrusionWidthPercentage,100
;   minInfillLength,5
;   infillLayerInterval,1
;   internalInfillAngles,0
;   overlapInternalInfillAngles,0
;   externalInfillAngles,45,-45
;   generateSupport,0
;   supportExtruder,0
;   supportInfillPercentage,10
;   supportExtraInflation,0
;   supportBaseLayers,0
;   denseSupportExtruder,0
;   denseSupportLayers,2
;   denseSupportInfillPercentage,80
;   supportLayerInterval,1
;   supportHorizontalPartOffset,0.25
;   supportUpperSeparationLayers,2
;   supportLowerSeparationLayers,2
;   supportType,0
;   supportGridSpacing,1
;   maxOverhangAngle,60
;   supportAngles,45
;   temperatureName,Primary Extruder Temperature
;   temperatureNumber,0
;   temperatureSetpointCount,2
;   temperatureSetpointLayers,1,1
;   temperatureSetpointTemperatures,230,220
;   temperatureStabilizeAtStartup,1
;   temperatureHeatedBed,0
;   temperatureRelayBetweenLayers,0
;   temperatureRelayBetweenLoops,0
;   fanLayers,1,2
;   fanSpeeds,0,80
;   blipFanToFullPower,0
;   adjustSpeedForCooling,0
;   minSpeedLayerTime,15
;   minCoolingSpeedSlowdown,50
;   increaseFanForCooling,0
;   minFanLayerTime,45
;   maxCoolingFanSpeed,90
;   increaseFanForBridging,0
;   bridgingFanSpeed,100
;   use5D,1
;   relativeEdistances,0
;   allowEaxisZeroing,0
;   independentExtruderAxes,0
;   includeM10123,0
;   stickySupport,1
;   applyToolheadOffsets,0
;   gcodeXoffset,0
;   gcodeYoffset,0
;   gcodeZoffset,0
;   overrideMachineDefinition,1
;   machineTypeOverride,0
;   strokeXoverride,190
;   strokeYoverride,135
;   strokeZoverride,125
;   originOffsetXoverride,95
;   originOffsetYoverride,67.5
;   originOffsetZoverride,0
;   homeXdirOverride,-1
;   homeYdirOverride,-1
;   homeZdirOverride,-1
;   flipXoverride,1
;   flipYoverride,-1
;   flipZoverride,1
;   toolheadOffsets,0,0|0,0|0,0|0,0|0,0|0,0
;   overrideFirmwareConfiguration,0
;   firmwareTypeOverride,RepRap (Marlin/Repetier/Sprinter)
;   GPXconfigOverride,r2
;   baudRateOverride,115200
;   overridePrinterModels,0
;   printerModelsOverride
;   startingGcode,M300,G28,M206 X500,M107,M104 S[extruder0_temperature],G92 E,M642 W1,M130 T6 U1.3 V80,G1 X-98.0 Y-20.0 Z5.0 F3000,G1 Y-68.0 Z0.3,G1 X-98.0 Y0.0 F500 E20,G92 E
;   layerChangeGcode,
;   retractionGcode,
;   toolChangeGcode,
;   endingGcode,M300,M104 S0,G28 X,G28 Z,G1 Y65,M107,M641 A1
;   exportFileFormat,gcode
;   celebration,0
;   celebrationSong,Random Song
;   postProcessing,
;   defaultSpeed,3000
;   outlineUnderspeed,0.6
;   solidInfillUnderspeed,0.6
;   supportUnderspeed,0.6
;   rapidXYspeed,5400
;   rapidZspeed,2400
;   minBridgingArea,5
;   bridgingExtraInflation,0
;   bridgingExtrusionMultiplier,1.1
;   bridgingSpeedMultiplier,0.6
;   useFixedBridgingAngle,0
;   fixedBridgingAngle,0
;   applyBridgingToPerimeters,0
;   filamentDiameters,1.75|1.75|1.75|1.75|1.75|1.75
;   filamentPricesPerKg,46|46|46|46|46|46
;   filamentDensities,1.25|1.25|1.25|1.25|1.25|1.25
;   useMinPrintHeight,0
;   minPrintHeight,0
;   useMaxPrintHeight,0
;   maxPrintHeight,2
;   useDiaphragm,0
;   diaphragmLayerInterval,20
;   robustSlicing,0
;   mergeAllIntoSolid,0
;   onlyRetractWhenCrossingOutline,1
;   retractBetweenLayers,1
;   useRetractionMinTravel,0
;   retractionMinTravel,1
;   retractWhileWiping,1
;   onlyWipeOutlines,0
;   avoidCrossingOutline,1
;   maxMovementDetourFactor,3
;   toolChangeRetractionDistance,12
;   toolChangeExtraRestartDistance,-0.5
;   toolChangeRetractionSpeed,600
;   externalThinWallType,1
;   internalThinWallType,2
;   thinWallAllowedOverlapPercentage,50
;   singleExtrusionMinLength,1
;   singleExtrusionMinPrintingWidthPercentage,50
;   singleExtrusionMaxPrintingWidthPercentage,200
;   singleExtrusionEndpointExtension,0.2
;   horizontalSizeCompensation,0
G90
M82
M106 S0
M300
G28
M206 X500
M107
M104 S230
G92 E
M642 W1
M130 T6 U1.3 V80
G1 X-98.0 Y-20.0 Z5.0 F3000
G1 Y-68.0 Z0.3
G1 X-98.0 Y0.0 F500 E20
G92 E
G1 E-1.5000 F1200
G1 Z0.300 F2400
; process Process1
; layer 1, Z = 0.300
T0
; tool H0.300 W0.400
; inner perimeter
G1 X-12.749 Y-14.400 F5400
G1 E0.0500 F360
G1 X-12.391 Y-14.043 E0.0782 F1920
G1 X12.391 Y-14.043 E1.4630
G1 X12.749 Y-14.400 E1.4912
G1 X27.400 Y-14.400 E2.3099
G1 X27.400 Y14.400 E3.9192
G1 X12.749 Y14.400 E4.7379
G1 X12.391 Y14.043 E4.7661
G1 X-12.391 Y14.043 E6.1509
G1 X-12.749 Y14.400 E6.1791
G1 X-27.400 Y14.400 E6.9978
G1 X-27.400 Y-14.400 E8.6070
G1 X-12.749 Y-14.400 E9.4257
; outer perimeter
G1 X-10.660 Y-12.896 F5400
G1 X-11.196 Y-12.896 F5400
G1 X-11.196 Y-11.004 F5400
G1 X-8.033 Y-11.004 F5400
G1 X27.800 Y14.800 F5400
G1 X12.583 Y14.800 E10.2760 F1440
G1 X12.226 Y14.443 E10.3042
G1 X-12.226 Y14.443 E11.6705
G1 X-12.583 Y14.800 E11.6987
G1 X-27.800 Y14.800 E12.5490
G1 X-27.800 Y-14.800 E14.2030
G1 X-12.583 Y-14.800 E15.0532
G1 X-12.226 Y-14.443 E15.0815
G1 X12.226 Y-14.443 E16.4477
G1 X12.583 Y-14.800 E16.4760
G1 X27.800 Y-14.800 E17.3262
G1 X27.800 Y14.800 E18.9802
; inner perimeter
G1 X9.939 Y12.896 F5400
G1 X11.196 Y12.896 F5400
G1 X11.196 Y11.004 F5400
G1 X-7.810 Y11.004 F5400
G1 X-11.600 Y10.600 F5400
G1 X-11.600 Y13.300 E19.1311 F1920
G1 X11.600 Y13.300 E20.4274
G1 X11.600 Y10.600 E20.5783
G1 X-11.600 Y10.600 E21.8746
; outer perimeter
G1 X-7.595 Y11.004 F5400
G1 X-11.196 Y11.004 F5400
G1 X-11.196 Y12.896 F5400
G1 X11.160 Y12.896 F5400
G1 X11.200 Y12.900 F5400
G1 X11.200 Y11.000 E21.9808 F1440
G1 X-11.200 Y11.000 E23.2324
G1 X-11.200 Y12.900 E23.3386
G1 X11.200 Y12.900 E24.5903
G1 E23.0903 F1200
; inner perimeter
G1 X-11.600 Y-13.300 F5400
G1 E24.6403 F1200
G1 X-11.600 Y-10.600 E24.7911 F1920
G1 X11.600 Y-10.600 E26.0875
G1 X11.600 Y-13.300 E26.2383
G1 X-11.600 Y-13.300 E27.5347
; outer perimeter
G1 X-11.200 Y-11.000 F5400
G1 X11.200 Y-11.000 E28.7863 F1440
G1 X11.200 Y-12.900 E28.8925
G1 X-11.200 Y-12.900 E30.1441
G1 X-11.200 Y-11.000 E30.2503
; solid layer
G1 X-10.826 Y-10.260 F5400
G1 X9.694 Y10.260 E31.8718 F1440
G1 X10.260 Y10.260 E31.9035
G1 X-10.260 Y-10.260 E33.5250
G1 X-9.694 Y-10.260 E33.5566
G1 X10.826 Y10.260 E35.1781
G1 X11.391 Y10.260 E35.2097
G1 X-9.129 Y-10.260 E36.8313
G1 X-8.563 Y-10.260 E36.8629
G1 X15.757 Y14.060 E38.7847
G1 X16.323 Y14.060 E38.8163
G1 X-7.997 Y-10.260 E40.7381
G1 X-7.432 Y-10.260 E40.7697
G1 X16.888 Y14.060 E42.6915
G1 X17.454 Y14.060 E42.7232
G1 X-6.866 Y-10.260 E44.6450
G1 X-6.300 Y-10.260 E44.6766
G1 X18.020 Y14.060 E46.5984
G1 X18.585 Y14.060 E46.6300
G1 X-5.735 Y-10.260 E48.5518
G1 X-5.169 Y-10.260 E48.5834
G1 X19.151 Y14.060 E50.5052
G1 X19.717 Y14.060 E50.5369
G1 X-4.603 Y-10.260 E52.4587
G1 X-4.037 Y-10.260 E52.4903
G1 X20.283 Y14.060 E54.4121
G1 X20.848 Y14.060 E54.4437
G1 X-3.472 Y-10.260 E56.3655
G1 X-2.906 Y-10.260 E56.3971
G1 X21.414 Y14.060 E58.3189
G1 X21.980 Y14.060 E58.3506
G1 X-2.340 Y-10.260 E60.2724
G1 X-1.775 Y-10.260 E60.3040
G1 X22.545 Y14.060 E62.2258
G1 X23.111 Y14.060 E62.2574
G1 X-1.209 Y-10.260 E64.1792
G1 X-0.643 Y-10.260 E64.2108
G1 X23.677 Y14.060 E66.1326
G1 X24.242 Y14.060 E66.1643
G1 X-0.078 Y-10.260 E68.0861
G1 X0.488 Y-10.260 E68.1177
G1 X24.808 Y14.060 E70.0395
G1 X25.374 Y14.060 E70.0711
G1 X1.054 Y-10.260 E71.9929
G1 X1.619 Y-10.260 E72.0245
G1 X25.939 Y14.060 E73.9463
G1 X26.505 Y14.060 E73.9780
G1 X2.185 Y-10.260 E75.8998
G1 X2.751 Y-10.260 E75.9314
G1 X27.060 Y14.049 E77.8523
G1 X27.060 Y13.484 E77.8840
G1 X3.316 Y-10.260 E79.7602
G1 X3.882 Y-10.260 E79.7918
G1 X27.060 Y12.918 E81.6234
G1 X27.060 Y12.352 E81.6550
G1 X4.448 Y-10.260 E83.4419
G1 X5.014 Y-10.260 E83.4735
G1 X27.060 Y11.786 E85.2156
G1 X27.060 Y11.221 E85.2472
G1 X5.579 Y-10.260 E86.9447
G1 X6.145 Y-10.260 E86.9763
G1 X27.060 Y10.655 E88.6290
G1 X27.060 Y10.089 E88.6607
G1 X6.711 Y-10.260 E90.2687
G1 X7.276 Y-10.260 E90.3003
G1 X27.060 Y9.524 E91.8637
G1 X27.060 Y8.958 E91.8953
G1 X7.842 Y-10.260 E93.4139
G1 X8.408 Y-10.260 E93.4455
G1 X27.060 Y8.392 E94.9195
G1 X27.060 Y7.827 E94.9511
G1 X8.973 Y-10.260 E96.3803
G1 X9.539 Y-10.260 E96.4120
G1 X27.060 Y7.261 E97.7965
G1 X27.060 Y6.695 E97.8281
G1 X10.105 Y-10.260 E99.1680
G1 X10.670 Y-10.260 E99.1996
G1 X27.060 Y6.130 E100.4947
G1 X27.060 Y5.564 E100.5263
G1 X11.236 Y-10.260 E101.7768
G1 X11.802 Y-10.260 E101.8084
G1 X27.060 Y4.998 E103.0141
G1 X27.060 Y4.433 E103.0457
G1 X11.940 Y-10.687 E104.2405
G1 X11.940 Y-11.253 E104.2721
G1 X27.060 Y3.867 E105.4669
G1 X27.060 Y3.301 E105.4986
G1 X11.940 Y-11.819 E106.6934
G1 X11.940 Y-12.384 E106.7250
G1 X27.060 Y2.736 E107.9198
G1 X27.060 Y2.170 E107.9514
G1 X11.940 Y-12.950 E109.1462
G1 X26.669 Y-14.060 F5400
G1 X27.060 Y-13.669 E109.1771 F1440
G1 X27.060 Y-13.104 E109.2087
G1 X26.104 Y-14.060 E109.2843
G1 X25.538 Y-14.060 E109.3159
G1 X27.060 Y-12.538 E109.4361
G1 X27.060 Y-11.972 E109.4677
G1 X24.972 Y-14.060 E109.6327
G1 X24.407 Y-14.060 E109.6643
G1 X27.060 Y-11.407 E109.8740
G1 X27.060 Y-10.841 E109.9056
G1 X23.841 Y-14.060 E110.1600
G1 X23.275 Y-14.060 E110.1916
G1 X27.060 Y-10.275 E110.4907
G1 X27.060 Y-9.710 E110.5223
G1 X22.710 Y-14.060 E110.8661
G1 X22.144 Y-14.060 E110.8977
G1 X27.060 Y-9.144 E111.2862
G1 X27.060 Y-8.578 E111.3178
G1 X21.578 Y-14.060 E111.7510
G1 X21.013 Y-14.060 E111.7826
G1 X27.060 Y-8.013 E112.2604
G1 X27.060 Y-7.447 E112.2921
G1 X20.447 Y-14.060 E112.8146
G1 X19.881 Y-14.060 E112.8463
G1 X27.060 Y-6.881 E113.4135
G1 X27.060 Y-6.315 E113.4451
G1 X19.315 Y-14.060 E114.0571
G1 X18.750 Y-14.060 E114.0887
G1 X27.060 Y-5.750 E114.7454
G1 X27.060 Y-5.184 E114.7770
G1 X18.184 Y-14.060 E115.4784
G1 X17.618 Y-14.060 E115.5100
G1 X27.060 Y-4.618 E116.2561
G1 X27.060 Y-4.053 E116.2878
G1 X17.053 Y-14.060 E117.0785
G1 X16.487 Y-14.060 E117.1102
G1 X27.060 Y-3.487 E117.9457
G1 X27.060 Y-2.921 E117.9773
G1 X15.921 Y-14.060 E118.8575
G1 X15.356 Y-14.060 E118.8891
G1 X27.060 Y-2.356 E119.8140
G1 X27.060 Y-1.790 E119.8456
G1 X14.790 Y-14.060 E120.8152
G1 X14.224 Y-14.060 E120.8468
G1 X27.060 Y-1.224 E121.8611
G1 X27.060 Y-0.659 E121.8927
G1 X13.659 Y-14.060 E122.9517
G1 X13.093 Y-14.060 E122.9833
G1 X27.060 Y-0.093 E124.0870
G1 X27.060 Y0.473 E124.1186
G1 X12.708 Y-13.879 E125.2527
G1 X12.532 Y-13.703 E125.2667
G1 X12.319 Y-13.703 E125.2786
G1 X27.060 Y1.038 E126.4435
G1 X27.060 Y1.604 E126.4751
G1 X11.940 Y-13.516 E127.6699
G1 X11.940 Y-13.640 E127.6768
G1 X11.816 Y-13.640 E127.6838
G1 X11.753 Y-13.703 E127.6887
G1 X11.187 Y-13.703 E127.7204
G1 X11.250 Y-13.640 E127.7253
G1 X10.684 Y-13.640 E127.7569
G1 X10.622 Y-13.703 E127.7619
G1 X10.056 Y-13.703 E127.7935
G1 X10.119 Y-13.640 E127.7985
G1 X9.553 Y-13.640 E127.8301
G1 X9.490 Y-13.703 E127.8351
G1 X8.925 Y-13.703 E127.8667
G1 X8.987 Y-13.640 E127.8716
G1 X8.422 Y-13.640 E127.9032
G1 X8.359 Y-13.703 E127.9082
G1 X7.793 Y-13.703 E127.9398
G1 X7.856 Y-13.640 E127.9448
G1 X7.290 Y-13.640 E127.9764
G1 X7.227 Y-13.703 E127.9814
G1 X6.662 Y-13.703 E128.0130
G1 X6.725 Y-13.640 E128.0180
G1 X6.159 Y-13.640 E128.0496
G1 X6.096 Y-13.703 E128.0545
G1 X5.530 Y-13.703 E128.0861
G1 X5.593 Y-13.640 E128.0911
G1 X5.028 Y-13.640 E128.1227
G1 X4.965 Y-13.703 E128.1277
G1 X4.399 Y-13.703 E128.1593
G1 X4.462 Y-13.640 E128.1643
G1 X3.896 Y-13.640 E128.1959
G1 X3.833 Y-13.703 E128.2008
G1 X3.268 Y-13.703 E128.2325
G1 X3.331 Y-13.640 E128.2374
G1 X2.765 Y-13.640 E128.2690
G1 X2.702 Y-13.703 E128.2740
G1 X2.136 Y-13.703 E128.3056
G1 X2.199 Y-13.640 E128.3106
G1 X1.634 Y-13.640 E128.3422
G1 X1.571 Y-13.703 E128.3472
G1 X1.005 Y-13.703 E128.3788
G1 X1.068 Y-13.640 E128.3837
G1 X0.502 Y-13.640 E128.4153
G1 X0.439 Y-13.703 E128.4203
G1 X-0.126 Y-13.703 E128.4519
G1 X-0.064 Y-13.640 E128.4569
G1 X-0.629 Y-13.640 E128.4885
G1 X-0.692 Y-13.703 E128.4935
G1 X-1.258 Y-13.703 E128.5251
G1 X-1.195 Y-13.640 E128.5301
G1 X-1.761 Y-13.640 E128.5617
G1 X-1.823 Y-13.703 E128.5666
G1 X-2.389 Y-13.703 E128.5982
G1 X-2.326 Y-13.640 E128.6032
G1 X-2.892 Y-13.640 E128.6348
G1 X-2.955 Y-13.703 E128.6398
G1 X-3.521 Y-13.703 E128.6714
G1 X-3.458 Y-13.640 E128.6764
G1 X-4.023 Y-13.640 E128.7080
G1 X-4.086 Y-13.703 E128.7129
G1 X-4.652 Y-13.703 E128.7446
G1 X-4.589 Y-13.640 E128.7495
G1 X-5.155 Y-13.640 E128.7811
G1 X-5.218 Y-13.703 E128.7861
G1 X-5.783 Y-13.703 E128.8177
G1 X-5.720 Y-13.640 E128.8227
G1 X-6.286 Y-13.640 E128.8543
G1 X-6.349 Y-13.703 E128.8593
G1 X-6.915 Y-13.703 E128.8909
G1 X-6.852 Y-13.640 E128.8958
G1 X-7.417 Y-13.640 E128.9274
G1 X-7.480 Y-13.703 E128.9324
G1 X-8.046 Y-13.703 E128.9640
G1 X-7.983 Y-13.640 E128.9690
G1 X-8.549 Y-13.640 E129.0006
G1 X-8.612 Y-13.703 E129.0056
G1 X-9.177 Y-13.703 E129.0372
G1 X-9.115 Y-13.640 E129.0422
G1 X-9.680 Y-13.640 E129.0738
G1 X-9.743 Y-13.703 E129.0787
G1 X-10.309 Y-13.703 E129.1103
G1 X-10.246 Y-13.640 E129.1153
G1 X-10.812 Y-13.640 E129.1469
G1 X-10.874 Y-13.703 E129.1519
G1 X-11.440 Y-13.703 E129.1835
G1 X-11.377 Y-13.640 E129.1885
G1 X-11.940 Y-13.640 E129.2199
G1 X-11.940 Y-13.637 E129.2201
G1 X-12.006 Y-13.703 E129.2253
G1 X-12.532 Y-13.703 E129.2547
G1 X-12.889 Y-14.060 E129.2829
G1 X-12.929 Y-14.060 E129.2851
G1 X-11.940 Y-13.071 E129.3632
G1 X-11.940 Y-12.506 E129.3948
G1 X-13.494 Y-14.060 E129.5177
G1 X-14.060 Y-14.060 E129.5493
G1 X-11.940 Y-11.940 E129.7168
G1 X-11.940 Y-11.374 E129.7484
G1 X-14.626 Y-14.060 E129.9606
G1 X-15.191 Y-14.060 E129.9922
G1 X-11.940 Y-10.809 E130.2492
G1 X-11.940 Y-10.260 E130.2798
G1 X-11.391 Y-10.260 E130.3105
G1 X9.129 Y10.260 E131.9320
G1 X8.563 Y10.260 E131.9636
G1 X-15.757 Y-14.060 E133.8854
G1 X-16.323 Y-14.060 E133.9170
G1 X7.997 Y10.260 E135.8389
G1 X7.432 Y10.260 E135.8705
G1 X-16.888 Y-14.060 E137.7923
G1 X-17.454 Y-14.060 E137.8239
G1 X6.866 Y10.260 E139.7457
G1 X6.300 Y10.260 E139.7773
G1 X-18.020 Y-14.060 E141.6991
G1 X-18.585 Y-14.060 E141.7307
G1 X5.735 Y10.260 E143.6526
G1 X5.169 Y10.260 E143.6842
G1 X-19.151 Y-14.060 E145.6060
G1 X-19.717 Y-14.060 E145.6376
G1 X4.603 Y10.260 E147.5594
G1 X4.037 Y10.260 E147.5910
G1 X-20.283 Y-14.060 E149.5128
G1 X-20.848 Y-14.060 E149.5444
G1 X3.472 Y10.260 E151.4663
G1 X2.906 Y10.260 E151.4979
G1 X-21.414 Y-14.060 E153.4197
G1 X-21.980 Y-14.060 E153.4513
G1 X2.340 Y10.260 E155.3731
G1 X1.775 Y10.260 E155.4047
G1 X-22.545 Y-14.060 E157.3265
G1 X-23.111 Y-14.060 E157.3581
G1 X1.209 Y10.260 E159.2800
G1 X0.643 Y10.260 E159.3116
G1 X-23.677 Y-14.060 E161.2334
G1 X-24.242 Y-14.060 E161.2650
G1 X0.078 Y10.260 E163.1868
